%
O1001 (MH2E4)
(T3 D=4. CR=2. - ZMIN=-12.45 - BALL END MILL)
N10 G90 G94 G17 G49 G40 G80
N15 G21
N20 G28 G91 Z0.
N25 G90

(CONTOUR2)
N30 T4
N32 M06
N35 S8000 M03
N40 G54
N45 G5.1 Q1
N50 G00 X-33.934 Y-2.827
N55 G43 Z15. H04
N60 G00 Z0.517
N65 G01 Z-0.55 F250.
N70 G03 X33.938 Y2.827 I33.936 J2.827 F1500.
N75 X-33.988 Y-2.083 I-33.936 J-2.827
N80 G01 X-33.934 Y-2.827
N85 X-33.902 Y-2.968 Z-0.555
N90 X-33.87 Y-3.109 Z-0.56
N95 X-33.836 Y-3.254 Z-0.565
N100 X-33.802 Y-3.395 Z-0.57
N105 X-33.768 Y-3.535 Z-0.575
N110 X-33.735 Y-3.675 Z-0.58
N115 X-33.702 Y-3.816 Z-0.585
N120 X-33.67 Y-3.956 Z-0.59
N125 X-33.639 Y-4.097 Z-0.595
N130 X-33.609 Y-4.233 Z-0.6
N135 G03 X33.609 Y4.233 I33.609 J4.233
N140 X-33.714 Y-3.293 I-33.609 J-4.233
N145 G01 X-33.609 Y-4.233
N150 X-33.575 Y-4.375 Z-0.605
N155 X-33.54 Y-4.517 Z-0.61
N160 X-33.505 Y-4.656 Z-0.615
N165 X-33.47 Y-4.796 Z-0.62
N170 X-33.436 Y-4.936 Z-0.625
N175 X-33.403 Y-5.075 Z-0.63
N180 X-33.369 Y-5.215 Z-0.635
N185 X-33.336 Y-5.355 Z-0.64
N190 X-33.3 Y-5.495 Z-0.645
N195 X-33.264 Y-5.628 Z-0.65
N200 G03 X33.267 Y5.629 I33.265 J5.629
N205 X-33.295 Y-5.442 I-33.265 J-5.629
N210 G01 X-33.264 Y-5.628
N215 X-33.227 Y-5.767 Z-0.655
N220 X-33.19 Y-5.906 Z-0.66
N225 X-33.153 Y-6.045 Z-0.665
N230 X-33.116 Y-6.184 Z-0.67
N235 X-33.08 Y-6.323 Z-0.675
N240 X-33.044 Y-6.462 Z-0.68
N245 X-33.005 Y-6.601 Z-0.685
N250 X-32.964 Y-6.739 Z-0.69
N255 X-32.924 Y-6.877 Z-0.695
N260 X-32.884 Y-7.013 Z-0.7
N265 G03 X32.889 Y7.014 I32.886 J7.013
N270 X-32.959 Y-6.652 I-32.886 J-7.013
N275 G01 X-32.884 Y-7.013
N280 X-32.844 Y-7.151 Z-0.705
N285 X-32.804 Y-7.289 Z-0.71
N290 X-32.764 Y-7.426 Z-0.715
N295 X-32.724 Y-7.564 Z-0.72
N300 X-32.681 Y-7.703 Z-0.725
N305 X-32.637 Y-7.84 Z-0.73
N310 X-32.593 Y-7.976 Z-0.735
N315 X-32.549 Y-8.113 Z-0.74
N320 X-32.505 Y-8.25 Z-0.745
N325 X-32.462 Y-8.384 Z-0.75
N330 G03 X32.466 Y8.385 I32.464 J8.385
N335 X-32.625 Y-7.727 I-32.464 J-8.385
N340 G01 X-32.462 Y-8.384
N345 X-32.419 Y-8.521 Z-0.755
N350 X-32.375 Y-8.658 Z-0.76
N355 X-32.329 Y-8.795 Z-0.765
N360 X-32.28 Y-8.931 Z-0.77
N365 X-32.233 Y-9.066 Z-0.775
N370 X-32.185 Y-9.201 Z-0.78
N375 X-32.137 Y-9.337 Z-0.785
N380 X-32.09 Y-9.472 Z-0.79
N385 X-32.042 Y-9.607 Z-0.795
N390 X-31.996 Y-9.74 Z-0.8
N395 G03 X31.995 Y9.74 I31.995 J9.74
N400 X-32.266 Y-8.803 I-31.995 J-9.74
N405 G01 X-31.996 Y-9.74
N410 X-31.945 Y-9.877 Z-0.805
N415 X-31.893 Y-10.011 Z-0.81
N420 X-31.841 Y-10.145 Z-0.815
N425 X-31.789 Y-10.278 Z-0.82
N430 X-31.738 Y-10.412 Z-0.825
N435 X-31.686 Y-10.546 Z-0.83
N440 X-31.635 Y-10.68 Z-0.835
N445 X-31.584 Y-10.814 Z-0.84
N450 X-31.529 Y-10.947 Z-0.845
N455 X-31.474 Y-11.076 Z-0.85
N460 G03 X31.477 Y11.077 I31.476 J11.077
N465 X-31.518 Y-10.952 I-31.476 J-11.077
N470 G01 X-31.474 Y-11.076
N475 X-31.419 Y-11.208 Z-0.855
N480 X-31.363 Y-11.34 Z-0.86
N485 X-31.307 Y-11.473 Z-0.865
N490 X-31.252 Y-11.605 Z-0.87
N495 X-31.197 Y-11.737 Z-0.875
N500 X-31.141 Y-11.869 Z-0.88
N505 X-31.082 Y-12.001 Z-0.885
N510 X-31.022 Y-12.131 Z-0.89
N515 X-30.963 Y-12.261 Z-0.895
N520 X-30.904 Y-12.391 Z-0.9
N525 G03 X30.908 Y12.393 I30.906 J12.392
N530 X-31.099 Y-11.892 I-30.906 J-12.392
N535 G01 X-30.904 Y-12.391
N540 X-30.844 Y-12.521 Z-0.905
N545 X-30.784 Y-12.652 Z-0.91
N550 X-30.725 Y-12.782 Z-0.915
N555 X-30.665 Y-12.913 Z-0.92
N560 X-30.602 Y-13.042 Z-0.925
N565 X-30.538 Y-13.171 Z-0.93
N570 X-30.475 Y-13.299 Z-0.935
N575 X-30.411 Y-13.427 Z-0.94
N580 X-30.347 Y-13.556 Z-0.945
N585 X-30.285 Y-13.683 Z-0.95
N590 G03 X30.288 Y13.685 I30.286 J13.684
N595 X-30.598 Y-12.968 I-30.286 J-13.684
N600 G01 X-30.285 Y-13.683
N605 X-30.221 Y-13.812 Z-0.955
N610 X-30.157 Y-13.941 Z-0.96
N615 X-30.089 Y-14.068 Z-0.965
N620 X-30.022 Y-14.194 Z-0.97
N625 X-29.954 Y-14.321 Z-0.975
N630 X-29.886 Y-14.447 Z-0.98
N635 X-29.819 Y-14.573 Z-0.985
N640 X-29.751 Y-14.7 Z-0.99
N645 X-29.684 Y-14.826 Z-0.995
N650 X-29.617 Y-14.951 Z-1.
N655 G03 X29.616 Y14.951 I29.616 J14.951
N660 X-29.633 Y-14.918 I-29.616 J-14.951
N665 G01 X-29.617 Y-14.951
N670 X-29.545 Y-15.076 Z-1.005
N675 X-29.473 Y-15.2 Z-1.01
N680 X-29.402 Y-15.324 Z-1.015
N685 X-29.33 Y-15.448 Z-1.02
N690 X-29.259 Y-15.572 Z-1.025
N695 X-29.187 Y-15.697 Z-1.03
N700 X-29.116 Y-15.821 Z-1.035
N705 X-29.043 Y-15.945 Z-1.04
N710 X-28.968 Y-16.067 Z-1.045
N715 X-28.893 Y-16.187 Z-1.05
N720 G03 X28.896 Y16.189 I28.895 J16.188
N725 X-29.039 Y-15.924 I-28.895 J-16.188
N730 G01 X-28.893 Y-16.187
N735 X-28.818 Y-16.309 Z-1.055
N740 X-28.742 Y-16.431 Z-1.06
N745 X-28.667 Y-16.553 Z-1.065
N750 X-28.591 Y-16.674 Z-1.07
N755 X-28.516 Y-16.796 Z-1.075
N760 X-28.439 Y-16.918 Z-1.08
N765 X-28.359 Y-17.037 Z-1.085
N770 X-28.28 Y-17.156 Z-1.09
N775 X-28.201 Y-17.276 Z-1.095
N780 X-28.122 Y-17.394 Z-1.1
N785 G03 X28.126 Y17.397 I28.124 J17.396
N790 X-28.443 Y-16.864 I-28.124 J-17.396
N795 G01 X-28.122 Y-17.394
N800 X-28.043 Y-17.514 Z-1.105
N805 X-27.964 Y-17.633 Z-1.11
N810 X-27.884 Y-17.753 Z-1.115
N815 X-27.802 Y-17.871 Z-1.12
N820 X-27.719 Y-17.988 Z-1.125
N825 X-27.636 Y-18.105 Z-1.13
N830 X-27.553 Y-18.221 Z-1.135
N835 X-27.47 Y-18.338 Z-1.14
N840 X-27.387 Y-18.455 Z-1.145
N845 X-27.305 Y-18.571 Z-1.15
N850 G03 X27.307 Y18.572 I27.306 J18.571
N855 X-27.81 Y-17.806 I-27.306 J-18.571
N860 G01 X-27.305 Y-18.571
N865 X-27.222 Y-18.688 Z-1.155
N870 X-27.135 Y-18.803 Z-1.16
N875 X-27.048 Y-18.917 Z-1.165
N880 X-26.962 Y-19.031 Z-1.17
N885 X-26.875 Y-19.145 Z-1.175
N890 X-26.788 Y-19.259 Z-1.18
N895 X-26.701 Y-19.373 Z-1.185
N900 X-26.615 Y-19.487 Z-1.19
N905 X-26.528 Y-19.601 Z-1.195
N910 X-26.439 Y-19.711 Z-1.2
N915 G03 X26.44 Y19.712 I26.439 J19.712
N920 X-26.456 Y-19.688 I-26.439 J-19.712
N925 G01 X-26.439 Y-19.711
N930 X-26.348 Y-19.822 Z-1.205
N935 X-26.258 Y-19.934 Z-1.21
N940 X-26.167 Y-20.045 Z-1.215
N945 X-26.077 Y-20.156 Z-1.22
N950 X-25.987 Y-20.267 Z-1.225
N955 X-25.896 Y-20.378 Z-1.23
N960 X-25.806 Y-20.489 Z-1.235
N965 X-25.711 Y-20.597 Z-1.24
N970 X-25.617 Y-20.705 Z-1.245
N975 X-25.524 Y-20.813 Z-1.25
N980 G03 X25.527 Y20.816 I25.526 J20.815
N985 X-25.782 Y-20.492 I-25.526 J-20.815
N990 G01 X-25.524 Y-20.813
N995 X-25.43 Y-20.921 Z-1.255
N1000 X-25.336 Y-21.029 Z-1.26
N1005 X-25.242 Y-21.138 Z-1.265
N1010 X-25.148 Y-21.246 Z-1.27
N1015 X-25.053 Y-21.353 Z-1.275
N1020 X-24.955 Y-21.458 Z-1.28
N1025 X-24.858 Y-21.563 Z-1.285
N1030 X-24.76 Y-21.668 Z-1.29
N1035 X-24.663 Y-21.773 Z-1.295
N1040 X-24.566 Y-21.878 Z-1.3
N1045 G03 X24.569 Y21.881 I24.567 J21.879
N1050 X-24.954 Y-21.434 I-24.567 J-21.879
N1055 G01 X-24.566 Y-21.878
N1060 X-24.468 Y-21.983 Z-1.305
N1065 X-24.371 Y-22.088 Z-1.31
N1070 X-24.271 Y-22.192 Z-1.315
N1075 X-24.171 Y-22.294 Z-1.32
N1080 X-24.07 Y-22.395 Z-1.325
N1085 X-23.969 Y-22.497 Z-1.33
N1090 X-23.868 Y-22.599 Z-1.335
N1095 X-23.767 Y-22.701 Z-1.34
N1100 X-23.667 Y-22.802 Z-1.345
N1105 X-23.567 Y-22.904 Z-1.35
N1110 G03 X23.566 Y22.903 I23.566 J22.904
N1115 X-24.258 Y-22.17 I-23.566 J-22.904
N1120 G01 X-23.567 Y-22.904
N1125 X-23.463 Y-23.004 Z-1.355
N1130 X-23.359 Y-23.102 Z-1.36
N1135 X-23.255 Y-23.201 Z-1.365
N1140 X-23.15 Y-23.299 Z-1.37
N1145 X-23.046 Y-23.397 Z-1.375
N1150 X-22.942 Y-23.496 Z-1.38
N1155 X-22.838 Y-23.594 Z-1.385
N1160 X-22.734 Y-23.693 Z-1.39
N1165 X-22.627 Y-23.788 Z-1.395
N1170 X-22.521 Y-23.882 Z-1.4
N1175 G03 X22.523 Y23.884 I22.522 J23.883
N1180 X-22.694 Y-23.718 I-22.522 J-23.883
N1185 G01 X-22.521 Y-23.882
N1190 X-22.414 Y-23.977 Z-1.405
N1195 X-22.306 Y-24.072 Z-1.41
N1200 X-22.199 Y-24.167 Z-1.415
N1205 X-22.092 Y-24.262 Z-1.42
N1210 X-21.985 Y-24.357 Z-1.425
N1215 X-21.877 Y-24.452 Z-1.43
N1220 X-21.767 Y-24.543 Z-1.435
N1225 X-21.656 Y-24.634 Z-1.44
N1230 X-21.436 Y-24.817 Z-1.45
N1235 X-21.15 Y-25.064
N1240 G03 X21.151 Y25.065 I21.151 J25.065
N1245 X-21.438 Y-24.819 I-21.151 J-25.065
N1250 G01 X-21.326 Y-24.908 Z-1.455
N1255 X-21.215 Y-24.999 Z-1.46
N1260 X-21.105 Y-25.091 Z-1.465
N1265 X-20.994 Y-25.181 Z-1.47
N1270 X-20.767 Y-25.357 Z-1.48
N1275 X-20.541 Y-25.532 Z-1.49
N1280 X-20.315 Y-25.707 Z-1.5
N1285 X-20.226 Y-25.779
N1290 G03 X20.226 Y25.779 I20.226 J25.779
N1295 X-20.315 Y-25.708 I-20.226 J-25.779
N1300 G01 X-20.201 Y-25.795 Z-1.505
N1305 X-20.086 Y-25.881 Z-1.51
N1310 X-19.854 Y-26.049 Z-1.52
N1315 X-19.622 Y-26.216 Z-1.53
N1320 X-19.39 Y-26.384 Z-1.54
N1325 X-19.274 Y-26.468 Z-1.545
N1330 X-19.156 Y-26.549 Z-1.55
N1335 G03 X19.157 Y26.549 I19.156 J26.549
N1340 X-19.165 Y-26.542 I-19.156 J-26.549
N1345 G01 X-19.156 Y-26.549
N1350 X-18.919 Y-26.708 Z-1.56
N1355 X-18.681 Y-26.869 Z-1.57
N1360 X-18.444 Y-27.029 Z-1.58
N1365 X-18.325 Y-27.109 Z-1.585
N1370 X-18.203 Y-27.185 Z-1.59
N1375 X-17.961 Y-27.337 Z-1.6
N1380 X-17.404 Y-27.7
N1385 G03 X17.403 Y27.699 I17.403 J27.699
N1390 X-17.963 Y-27.34 I-17.403 J-27.699
N1395 G01 X-17.84 Y-27.413 Z-1.605
N1400 X-17.597 Y-27.565 Z-1.615
N1405 X-17.476 Y-27.641 Z-1.62
N1410 X-17.353 Y-27.716 Z-1.625
N1415 X-17.106 Y-27.86 Z-1.635
N1420 X-16.858 Y-28.004 Z-1.645
N1425 X-16.735 Y-28.076 Z-1.65
N1430 G03 X16.737 Y28.08 I16.736 J28.078
N1435 X-17.27 Y-27.75 I-16.736 J-28.078
N1440 G01 X-16.735 Y-28.076
N1445 X-16.487 Y-28.22 Z-1.66
N1450 X-16.362 Y-28.29 Z-1.665
N1455 X-16.11 Y-28.426 Z-1.675
N1460 X-15.858 Y-28.562 Z-1.685
N1465 X-15.605 Y-28.698 Z-1.695
N1470 X-15.479 Y-28.765 Z-1.7
N1475 G03 X15.48 Y28.765 I15.48 J28.765
N1480 X-15.522 Y-28.742 I-15.48 J-28.765
N1485 G01 X-15.479 Y-28.765
N1490 X-15.352 Y-28.83 Z-1.705
N1495 X-15.095 Y-28.958 Z-1.715
N1500 X-14.839 Y-29.085 Z-1.725
N1505 X-14.582 Y-29.212 Z-1.735
N1510 X-14.454 Y-29.276 Z-1.74
N1515 X-14.323 Y-29.336 Z-1.745
N1520 X-14.194 Y-29.395 Z-1.75
N1525 G03 X14.195 Y29.398 I14.194 J29.396
N1530 X-14.446 Y-29.272 I-14.194 J-29.396
N1535 G01 X-14.194 Y-29.395
N1540 X-13.933 Y-29.513 Z-1.76
N1545 X-13.672 Y-29.632 Z-1.77
N1550 X-13.542 Y-29.692 Z-1.775
N1555 X-13.411 Y-29.75 Z-1.78
N1560 X-13.147 Y-29.86 Z-1.79
N1565 X-12.883 Y-29.97 Z-1.8
N1570 G03 X12.885 Y29.975 I12.884 J29.972
N1575 X-13.371 Y-29.756 I-12.884 J-29.972
N1580 G01 X-12.883 Y-29.97
N1585 X-12.618 Y-30.08 Z-1.81
N1590 X-12.486 Y-30.135 Z-1.815
N1595 X-12.353 Y-30.188 Z-1.82
N1600 X-12.085 Y-30.289 Z-1.83
N1605 X-11.817 Y-30.391 Z-1.84
N1610 X-11.549 Y-30.492 Z-1.85
N1615 G03 X11.55 Y30.494 I11.55 J30.493
N1620 X-12.367 Y-30.169 I-11.55 J-30.493
N1625 G01 X-11.549 Y-30.492
N1630 X-11.415 Y-30.542 Z-1.855
N1635 X-11.28 Y-30.59 Z-1.86
N1640 X-11.009 Y-30.682 Z-1.87
N1645 X-10.738 Y-30.774 Z-1.88
N1650 X-10.467 Y-30.867 Z-1.89
N1655 X-10.331 Y-30.913 Z-1.895
N1660 X-10.194 Y-30.954 Z-1.9
N1665 G03 X10.195 Y30.956 I10.195 J30.955
N1670 X-10.281 Y-30.926 I-10.195 J-30.955
N1675 G01 X-10.194 Y-30.954
N1680 X-9.92 Y-31.037 Z-1.91
N1685 X-9.646 Y-31.121 Z-1.92
N1690 X-9.372 Y-31.204 Z-1.93
N1695 X-9.235 Y-31.244 Z-1.935
N1700 X-8.958 Y-31.318 Z-1.945
N1705 X-8.82 Y-31.355 Z-1.95
N1710 G03 X8.821 Y31.36 I8.821 J31.358
N1715 X-9.212 Y-31.243 I-8.821 J-31.358
N1720 G01 X-8.82 Y-31.355
N1725 X-8.543 Y-31.429 Z-1.96
N1730 X-8.267 Y-31.504 Z-1.97
N1735 X-8.128 Y-31.538 Z-1.975
N1740 X-7.849 Y-31.603 Z-1.985
N1745 X-7.57 Y-31.668 Z-1.995
N1750 X-7.431 Y-31.7 Z-2.
N1755 G03 X7.431 Y31.704 I7.431 J31.702
N1760 X-8.195 Y-31.511 I-7.431 J-31.702
N1765 G01 X-7.431 Y-31.7
N1770 X-7.151 Y-31.765 Z-2.01
N1775 X-7.011 Y-31.794 Z-2.015
N1780 X-6.73 Y-31.849 Z-2.025
N1785 X-6.449 Y-31.905 Z-2.035
N1790 X-6.168 Y-31.961 Z-2.045
N1795 X-6.028 Y-31.987 Z-2.05
N1800 G03 X6.028 Y31.987 I6.028 J31.987
N1805 X-6.115 Y-31.97 I-6.028 J-31.987
N1810 G01 X-6.028 Y-31.987
N1815 X-5.886 Y-32.011 Z-2.055
N1820 X-5.604 Y-32.057 Z-2.065
N1825 X-5.321 Y-32.103 Z-2.075
N1830 X-5.039 Y-32.149 Z-2.085
N1835 X-4.897 Y-32.171 Z-2.09
N1840 X-4.613 Y-32.207 Z-2.1
N1845 G03 X4.614 Y32.211 I4.613 J32.209
N1850 X-4.905 Y-32.164 I-4.613 J-32.209
N1855 G01 X-4.613 Y-32.207
N1860 X-4.329 Y-32.244 Z-2.11
N1865 X-4.045 Y-32.281 Z-2.12
N1870 X-3.903 Y-32.299 Z-2.125
N1875 X-3.761 Y-32.315 Z-2.13
N1880 X-3.476 Y-32.342 Z-2.14
N1885 X-3.191 Y-32.369 Z-2.15
N1890 G03 X3.191 Y32.374 I3.191 J32.371
N1895 X-3.83 Y-32.3 I-3.191 J-32.371
N1900 G01 X-3.191 Y-32.369
N1905 X-2.906 Y-32.397 Z-2.16
N1910 X-2.763 Y-32.41 Z-2.165
N1915 X-2.62 Y-32.419 Z-2.17
N1920 X-2.334 Y-32.437 Z-2.18
N1925 X-2.048 Y-32.455 Z-2.19
N1930 X-1.763 Y-32.473 Z-2.2
N1935 G03 X1.763 Y32.474 I1.763 J32.473
N1940 X-2.755 Y-32.404 I-1.763 J-32.473
N1945 G01 X-1.763 Y-32.473
N1950 X-1.62 Y-32.481 Z-2.205
N1955 X-1.333 Y-32.489 Z-2.215
N1960 X-1.047 Y-32.497 Z-2.225
N1965 X-0.761 Y-32.506 Z-2.235
N1970 X-0.618 Y-32.51 Z-2.24
N1975 X-0.475 Y-32.511 Z-2.245
N1980 X-0.332 Z-2.25
N1985 G03 X0.332 Y32.513 I0.332 J32.512
N1990 X-0.47 Y-32.509 I-0.332 J-32.512
N1995 G01 X-0.332 Y-32.511
N2000 X-0.045 Y-32.509 Z-2.26
N2005 X0.241 Y-32.508 Z-2.27
N2010 X0.527 Y-32.507 Z-2.28
N2015 X0.671 Y-32.503 Z-2.285
N2020 X0.957 Y-32.492 Z-2.295
N2025 X1.1 Y-32.486 Z-2.3
N2030 G03 X-1.1 Y32.491 I-1.1 J32.489
N2035 X0.605 Y-32.499 I1.1 J-32.489
N2040 G01 X1.1 Y-32.486
N2045 X1.386 Y-32.476 Z-2.31
N2050 X1.529 Y-32.47 Z-2.315
N2055 X1.672 Y-32.465 Z-2.32
N2060 X1.958 Y-32.444 Z-2.33
N2065 X2.243 Y-32.424 Z-2.34
N2070 X2.529 Y-32.404 Z-2.35
N2075 G03 X-2.529 Y32.406 I-2.529 J32.405
N2080 X1.68 Y-32.459 I2.529 J-32.405
N2085 G01 X2.529 Y-32.404
N2090 X2.672 Y-32.394 Z-2.355
N2095 X2.815 Y-32.382 Z-2.36
N2100 X3.099 Y-32.352 Z-2.37
N2105 X3.384 Y-32.322 Z-2.38
N2110 X3.669 Y-32.292 Z-2.39
N2115 X3.811 Y-32.278 Z-2.395
N2120 X3.953 Y-32.259 Z-2.4
N2125 G03 X-3.953 Y32.26 I-3.953 J32.26
N2130 X3.83 Y-32.274 I3.953 J-32.26
N2135 G01 X3.953 Y-32.259
N2140 X4.095 Y-32.24 Z-2.405
N2145 X4.379 Y-32.2 Z-2.415
N2150 X4.663 Y-32.161 Z-2.425
N2155 X4.946 Y-32.122 Z-2.435
N2160 X5.087 Y-32.098 Z-2.44
N2165 X5.37 Y-32.049 Z-2.45
N2170 G03 X-5.37 Y32.054 I-5.37 J32.051
N2175 X5.039 Y-32.103 I5.37 J-32.051
N2180 G01 X5.37 Y-32.049
N2185 X5.934 Y-31.952 Z-2.47
N2190 X6.075 Y-31.926 Z-2.475
N2195 X6.636 Y-31.81 Z-2.495
N2200 X6.776 Y-31.781 Z-2.5
N2205 G03 X-6.777 Y31.785 I-6.776 J31.783
N2210 X6.111 Y-31.915 I6.776 J-31.783
N2215 G01 X6.776 Y-31.781
N2220 X6.916 Y-31.751 Z-2.505
N2225 X7.056 Y-31.722 Z-2.51
N2230 X7.196 Y-31.691 Z-2.515
N2235 X8.03 Y-31.487 Z-2.545
N2240 X8.169 Y-31.453 Z-2.55
N2245 G03 X-8.169 Y31.453 I-8.169 J31.453
N2250 X8.131 Y-31.463 I8.169 J-31.453
N2255 G01 X8.169 Y-31.453
N2260 X8.308 Y-31.416 Z-2.555
N2265 X9.135 Y-31.184 Z-2.585
N2270 X9.273 Y-31.145 Z-2.59
N2275 X9.546 Y-31.058 Z-2.6
N2280 G03 X-9.547 Y31.062 I-9.546 J31.06
N2285 X9.34 Y-31.121 I9.546 J-31.06
N2290 G01 X9.546 Y-31.058
N2295 X10.228 Y-30.842 Z-2.625
N2300 X10.364 Y-30.797 Z-2.63
N2305 X10.904 Y-30.606 Z-2.65
N2310 G03 X-10.905 Y30.61 I-10.905 J30.608
N2315 X10.414 Y-30.776 I10.905 J-30.608
N2320 G01 X10.904 Y-30.606
N2325 X11.309 Y-30.462 Z-2.665
N2330 X11.442 Y-30.411 Z-2.67
N2335 X12.242 Y-30.097 Z-2.7
N2340 G03 X-12.242 Y30.098 I-12.242 J30.097
N2345 X11.355 Y-30.442 I12.242 J-30.097
N2350 G01 X12.242 Y-30.097
N2355 X12.375 Y-30.044 Z-2.705
N2360 X13.295 Y-29.646 Z-2.74
N2365 X13.426 Y-29.588 Z-2.745
N2370 X13.555 Y-29.526 Z-2.75
N2375 G03 X-13.556 Y29.528 I-13.555 J29.527
N2380 X13.506 Y-29.549 I13.555 J-29.527
N2385 G01 X13.555 Y-29.526
N2390 X14.331 Y-29.158 Z-2.78
N2395 X14.459 Y-29.094 Z-2.785
N2400 X14.841 Y-28.897 Z-2.8
N2405 G03 X-14.843 Y28.902 I-14.842 J28.9
N2410 X14.446 Y-29.097 I14.842 J-28.9
N2415 G01 X14.841 Y-28.897
N2420 X15.35 Y-28.635 Z-2.82
N2425 X15.475 Y-28.565 Z-2.825
N2430 X16.1 Y-28.215 Z-2.85
N2435 G03 X-16.101 Y28.218 I-16.101 J28.217
N2440 X15.386 Y-28.611 I16.101 J-28.217
N2445 G01 X16.1 Y-28.215
N2450 X16.225 Y-28.145 Z-2.855
N2455 X16.349 Y-28.075 Z-2.86
N2460 X17.207 Y-27.555 Z-2.895
N2465 X17.328 Y-27.479 Z-2.9
N2470 G03 X-17.328 Y27.479 I-17.328 J27.479
N2475 X17.269 Y-27.516 I17.328 J-27.479
N2480 G01 X17.328 Y-27.479
N2485 X18.167 Y-26.931 Z-2.935
N2490 X18.285 Y-26.85 Z-2.94
N2495 X18.519 Y-26.685 Z-2.95
N2500 G03 X-18.522 Y26.689 I-18.52 J26.687
N2505 X18.208 Y-26.899 I18.52 J-26.687
N2510 G01 X18.519 Y-26.685
N2515 X18.988 Y-26.356 Z-2.97
N2520 X19.105 Y-26.273 Z-2.975
N2525 X19.676 Y-25.842 Z-3.
N2530 G03 X-19.679 Y25.846 I-19.677 J25.844
N2535 X19.101 Y-26.27 I19.677 J-25.844
N2540 G01 X19.676 Y-25.842
N2545 X19.905 Y-25.67 Z-3.01
N2550 X20.018 Y-25.582 Z-3.015
N2555 X20.797 Y-24.952 Z-3.05
N2560 G03 X-20.797 Y24.951 I-20.797 J24.952
N2565 X19.992 Y-25.601 I20.797 J-24.952
N2570 G01 X20.797 Y-24.952
N2575 X20.906 Y-24.859 Z-3.055
N2580 X21.231 Y-24.578 Z-3.07
N2585 X21.339 Y-24.484 Z-3.075
N2590 X21.663 Y-24.202 Z-3.09
N2595 X21.768 Y-24.104 Z-3.095
N2600 X21.872 Y-24.007 Z-3.1
N2605 G03 X-21.875 Y24.009 I-21.874 J24.008
N2610 X21.702 Y-24.161 I21.874 J-24.008
N2615 G01 X21.872 Y-24.007
N2620 X22.396 Y-23.519 Z-3.125
N2625 X22.5 Y-23.42 Z-3.13
N2630 X22.906 Y-23.016 Z-3.15
N2635 G03 X-22.909 Y23.019 I-22.907 J23.017
N2640 X22.508 Y-23.404 I22.907 J-23.017
N2645 G01 X22.906 Y-23.016
N2650 X23.21 Y-22.712 Z-3.165
N2655 X23.309 Y-22.609 Z-3.17
N2660 X23.896 Y-21.982 Z-3.2
N2665 G03 X-23.898 Y21.983 I-23.897 J21.983
N2670 X23.27 Y-22.644 I23.897 J-21.983
N2675 G01 X23.896 Y-21.982
N2680 X23.994 Y-21.878 Z-3.205
N2685 X24.089 Y-21.77 Z-3.21
N2690 X24.655 Y-21.124 Z-3.24
N2695 X24.748 Y-21.015 Z-3.245
N2700 X24.839 Y-20.904 Z-3.25
N2705 G03 X-24.84 Y20.906 I-24.84 J20.905
N2710 X24.732 Y-21.031 I24.84 J-20.905
N2715 G01 X24.839 Y-20.904
N2720 X25.382 Y-20.239 Z-3.28
N2725 X25.471 Y-20.127 Z-3.285
N2730 X25.731 Y-19.785 Z-3.3
N2735 G03 X-25.735 Y19.788 I-25.733 J19.786
N2740 X25.464 Y-20.127 I25.733 J-19.786
N2745 G01 X25.731 Y-19.785
N2750 X26.078 Y-19.329 Z-3.32
N2755 X26.162 Y-19.213 Z-3.325
N2760 X26.576 Y-18.629 Z-3.35
N2765 G03 X-26.579 Y18.631 I-26.577 J18.63
N2770 X26.105 Y-19.283 I26.577 J-18.63
N2775 G01 X26.576 Y-18.629
N2780 X26.659 Y-18.512 Z-3.355
N2785 X26.741 Y-18.395 Z-3.36
N2790 X27.293 Y-17.559 Z-3.395
N2795 X27.37 Y-17.438 Z-3.4
N2800 G03 X-27.37 Y17.438 I-27.37 J17.438
N2805 X27.348 Y-17.473 I27.37 J-17.438
N2810 G01 X27.37 Y-17.438
N2815 X27.893 Y-16.583 Z-3.435
N2820 X27.965 Y-16.459 Z-3.44
N2825 X28.106 Y-16.21 Z-3.45
N2830 G03 X-28.11 Y16.212 I-28.108 J16.211
N2835 X27.96 Y-16.462 I28.108 J-16.211
N2840 G01 X28.106 Y-16.21
N2845 X28.459 Y-15.587 Z-3.475
N2850 X28.525 Y-15.46 Z-3.48
N2855 X28.79 Y-14.952 Z-3.5
N2860 G03 X-28.794 Y14.955 I-28.792 J14.953
N2865 X28.488 Y-15.521 I28.792 J-14.953
N2870 G01 X28.79 Y-14.952
N2875 X28.923 Y-14.699 Z-3.51
N2880 X28.988 Y-14.571 Z-3.515
N2885 X29.421 Y-13.667 Z-3.55
N2890 G03 X-29.421 Y13.667 I-29.421 J13.667
N2895 X28.979 Y-14.581 I29.421 J-13.667
N2900 G01 X29.421 Y-13.667
N2905 X29.48 Y-13.537 Z-3.555
N2910 X29.883 Y-12.619 Z-3.59
N2915 X29.936 Y-12.486 Z-3.595
N2920 X29.989 Y-12.353 Z-3.6
N2925 G03 X-29.992 Y12.354 I-29.991 J12.354
N2930 X29.899 Y-12.568 I29.991 J-12.354
N2935 G01 X29.989 Y-12.353
N2940 X30.254 Y-11.688 Z-3.625
N2945 X30.306 Y-11.555 Z-3.63
N2950 X30.403 Y-11.285 Z-3.64
N2955 X30.499 Y-11.015 Z-3.65
N2960 G03 X-30.504 Y11.017 I-30.502 J11.016
N2965 X30.301 Y-11.549 I30.502 J-11.016
N2970 G01 X30.499 Y-11.015
N2975 X30.644 Y-10.611 Z-3.665
N2980 X30.69 Y-10.475 Z-3.67
N2985 X30.951 Y-9.657 Z-3.7
N2990 G03 X-30.953 Y9.658 I-30.952 J9.657
N2995 X30.704 Y-10.415 I30.952 J-9.657
N3000 G01 X30.951 Y-9.657
N3005 X30.995 Y-9.521 Z-3.705
N3010 X31.034 Y-9.383 Z-3.71
N3015 X31.268 Y-8.556 Z-3.74
N3020 X31.306 Y-8.418 Z-3.745
N3025 X31.34 Y-8.279 Z-3.75
N3030 G03 X-31.342 Y8.28 I-31.341 J8.28
N3035 X31.309 Y-8.399 I31.341 J-8.28
N3040 G01 X31.34 Y-8.279
N3045 X31.546 Y-7.445 Z-3.78
N3050 X31.578 Y-7.305 Z-3.785
N3055 X31.666 Y-6.885 Z-3.8
N3060 G03 X-31.671 Y6.886 I-31.669 J6.886
N3065 X31.568 Y-7.323 I31.669 J-6.886
N3070 G01 X31.666 Y-6.885
N3075 X31.784 Y-6.325 Z-3.82
N3080 X31.81 Y-6.184 Z-3.825
N3085 X31.933 Y-5.479 Z-3.85
N3090 G03 X-31.937 Y5.479 I-31.935 J5.479
N3095 X31.792 Y-6.249 I31.935 J-5.479
N3100 G01 X31.933 Y-5.479
N3105 X31.958 Y-5.338 Z-3.855
N3110 X31.983 Y-5.197 Z-3.86
N3115 X32.122 Y-4.204 Z-3.895
N3120 X32.14 Y-4.062 Z-3.9
N3125 G03 X-32.14 Y4.062 I-32.14 J4.062
N3130 X32.135 Y-4.099 I32.14 J-4.062
N3135 G01 X32.14 Y-4.062
N3140 X32.245 Y-3.065 Z-3.935
N3145 X32.257 Y-2.922 Z-3.94
N3150 X32.277 Y-2.637 Z-3.95
N3155 G03 X-32.282 Y2.637 I-32.279 J2.637
N3160 X32.256 Y-2.889 I32.279 J-2.637
N3165 G01 X32.277 Y-2.637
N3170 X32.318 Y-2.066 Z-3.97
N3175 X32.328 Y-1.923 Z-3.975
N3180 X32.355 Y-1.207 Z-4.
N3185 G03 X-32.359 Y1.208 I-32.357 J1.208
N3190 X32.327 Y-1.814 I32.357 J-1.208
N3195 G01 X32.355 Y-1.207
N3200 X32.366 Y-0.921 Z-4.01
N3205 X32.37 Y-0.778 Z-4.015
N3210 X32.373 Y0.081 Z-4.045
N3215 Y0.224 Z-4.05
N3220 G03 X-32.373 Y-0.224 I-32.373 J-0.224
N3225 X32.373 Y0.202 I32.373 J0.224
N3230 G01 Y0.224
N3235 X32.371 Y0.367 Z-4.055
N3240 X32.34 Y1.369 Z-4.09
N3245 X32.331 Y1.512 Z-4.095
N3250 X32.322 Y1.655 Z-4.1
N3255 G03 X-32.325 Y-1.655 I-32.323 J-1.655
N3260 X32.333 Y1.411 I32.323 J1.655
N3265 G01 X32.322 Y1.655
N3270 X32.276 Y2.369 Z-4.125
N3275 X32.265 Y2.512 Z-4.13
N3280 X32.209 Y3.082 Z-4.15
N3285 G03 X-32.213 Y-3.083 I-32.211 J-3.082
N3290 X32.26 Y2.486 I32.211 J3.082
N3295 G01 X32.209 Y3.082
N3300 X32.166 Y3.51 Z-4.165
N3305 X32.149 Y3.652 Z-4.17
N3310 X32.036 Y4.503 Z-4.2
N3315 G03 X-32.038 Y-4.503 I-32.037 J-4.503
N3320 X32.139 Y3.696 I32.037 J4.503
N3325 G01 X32.036 Y4.503
N3330 X32.017 Y4.645 Z-4.205
N3335 X31.993 Y4.787 Z-4.21
N3340 X31.849 Y5.634 Z-4.24
N3345 X31.824 Y5.775 Z-4.245
N3350 X31.795 Y5.914 Z-4.25
N3355 G03 X-31.797 Y-5.915 I-31.796 J-5.915
N3360 X31.808 Y5.846 I31.796 J5.915
N3365 G01 X31.795 Y5.914
N3370 X31.623 Y6.756 Z-4.28
N3375 X31.591 Y6.896 Z-4.285
N3380 X31.491 Y7.313 Z-4.3
N3385 G03 X-31.495 Y-7.314 I-31.493 J-7.314
N3390 X31.579 Y6.921 I31.493 J7.314
N3395 G01 X31.491 Y7.313
N3400 X31.356 Y7.87 Z-4.32
N3405 X31.318 Y8.008 Z-4.325
N3410 X31.127 Y8.698 Z-4.35
N3415 G03 X-31.13 Y-8.699 I-31.129 J-8.699
N3420 X31.315 Y7.996 I31.129 J8.699
N3425 G01 X31.127 Y8.698
N3430 X31.089 Y8.836 Z-4.355
N3435 X31.05 Y8.974 Z-4.36
N3440 X30.749 Y9.93 Z-4.395
N3445 X30.704 Y10.066 Z-4.4
N3450 G03 X-30.704 Y-10.066 I-30.704 J-10.066
N3455 X30.721 Y10.012 I30.704 J10.066
N3460 G01 X30.704 Y10.066
N3465 X30.371 Y11.011 Z-4.435
N3470 X30.319 Y11.145 Z-4.44
N3475 X30.215 Y11.411 Z-4.45
N3480 G03 X-30.22 Y-11.413 I-30.217 J-11.412
N3485 X30.336 Y11.086 I30.217 J11.412
N3490 G01 X30.215 Y11.411
N3495 X30.007 Y11.945 Z-4.47
N3500 X29.954 Y12.078 Z-4.475
N3505 X29.671 Y12.736 Z-4.5
N3510 G03 X-29.675 Y-12.737 I-29.673 J-12.736
N3515 X29.911 Y12.162 I29.673 J12.736
N3520 G01 X29.671 Y12.736
N3525 X29.558 Y12.999 Z-4.51
N3530 X29.498 Y13.129 Z-4.515
N3535 X29.132 Y13.906 Z-4.545
N3540 X29.071 Y14.036 Z-4.55
N3545 G03 X-29.071 Y-14.035 I-29.071 J-14.035
N3550 X29.097 Y13.984 I29.071 J14.035
N3555 G01 X29.071 Y14.036
N3560 X29.006 Y14.164 Z-4.555
N3565 X28.614 Y14.928 Z-4.585
N3570 X28.547 Y15.055 Z-4.59
N3575 X28.408 Y15.305 Z-4.6
N3580 G03 X-28.412 Y-15.306 I-28.41 J-15.305
N3585 X28.555 Y15.029 I28.41 J15.305
N3590 G01 X28.408 Y15.305
N3595 X28.06 Y15.93 Z-4.625
N3600 X27.988 Y16.054 Z-4.63
N3605 X27.692 Y16.544 Z-4.65
N3610 G03 X-27.696 Y-16.546 I-27.694 J-16.545
N3615 X28.017 Y15.988 I27.694 J16.545
N3620 G01 X27.692 Y16.544
N3625 X27.471 Y16.912 Z-4.665
N3630 X27.393 Y17.033 Z-4.67
N3635 X26.925 Y17.753 Z-4.7
N3640 G03 X-26.925 Y-17.753 I-26.925 J-17.753
N3645 X27.406 Y17.001 I26.925 J17.753
N3650 G01 X26.925 Y17.753
N3655 X26.845 Y17.872 Z-4.705
N3660 X26.271 Y18.694 Z-4.74
N3665 X26.186 Y18.809 Z-4.745
N3670 X26.101 Y18.923 Z-4.75
N3675 G03 X-26.103 Y-18.925 I-26.102 J-18.924
N3680 X26.228 Y18.746 I26.102 J18.924
N3685 G01 X26.101 Y18.923
N3690 X25.843 Y19.267 Z-4.765
N3695 X25.67 Y19.496 Z-4.775
N3700 X25.584 Y19.61 Z-4.78
N3705 X25.224 Y20.055 Z-4.8
N3710 G03 X-25.228 Y-20.058 I-25.226 J-20.057
N3715 X25.513 Y19.687 I25.226 J20.057
N3720 G01 X25.224 Y20.055
N3725 X24.954 Y20.389 Z-4.815
N3730 X24.862 Y20.5 Z-4.82
N3735 X24.3 Y21.149 Z-4.85
N3740 G03 X-24.301 Y-21.15 I-24.301 J-21.149
N3745 X24.855 Y20.494 I24.301 J21.149
N3750 G01 X24.3 Y21.149
N3755 X24.206 Y21.257 Z-4.855
N3760 X24.109 Y21.363 Z-4.86
N3765 X23.525 Y21.993 Z-4.89
N3770 X23.427 Y22.097 Z-4.895
N3775 X23.327 Y22.199 Z-4.9
N3780 G03 X-23.328 Y-22.2 I-23.327 J-22.199
N3785 X23.414 Y22.106 I23.327 J22.199
N3790 G01 X23.327 Y22.199
N3795 X22.721 Y22.808 Z-4.93
N3800 X22.619 Y22.908 Z-4.935
N3805 X22.306 Y23.203 Z-4.95
N3810 G03 X-22.309 Y-23.206 I-22.308 J-23.204
N3815 X22.642 Y22.875 I22.308 J23.204
N3820 G01 X22.306 Y23.203
N3825 X21.889 Y23.595 Z-4.97
N3830 X21.782 Y23.691 Z-4.975
N3835 X21.244 Y24.163 Z-5.
N3840 G03 X-21.246 Y-24.165 I-21.245 J-24.164
N3845 X21.837 Y23.629 I21.245 J24.164
N3850 G01 X21.244 Y24.163
N3855 X21.137 Y24.257 Z-5.005
N3860 X21.028 Y24.351 Z-5.01
N3865 X20.253 Y24.987 Z-5.045
N3870 X20.141 Y25.076 Z-5.05
N3875 G03 X-20.141 Y-25.076 I-20.141 J-25.076
N3880 X20.156 Y25.064 I20.141 J25.076
N3885 G01 X20.141 Y25.076
N3890 X19.345 Y25.685 Z-5.085
N3895 X19.228 Y25.768 Z-5.09
N3900 X18.995 Y25.934 Z-5.1
N3905 G03 X-18.998 Y-25.938 I-18.997 J-25.936
N3910 X19.283 Y25.721 I18.997 J25.936
N3915 G01 X18.995 Y25.934
N3920 X18.529 Y26.267 Z-5.12
N3925 X18.411 Y26.348 Z-5.125
N3930 X17.814 Y26.744 Z-5.15
N3935 G03 X-17.817 Y-26.747 I-17.816 J-26.745
N3940 X18.343 Y26.384 I17.816 J26.745
N3945 G01 X17.814 Y26.744
N3950 X17.576 Y26.902 Z-5.16
N3955 X17.454 Y26.978 Z-5.165
N3960 X16.722 Y27.428 Z-5.195
N3965 X16.6 Y27.503 Z-5.2
N3970 G03 X-16.6 Y-27.502 I-16.6 J-27.502
N3975 X16.633 Y27.483 I16.6 J27.502
N3980 G01 X16.6 Y27.503
N3985 X16.476 Y27.574 Z-5.205
N3990 X15.729 Y27.998 Z-5.235
N3995 X15.604 Y28.067 Z-5.24
N4000 X15.35 Y28.2 Z-5.25
N4005 G03 X-15.352 Y-28.204 I-15.351 J-28.202
N4010 X15.655 Y28.033 I15.351 J28.202
N4015 G01 X15.35 Y28.2
N4020 X14.716 Y28.533 Z-5.275
N4025 X14.587 Y28.596 Z-5.28
N4030 X14.072 Y28.845 Z-5.3
N4035 G03 X-14.074 Y-28.849 I-14.073 J-28.847
N4040 X14.651 Y28.555 I14.073 J28.847
N4045 G01 X14.072 Y28.845
N4050 X13.814 Y28.969 Z-5.31
N4055 X13.684 Y29.03 Z-5.315
N4060 X13.553 Y29.088 Z-5.32
N4065 X12.897 Y29.375 Z-5.345
N4070 X12.766 Y29.433 Z-5.35
N4075 G03 X-12.766 Y-29.433 I-12.766 J-29.433
N4080 X12.835 Y29.403 I12.766 J29.433
N4085 G01 X12.766 Y29.433
N4090 X12.634 Y29.488 Z-5.355
N4095 X11.836 Y29.806 Z-5.385
N4100 X11.702 Y29.859 Z-5.39
N4105 X11.434 Y29.955 Z-5.4
N4110 G03 X-11.435 Y-29.959 I-11.434 J-29.957
N4115 X11.624 Y29.882 I11.434 J29.957
N4120 G01 X11.434 Y29.955
N4125 X10.76 Y30.198 Z-5.425
N4130 X10.624 Y30.244 Z-5.43
N4135 X10.079 Y30.42 Z-5.45
N4140 G03 X-10.081 Y-30.424 I-10.08 J-30.422
N4145 X10.549 Y30.26 I10.08 J30.422
N4150 G01 X10.079 Y30.42
N4155 X9.67 Y30.551 Z-5.465
N4160 X9.533 Y30.592 Z-5.47
N4165 X8.844 Y30.788 Z-5.495
N4170 X8.707 Y30.828 Z-5.5
N4175 G03 X-8.707 Y-30.829 I-8.707 J-30.829
N4180 X9.609 Y30.559 I8.707 J30.829
N4185 G01 X8.707 Y30.828
N4190 X8.568 Y30.865 Z-5.505
N4195 X7.595 Y31.107 Z-5.54
N4200 X7.456 Y31.138 Z-5.545
N4205 X7.316 Y31.168 Z-5.55
N4210 G03 X-7.317 Y-31.171 I-7.316 J-31.169
N4215 X7.458 Y31.134 I7.316 J31.169
N4220 G01 X7.316 Y31.168
N4225 X6.616 Y31.317 Z-5.575
N4230 X6.476 Y31.347 Z-5.58
N4235 X5.912 Y31.446 Z-5.6
N4240 G03 X-5.913 Y-31.451 I-5.912 J-31.449
N4245 X6.383 Y31.354 I5.912 J31.449
N4250 G01 X5.912 Y31.446
N4255 X5.489 Y31.521 Z-5.615
N4260 X5.347 Y31.544 Z-5.62
N4265 X4.497 Y31.666 Z-5.65
N4270 G03 X-4.497 Y-31.667 I-4.497 J-31.667
N4275 X5.308 Y31.54 I4.497 J31.667
N4280 G01 X4.497 Y31.666
N4285 X4.355 Y31.686 Z-5.655
N4290 X4.212 Y31.702 Z-5.66
N4295 X3.358 Y31.794 Z-5.69
N4300 X3.216 Y31.808 Z-5.695
N4305 X3.074 Y31.819 Z-5.7
N4310 G03 X-3.074 Y-31.821 I-3.074 J-31.82
N4315 X3.158 Y31.811 I3.074 J31.82
N4320 G01 X3.074 Y31.819
N4325 X2.217 Y31.882 Z-5.73
N4330 X2.073 Y31.889 Z-5.735
N4335 X1.644 Y31.906 Z-5.75
N4340 G03 X-1.645 Y-31.911 I-1.645 J-31.909
N4345 X2.083 Y31.881 I1.645 J31.909
N4350 G01 X1.644 Y31.906
N4355 X1.215 Y31.923 Z-5.765
N4360 X1.072 Y31.929 Z-5.77
N4365 X0.356 Y31.933 Z-5.795
N4370 X0.213 Z-5.8
N4375 G03 X-0.213 Y-31.936 I-0.213 J-31.935
N4380 X1.008 Y31.918 I0.213 J31.935
N4385 G01 X0.213 Y31.933
N4390 X0.07 Y31.934 Z-5.805
N4395 X-0.074 Y31.932 Z-5.81
N4400 X-1.076 Y31.904 Z-5.845
N4405 X-1.218 Y31.895 Z-5.85
N4410 G03 X1.218 Y-31.897 I1.218 J-31.896
N4415 X-1.142 Y31.898 I-1.218 J31.896
N4420 G01 X-1.218 Y31.895
N4425 X-1.504 Y31.878 Z-5.86
N4430 X-1.647 Y31.868 Z-5.865
N4435 X-2.076 Y31.841 Z-5.88
N4440 X-2.219 Y31.83 Z-5.885
N4445 X-2.646 Y31.787 Z-5.9
N4450 G03 X2.646 Y-31.792 I2.646 J-31.79
N4455 X-2.217 Y31.82 I-2.646 J31.79
N4460 G01 X-2.646 Y31.787
N4465 X-3.216 Y31.731 Z-5.92
N4470 X-3.358 Y31.713 Z-5.925
N4475 X-4.068 Y31.619 Z-5.95
N4480 G03 X4.068 Y-31.622 I4.068 J-31.62
N4485 X-3.292 Y31.709 I-4.068 J31.62
N4490 G01 X-4.068 Y31.619
N4495 X-4.209 Y31.6 Z-5.955
N4500 X-4.351 Y31.58 Z-5.96
N4505 X-5.34 Y31.413 Z-5.995
N4510 X-5.48 Y31.387 Z-6.
N4515 G03 X5.48 Y-31.387 I5.48 J-31.387
N4520 X-5.443 Y31.393 I-5.48 J31.387
N4525 G01 X-5.48 Y31.387
N4530 X-6.322 Y31.216 Z-6.03
N4535 X-6.463 Y31.186 Z-6.035
N4540 X-6.88 Y31.087 Z-6.05
N4545 G03 X6.881 Y-31.091 I6.881 J-31.089
N4550 X-6.517 Y31.165 I-6.881 J31.089
N4555 G01 X-6.88 Y31.087
N4560 X-7.438 Y30.954 Z-6.07
N4565 X-7.576 Y30.918 Z-6.075
N4570 X-8.266 Y30.728 Z-6.1
N4575 G03 X8.267 Y-30.731 I8.267 J-30.73
N4580 X-7.593 Y30.901 I-8.267 J30.73
N4585 G01 X-8.266 Y30.728
N4590 X-8.405 Y30.69 Z-6.105
N4595 X-8.543 Y30.652 Z-6.11
N4600 X-9.5 Y30.353 Z-6.145
N4605 X-9.635 Y30.309 Z-6.15
N4610 G03 X9.635 Y-30.309 I9.635 J-30.309
N4615 X-9.609 Y30.317 I-9.635 J30.309
N4620 G01 X-9.635 Y30.309
N4625 X-10.582 Y29.978 Z-6.185
N4630 X-10.715 Y29.926 Z-6.19
N4635 X-10.982 Y29.823 Z-6.2
N4640 G03 X10.984 Y-29.827 I10.983 J-29.825
N4645 X-10.683 Y29.931 I-10.983 J29.825
N4650 G01 X-10.982 Y29.823
N4655 X-11.516 Y29.616 Z-6.22
N4660 X-11.649 Y29.562 Z-6.225
N4665 X-12.307 Y29.281 Z-6.25
N4670 G03 X12.309 Y-29.284 I12.308 J-29.282
N4675 X-11.624 Y29.559 I-12.308 J29.282
N4680 G01 X-12.307 Y29.281
N4685 X-12.571 Y29.168 Z-6.26
N4690 X-12.701 Y29.108 Z-6.265
N4695 X-13.479 Y28.743 Z-6.295
N4700 X-13.607 Y28.681 Z-6.3
N4705 G03 X13.607 Y-28.681 I13.607 J-28.681
N4710 X-13.584 Y28.692 I-13.607 J28.681
N4715 G01 X-13.607 Y28.681
N4720 X-14.5 Y28.225 Z-6.335
N4725 X-14.626 Y28.157 Z-6.34
N4730 X-14.876 Y28.018 Z-6.35
N4735 G03 X14.878 Y-28.022 I14.877 J-28.02
N4740 X-14.58 Y28.173 I-14.877 J28.02
N4745 G01 X-14.876 Y28.018
N4750 X-15.377 Y27.74 Z-6.37
N4755 X-15.502 Y27.67 Z-6.375
N4760 X-15.871 Y27.449 Z-6.39
N4765 X-15.993 Y27.375 Z-6.395
N4770 X-16.117 Y27.303 Z-6.4
N4775 G03 X16.119 Y-27.306 I16.118 J-27.305
N4780 X-15.521 Y27.646 I-16.118 J27.305
N4785 G01 X-16.117 Y27.303
N4790 X-16.238 Y27.227 Z-6.405
N4795 X-16.361 Y27.153 Z-6.41
N4800 X-16.482 Y27.076 Z-6.415
N4805 X-17.203 Y26.608 Z-6.445
N4810 X-17.322 Y26.529 Z-6.45
N4815 G03 X17.321 Y-26.529 I17.321 J-26.529
N4820 X-17.302 Y26.542 I-17.321 J26.529
N4825 G01 X-17.322 Y26.529
N4830 X-18.143 Y25.955 Z-6.485
N4835 X-18.259 Y25.87 Z-6.49
N4840 X-18.487 Y25.698 Z-6.5
N4845 G03 X18.49 Y-25.701 I18.489 J-25.7
N4850 X-18.208 Y25.896 I-18.489 J25.7
N4855 G01 X-18.487 Y25.698
N4860 X-18.945 Y25.354 Z-6.52
N4865 X-19.059 Y25.267 Z-6.525
N4870 X-19.617 Y24.818 Z-6.55
N4875 G03 X19.619 Y-24.821 I19.618 J-24.819
N4880 X-19.127 Y25.197 I-19.618 J24.819
N4885 G01 X-19.617 Y24.818
N4890 X-19.84 Y24.638 Z-6.56
N4895 X-19.949 Y24.545 Z-6.565
N4900 X-20.6 Y23.984 Z-6.595
N4905 X-20.706 Y23.889 Z-6.6
N4910 G03 X20.707 Y-23.89 I20.707 J-23.889
N4915 X-20.629 Y23.956 I-20.707 J23.889
N4920 G01 X-20.706 Y23.889
N4925 X-20.812 Y23.792 Z-6.605
N4930 X-21.443 Y23.209 Z-6.635
N4935 X-21.546 Y23.109 Z-6.64
N4940 X-21.749 Y22.908 Z-6.65
N4945 G03 X21.752 Y-22.911 I21.751 J-22.91
N4950 X-21.568 Y23.079 I-21.751 J22.91
N4955 G01 X-21.749 Y22.908
N4960 X-22.157 Y22.505 Z-6.67
N4965 X-22.258 Y22.404 Z-6.675
N4970 X-22.749 Y21.883 Z-6.7
N4975 G03 X22.752 Y-21.886 I22.751 J-21.885
N4980 X-22.239 Y22.401 I-22.751 J21.885
N4985 G01 X-22.749 Y21.883
N4990 X-22.946 Y21.675 Z-6.71
N4995 X-23.042 Y21.568 Z-6.715
N5000 X-23.61 Y20.924 Z-6.745
N5005 X-23.703 Y20.816 Z-6.75
N5010 G03 X23.703 Y-20.816 I23.703 J-20.816
N5015 X-23.631 Y20.898 I-23.703 J20.816
N5020 G01 X-23.703 Y20.816
N5025 X-23.795 Y20.705 Z-6.755
N5030 X-24.341 Y20.042 Z-6.785
N5035 X-24.429 Y19.929 Z-6.79
N5040 X-24.603 Y19.702 Z-6.8
N5045 G03 X24.607 Y-19.705 I24.605 J-19.704
N5050 X-24.389 Y19.966 I-24.605 J19.704
N5055 G01 X-24.603 Y19.702
N5060 X-24.952 Y19.248 Z-6.82
N5065 X-25.039 Y19.133 Z-6.825
N5070 X-25.455 Y18.551 Z-6.85
N5075 G03 X25.458 Y-18.553 I25.456 J-18.552
N5080 X-25.008 Y19.149 I-25.456 J18.552
N5085 G01 X-25.455 Y18.551
N5090 X-25.622 Y18.318 Z-6.86
N5095 X-25.702 Y18.199 Z-6.865
N5100 X-26.178 Y17.484 Z-6.895
N5105 X-26.255 Y17.364 Z-6.9
N5110 G03 X26.255 Y-17.364 I26.255 J-17.364
N5115 X-26.229 Y17.403 I-26.255 J17.364
N5120 G01 X-26.255 Y17.364
N5125 X-26.406 Y17.12 Z-6.91
N5130 X-26.481 Y16.998 Z-6.915
N5135 X-26.78 Y16.51 Z-6.935
N5140 X-26.852 Y16.386 Z-6.94
N5145 X-26.993 Y16.137 Z-6.95
N5150 G03 X26.997 Y-16.139 I26.995 J-16.138
N5155 X-26.796 Y16.461 I-26.995 J16.138
N5160 G01 X-26.993 Y16.137
N5165 X-27.276 Y15.639 Z-6.97
N5170 X-27.345 Y15.513 Z-6.975
N5175 X-27.677 Y14.879 Z-7.
N5180 G03 X27.68 Y-14.881 I27.678 J-14.88
N5185 X-27.322 Y15.521 I-27.678 J14.88
N5190 G01 X-27.677 Y14.879
N5195 X-27.81 Y14.625 Z-7.01
N5200 X-27.872 Y14.496 Z-7.015
N5205 X-28.245 Y13.721 Z-7.045
N5210 X-28.305 Y13.592 Z-7.05
N5215 G03 X28.305 Y-13.592 I28.305 J-13.592
N5220 X-28.281 Y13.64 I-28.305 J13.592
N5225 G01 X-28.305 Y13.592
N5230 X-28.651 Y12.806 Z-7.08
N5235 X-28.708 Y12.674 Z-7.085
N5240 X-28.868 Y12.276 Z-7.1
N5245 G03 X28.872 Y-12.277 I28.87 J-12.276
N5250 X-28.743 Y12.565 I-28.87 J12.276
N5255 G01 X-28.868 Y12.276
N5260 X-29.081 Y11.744 Z-7.12
N5265 X-29.131 Y11.609 Z-7.125
N5270 X-29.374 Y10.936 Z-7.15
N5275 G03 X29.377 Y-10.937 I29.376 J-10.937
N5280 X-29.093 Y11.664 I-29.376 J10.937
N5285 G01 X-29.374 Y10.936
N5290 X-29.423 Y10.802 Z-7.155
N5295 X-29.471 Y10.666 Z-7.16
N5300 X-29.779 Y9.712 Z-7.195
N5305 X-29.82 Y9.576 Z-7.2
N5310 G03 X29.82 Y-9.576 I29.82 J-9.576
N5315 X-29.809 Y9.609 I-29.82 J9.576
N5320 G01 X-29.82 Y9.576
N5325 X-30.056 Y8.75 Z-7.23
N5330 X-30.094 Y8.611 Z-7.235
N5335 X-30.198 Y8.195 Z-7.25
N5340 G03 X30.202 Y-8.196 I30.2 J-8.195
N5345 X-30.104 Y8.533 I-30.2 J8.195
N5350 G01 X-30.198 Y8.195
N5355 X-30.337 Y7.639 Z-7.27
N5360 X-30.367 Y7.498 Z-7.275
N5365 X-30.517 Y6.799 Z-7.3
N5370 G03 X30.52 Y-6.799 I30.518 J-6.799
N5375 X-30.329 Y7.593 I-30.518 J6.799
N5380 G01 X-30.517 Y6.799
N5385 X-30.547 Y6.659 Z-7.305
N5390 X-30.575 Y6.518 Z-7.31
N5395 X-30.726 Y5.672 Z-7.34
N5400 X-30.751 Y5.531 Z-7.345
N5405 X-30.771 Y5.39 Z-7.35
N5410 G03 X30.773 Y-5.39 I30.772 J-5.39
N5415 X-30.762 Y5.443 I-30.772 J5.39
N5420 G01 X-30.771 Y5.39
N5425 X-30.893 Y4.539 Z-7.38
N5430 X-30.911 Y4.397 Z-7.385
N5435 X-30.957 Y3.97 Z-7.4
N5440 G03 X30.962 Y-3.971 I30.96 J-3.97
N5445 X-30.904 Y4.367 I-30.96 J3.97
N5450 G01 X-30.957 Y3.97
N5455 X-31.004 Y3.543 Z-7.415
N5460 X-31.018 Y3.4 Z-7.42
N5465 X-31.08 Y2.544 Z-7.45
N5470 G03 X31.082 Y-2.544 I31.081 J-2.544
N5475 X-30.995 Y3.427 I-31.081 J2.544
N5480 G01 X-31.08 Y2.544
N5485 X-31.091 Y2.401 Z-7.455
N5490 X-31.097 Y2.257 Z-7.46
N5495 X-31.13 Y1.398 Z-7.49
N5500 X-31.133 Y1.255 Z-7.495
N5505 X-31.137 Y1.113 Z-7.5
N5510 G03 X31.139 Y-1.113 I31.138 J-1.113
N5515 X-31.13 Y1.277 I-31.138 J1.113
N5520 G01 X-31.137 Y1.113
N5525 X-31.134 Y0.969 Z-7.505
N5530 X-31.137 Y0.397 Z-7.525
N5535 Y0.253 Z-7.53
N5540 X-31.124 Y-0.176 Z-7.545
N5545 X-31.122 Y-0.319 Z-7.55
N5550 G03 X31.127 Y0.319 I31.124 J0.319
N5555 X-31.123 Y0.202 I-31.124 J-0.319
N5560 G01 X-31.122 Y-0.319
N5565 X-31.116 Y-0.462 Z-7.555
N5570 X-31.107 Y-0.749 Z-7.565
N5575 X-31.1 Y-0.892 Z-7.57
N5580 X-31.045 Y-1.749 Z-7.6
N5585 G03 X31.046 Y1.749 I31.046 J1.749
N5590 X-31.082 Y-0.874 I-31.046 J-1.749
N5595 G01 X-31.045 Y-1.749
N5600 X-31.035 Y-1.893 Z-7.605
N5605 X-30.937 Y-2.891 Z-7.64
N5610 X-30.919 Y-3.033 Z-7.645
N5615 X-30.9 Y-3.174 Z-7.65
N5620 G03 X30.903 Y3.174 I30.902 J3.174
N5625 X-30.915 Y-3.024 I-30.902 J-3.174
N5630 G01 X-30.9 Y-3.174
N5635 X-30.806 Y-3.883 Z-7.675
N5640 X-30.784 Y-4.025 Z-7.68
N5645 X-30.69 Y-4.59 Z-7.7
N5650 G03 X30.695 Y4.591 I30.692 J4.59
N5655 X-30.777 Y-3.964 I-30.692 J-4.59
N5660 G01 X-30.69 Y-4.59
N5665 X-30.643 Y-4.872 Z-7.71
N5670 X-30.618 Y-5.014 Z-7.715
N5675 X-30.448 Y-5.857 Z-7.745
N5680 X-30.42 Y-5.996 Z-7.75
N5685 G03 X30.419 Y5.996 I30.419 J5.996
N5690 X-30.423 Y-5.98 I-30.419 J-5.996
N5695 G01 X-30.42 Y-5.996
N5700 X-30.387 Y-6.136 Z-7.755
N5705 X-30.189 Y-6.972 Z-7.785
N5710 X-30.153 Y-7.111 Z-7.79
N5715 X-30.115 Y-7.249 Z-7.795
N5720 X-30.078 Y-7.387 Z-7.8
N5725 G03 X30.082 Y7.387 I30.08 J7.387
N5730 X-30.157 Y-7.055 I-30.08 J-7.387
N5735 G01 X-30.078 Y-7.387
N5740 X-30.04 Y-7.525 Z-7.805
N5745 X-29.926 Y-7.939 Z-7.82
N5750 X-29.888 Y-8.077 Z-7.825
N5755 X-29.675 Y-8.761 Z-7.85
N5760 G03 X29.679 Y8.762 I29.677 J8.761
N5765 X-29.854 Y-8.13 I-29.677 J-8.761
N5770 G01 X-29.675 Y-8.761
N5775 X-29.59 Y-9.034 Z-7.86
N5780 X-29.544 Y-9.171 Z-7.865
N5785 X-29.261 Y-9.982 Z-7.895
N5790 X-29.212 Y-10.116 Z-7.9
N5795 G03 X29.212 Y10.116 I29.212 J10.116
N5800 X-29.229 Y-10.066 I-29.212 J-10.116
N5805 G01 X-29.212 Y-10.116
N5810 X-29.16 Y-10.25 Z-7.905
N5815 X-29.108 Y-10.383 Z-7.91
N5820 X-28.9 Y-10.917 Z-7.93
N5825 X-28.847 Y-11.05 Z-7.935
N5830 X-28.678 Y-11.444 Z-7.95
N5835 G03 X28.682 Y11.446 I28.68 J11.445
N5840 X-28.824 Y-11.072 I-28.68 J-11.445
N5845 G01 X-28.678 Y-11.444
N5850 X-28.452 Y-11.971 Z-7.97
N5855 X-28.391 Y-12.101 Z-7.975
N5860 X-28.087 Y-12.749 Z-8.
N5865 G03 X28.089 Y12.75 I28.088 J12.749
N5870 X-28.403 Y-12.027 I-28.088 J-12.749
N5875 G01 X-28.087 Y-12.749
N5880 X-28.025 Y-12.878 Z-8.005
N5885 X-27.962 Y-13.008 Z-8.01
N5890 X-27.57 Y-13.772 Z-8.04
N5895 X-27.503 Y-13.899 Z-8.045
N5900 X-27.434 Y-14.023 Z-8.05
N5905 G03 X27.436 Y14.024 I27.435 J14.024
N5910 X-27.493 Y-13.909 I-27.435 J-14.024
N5915 G01 X-27.434 Y-14.023
N5920 X-27.016 Y-14.775 Z-8.08
N5925 X-26.943 Y-14.898 Z-8.085
N5930 X-26.721 Y-15.265 Z-8.1
N5935 G03 X26.725 Y15.268 I26.723 J15.266
N5940 X-26.955 Y-14.849 I-26.723 J-15.266
N5945 G01 X-26.721 Y-15.265
N5950 X-26.5 Y-15.634 Z-8.115
N5955 X-26.423 Y-15.755 Z-8.12
N5960 X-26.033 Y-16.356 Z-8.145
N5965 X-25.956 Y-16.475 Z-8.15
N5970 G03 X25.956 Y16.476 I25.956 J16.476
N5975 X-25.964 Y-16.463 I-25.956 J-16.476
N5980 G01 X-25.956 Y-16.475
N5985 X-25.876 Y-16.596 Z-8.155
N5990 X-25.384 Y-17.3 Z-8.185
N5995 X-25.302 Y-17.418 Z-8.19
N6000 X-25.131 Y-17.646 Z-8.2
N6005 G03 X25.133 Y17.648 I25.132 J17.647
N6010 X-25.206 Y-17.537 I-25.132 J-17.647
N6015 G01 X-25.131 Y-17.646
N6020 X-24.701 Y-18.219 Z-8.225
N6025 X-24.612 Y-18.331 Z-8.23
N6030 X-24.253 Y-18.777 Z-8.25
N6035 G03 X24.256 Y18.78 I24.255 J18.778
N6040 X-24.658 Y-18.243 I-24.255 J-18.778
N6045 G01 X-24.253 Y-18.777
N6050 X-24.073 Y-19. Z-8.26
N6055 X-23.981 Y-19.111 Z-8.265
N6060 X-23.42 Y-19.762 Z-8.295
N6065 X-23.326 Y-19.869 Z-8.3
N6070 G03 X23.326 Y19.869 I23.326 J19.869
N6075 X-23.366 Y-19.823 I-23.326 J-19.869
N6080 G01 X-23.326 Y-19.869
N6085 X-23.229 Y-19.975 Z-8.305
N6090 X-22.646 Y-20.606 Z-8.335
N6095 X-22.546 Y-20.708 Z-8.34
N6100 X-22.345 Y-20.912 Z-8.35
N6105 G03 X22.348 Y20.915 I22.346 J20.913
N6110 X-22.608 Y-20.627 I-22.346 J-20.913
N6115 G01 X-22.345 Y-20.912
N6120 X-21.942 Y-21.319 Z-8.37
N6125 X-21.839 Y-21.419 Z-8.375
N6130 X-21.734 Y-21.517 Z-8.38
N6135 X-21.421 Y-21.812 Z-8.395
N6140 X-21.32 Y-21.912 Z-8.4
N6145 G03 X21.322 Y21.914 I21.321 J21.913
N6150 X-21.837 Y-21.396 I-21.321 J-21.913
N6155 G01 X-21.32 Y-21.912
N6160 X-21.213 Y-22.007 Z-8.405
N6165 X-21.107 Y-22.104 Z-8.41
N6170 X-20.461 Y-22.672 Z-8.44
N6175 X-20.352 Y-22.766 Z-8.445
N6180 X-20.243 Y-22.855 Z-8.45
N6185 G03 X20.244 Y22.857 I20.243 J22.856
N6190 X-20.359 Y-22.752 I-20.243 J-22.856
N6195 G01 X-20.243 Y-22.855
N6200 X-19.578 Y-23.4 Z-8.48
N6205 X-19.464 Y-23.488 Z-8.485
N6210 X-19.123 Y-23.748 Z-8.5
N6215 G03 X19.126 Y23.752 I19.124 J23.75
N6220 X-19.551 Y-23.397 I-19.124 J-23.75
N6225 G01 X-19.123 Y-23.748
N6230 X-18.781 Y-24.009 Z-8.515
N6235 X-18.665 Y-24.094 Z-8.52
N6240 X-17.965 Y-24.592 Z-8.55
N6245 G03 X17.966 Y24.592 I17.965 J24.592
N6250 X-18.614 Y-24.105 I-17.965 J-24.592
N6255 G01 X-17.965 Y-24.592
N6260 X-17.847 Y-24.673 Z-8.555
N6265 X-17.13 Y-25.148 Z-8.585
N6270 X-17.009 Y-25.226 Z-8.59
N6275 X-16.767 Y-25.375 Z-8.6
N6280 G03 X16.769 Y25.378 I16.768 J25.376
N6285 X-16.999 Y-25.22 I-16.768 J-25.376
N6290 G01 X-16.767 Y-25.375
N6295 X-16.278 Y-25.675 Z-8.62
N6300 X-16.156 Y-25.75 Z-8.625
N6305 X-15.533 Y-26.103 Z-8.65
N6310 G03 X15.535 Y26.106 I15.534 J26.105
N6315 X-16.139 Y-25.733 I-15.534 J-26.105
N6320 G01 X-15.533 Y-26.103
N6325 X-15.284 Y-26.245 Z-8.66
N6330 X-15.157 Y-26.312 Z-8.665
N6335 X-14.396 Y-26.711 Z-8.695
N6340 X-14.268 Y-26.775 Z-8.7
N6345 G03 X14.269 Y26.775 I14.269 J26.775
N6350 X-14.312 Y-26.751 I-14.269 J-26.775
N6355 G01 X-14.268 Y-26.775
N6360 X-13.494 Y-27.147 Z-8.73
N6365 X-13.364 Y-27.208 Z-8.735
N6370 X-12.971 Y-27.381 Z-8.75
N6375 G03 X12.973 Y27.385 I12.972 J27.383
N6380 X-13.37 Y-27.188 I-12.972 J-27.383
N6385 G01 X-12.971 Y-27.381
N6390 X-12.578 Y-27.554 Z-8.765
N6395 X-12.446 Y-27.611 Z-8.77
N6400 X-11.648 Y-27.93 Z-8.8
N6405 G03 X11.649 Y27.931 I11.649 J27.93
N6410 X-12.431 Y-27.59 I-11.649 J-27.93
N6415 G01 X-11.648 Y-27.93
N6420 X-11.515 Y-27.983 Z-8.805
N6425 X-10.975 Y-28.178 Z-8.825
N6430 X-10.84 Y-28.226 Z-8.83
N6435 X-10.571 Y-28.323 Z-8.84
N6440 X-10.434 Y-28.367 Z-8.845
N6445 X-10.299 Y-28.41 Z-8.85
N6450 G03 X10.3 Y28.413 I10.3 J28.412
N6455 X-10.549 Y-28.319 I-10.3 J-28.412
N6460 G01 X-10.299 Y-28.41
N6465 X-9.617 Y-28.628 Z-8.875
N6470 X-9.479 Y-28.669 Z-8.88
N6475 X-8.928 Y-28.825 Z-8.9
N6480 G03 X8.929 Y28.828 I8.929 J28.826
N6485 X-9.474 Y-28.65 I-8.929 J-28.826
N6490 G01 X-8.928 Y-28.825
N6495 X-8.652 Y-28.903 Z-8.91
N6500 X-8.513 Y-28.939 Z-8.915
N6505 X-7.678 Y-29.145 Z-8.945
N6510 X-7.54 Y-29.177 Z-8.95
N6515 G03 X7.54 Y29.177 I7.54 J29.177
N6520 X-7.593 Y-29.163 I-7.54 J-29.177
N6525 G01 X-7.54 Y-29.177
N6530 X-6.699 Y-29.354 Z-8.98
N6535 X-6.558 Y-29.382 Z-8.985
N6540 X-6.135 Y-29.456 Z-9.
N6545 G03 X6.136 Y29.461 I6.136 J29.459
N6550 X-6.579 Y-29.361 I-6.136 J-29.459
N6555 G01 X-6.135 Y-29.456
N6560 X-5.712 Y-29.531 Z-9.015
N6565 X-5.57 Y-29.555 Z-9.02
N6570 X-4.72 Y-29.674 Z-9.05
N6575 G03 X4.72 Y29.676 I4.72 J29.675
N6580 X-5.577 Y-29.525 I-4.72 J-29.675
N6585 G01 X-4.72 Y-29.674
N6590 X-4.577 Y-29.694 Z-9.055
N6595 X-4.434 Y-29.71 Z-9.06
N6600 X-3.579 Y-29.8 Z-9.09
N6605 X-3.436 Y-29.811 Z-9.095
N6610 X-3.295 Y-29.821 Z-9.1
N6615 G03 X3.295 Y29.825 I3.295 J29.823
N6620 X-3.427 Y-29.807 I-3.295 J-29.823
N6625 G01 X-3.295 Y-29.821
N6630 X-2.58 Y-29.873 Z-9.125
N6635 X-2.437 Y-29.879 Z-9.13
N6640 X-1.865 Y-29.901 Z-9.15
N6645 G03 X1.865 Y29.905 I1.865 J29.903
N6650 X-2.486 Y-29.856 I-1.865 J-29.903
N6655 G01 X-1.865 Y-29.901
N6660 X-1.579 Y-29.912 Z-9.16
N6665 X-1.435 Y-29.914 Z-9.165
N6670 X-0.575 Y-29.917 Z-9.195
N6675 X-0.433 Y-29.915 Z-9.2
N6680 G03 X0.433 Y29.916 I0.433 J29.915
N6685 X-0.47 Y-29.915 I-0.433 J-29.915
N6690 G01 X-0.433
N6695 X0.426 Y-29.889 Z-9.23
N6700 X0.57 Y-29.883 Z-9.235
N6705 X0.998 Y-29.855 Z-9.25
N6710 G03 X-0.998 Y29.86 I-0.998 J29.857
N6715 X0.605 Y-29.866 I0.998 J-29.857
N6720 G01 X0.998 Y-29.855
N6725 X1.284 Y-29.837 Z-9.26
N6730 X1.427 Y-29.827 Z-9.265
N6735 X1.571 Y-29.816 Z-9.27
N6740 X2.425 Y-29.729 Z-9.3
N6745 G03 X-2.425 Y29.729 I-2.425 J29.729
N6750 X1.545 Y-29.787 I2.425 J-29.729
N6755 G01 X2.425 Y-29.729
N6760 X2.568 Y-29.713 Z-9.305
N6765 X3.42 Y-29.596 Z-9.335
N6770 X3.562 Y-29.576 Z-9.34
N6775 X3.843 Y-29.528 Z-9.35
N6780 G03 X-3.843 Y29.531 I-3.843 J29.529
N6785 X3.561 Y-29.563 I3.843 J-29.529
N6790 G01 X3.843 Y-29.528
N6795 X4.408 Y-29.431 Z-9.37
N6800 X4.549 Y-29.406 Z-9.375
N6805 X5.25 Y-29.261 Z-9.4
N6810 G03 X-5.251 Y29.264 I-5.25 J29.263
N6815 X4.636 Y-29.365 I5.25 J-29.263
N6820 G01 X5.25 Y-29.261
N6825 X5.39 Y-29.232 Z-9.405
N6830 X5.531 Y-29.203 Z-9.41
N6835 X6.367 Y-29. Z-9.44
N6840 X6.507 Y-28.966 Z-9.445
N6845 X6.643 Y-28.928 Z-9.45
N6850 G03 X-6.644 Y28.929 I-6.643 J28.929
N6855 X6.505 Y-28.959 I6.643 J-28.929
N6860 G01 X6.643 Y-28.928
N6865 X7.472 Y-28.697 Z-9.48
N6870 X8.018 Y-28.525 Z-9.5
N6875 G03 X-8.019 Y28.529 I-8.018 J28.527
N6880 X7.593 Y-28.641 I8.018 J-28.527
N6885 G01 X8.018 Y-28.525
N6890 X8.428 Y-28.395 Z-9.515
N6895 X8.564 Y-28.348 Z-9.52
N6900 X9.239 Y-28.109 Z-9.545
N6905 X9.374 Y-28.064 Z-9.55
N6910 G03 X-9.374 Y28.064 I-9.374 J28.064
N6915 X9.34 Y-28.075 I9.374 J-28.064
N6920 G01 X9.374 Y-28.064
N6925 X9.507 Y-28.01 Z-9.555
N6930 X10.307 Y-27.696 Z-9.585
N6935 X10.439 Y-27.639 Z-9.59
N6940 X10.701 Y-27.526 Z-9.6
N6945 G03 X-10.703 Y27.53 I-10.702 J27.528
N6950 X10.414 Y-27.636 I10.702 J-27.528
N6955 G01 X10.701 Y-27.526
N6960 X11.228 Y-27.299 Z-9.62
N6965 X11.358 Y-27.238 Z-9.625
N6970 X12.005 Y-26.932 Z-9.65
N6975 G03 X-12.006 Y26.934 I-12.005 J26.933
N6980 X11.351 Y-27.214 I12.005 J-26.933
N6985 G01 X12.005 Y-26.932
N6990 X12.135 Y-26.871 Z-9.655
N6995 X12.263 Y-26.805 Z-9.66
N7000 X12.518 Y-26.674 Z-9.67
N7005 X12.645 Y-26.608 Z-9.675
N7010 X13.027 Y-26.409 Z-9.69
N7015 X13.152 Y-26.339 Z-9.695
N7020 X13.275 Y-26.27 Z-9.7
N7025 G03 X-13.276 Y26.273 I-13.276 J26.271
N7030 X13.102 Y-26.356 I13.276 J-26.271
N7035 G01 X13.275 Y-26.27
N7040 X13.899 Y-25.918 Z-9.725
N7045 X14.022 Y-25.843 Z-9.73
N7050 X14.511 Y-25.545 Z-9.75
N7055 G03 X-14.512 Y25.548 I-14.512 J25.547
N7060 X13.908 Y-25.878 I14.512 J-25.547
N7065 G01 X14.511 Y-25.545
N7070 X14.756 Y-25.395 Z-9.76
N7075 X14.876 Y-25.316 Z-9.765
N7080 X15.475 Y-24.923 Z-9.79
N7085 X15.595 Y-24.844 Z-9.795
N7090 X15.711 Y-24.762 Z-9.8
N7095 G03 X-15.711 Y24.764 I-15.711 J24.763
N7100 X15.656 Y-24.797 I15.711 J-24.763
N7105 G01 X15.711 Y-24.762
N7110 X16.296 Y-24.349 Z-9.825
N7115 X16.413 Y-24.265 Z-9.83
N7120 X16.869 Y-23.919 Z-9.85
N7125 G03 X-16.871 Y23.923 I-16.87 J23.921
N7130 X16.461 Y-24.201 I16.87 J-23.921
N7135 G01 X16.869 Y-23.919
N7140 X17.097 Y-23.746 Z-9.86
N7145 X17.211 Y-23.658 Z-9.865
N7150 X17.878 Y-23.115 Z-9.895
N7155 X17.988 Y-23.025 Z-9.9
N7160 G03 X-17.987 Y23.025 I-17.988 J23.025
N7165 X17.958 Y-23.048 I17.988 J-23.025
N7170 G01 X17.988 Y-23.025
N7175 X18.096 Y-22.931 Z-9.905
N7180 X18.636 Y-22.46 Z-9.93
N7185 X18.743 Y-22.364 Z-9.935
N7190 X19.057 Y-22.071 Z-9.95
N7195 G03 X-19.06 Y22.075 I-19.058 J22.073
N7200 X18.702 Y-22.373 I19.058 J-22.073
N7205 G01 X19.057 Y-22.071
N7210 X19.371 Y-21.778 Z-9.965
N7215 X19.475 Y-21.678 Z-9.97
N7220 X19.982 Y-21.172 Z-9.995
N7225 X20.085 Y-21.074 Z-10.
N7230 G03 X-20.086 Y21.074 I-20.085 J21.074
N7235 X19.419 Y-21.69 I20.085 J-21.074
N7240 G01 X20.085 Y-21.074
N7245 X20.183 Y-20.967 Z-10.005
N7250 X20.771 Y-20.339 Z-10.035
N7255 X20.867 Y-20.232 Z-10.04
N7260 X21.054 Y-20.018 Z-10.05
N7265 G03 X-21.057 Y20.021 I-21.055 J20.02
N7270 X20.856 Y-20.224 I21.055 J-20.02
N7275 G01 X21.054 Y-20.018
N7280 X21.148 Y-19.91 Z-10.055
N7285 X21.242 Y-19.802 Z-10.06
N7290 X21.429 Y-19.585 Z-10.07
N7295 X21.521 Y-19.474 Z-10.075
N7300 X21.971 Y-18.917 Z-10.1
N7305 G03 X-21.972 Y18.919 I-21.971 J18.918
N7310 X21.528 Y-19.419 I21.971 J-18.918
N7315 G01 X21.971 Y-18.917
N7320 X22.061 Y-18.806 Z-10.105
N7325 X22.149 Y-18.691 Z-10.11
N7330 X22.666 Y-18.003 Z-10.14
N7335 X22.749 Y-17.886 Z-10.145
N7340 X22.83 Y-17.771 Z-10.15
N7345 G03 X-22.832 Y17.772 I-22.831 J17.772
N7350 X22.697 Y-17.94 I22.831 J-17.772
N7355 G01 X22.83 Y-17.771
N7360 X23.159 Y-17.301 Z-10.17
N7365 X23.241 Y-17.183 Z-10.175
N7370 X23.632 Y-16.583 Z-10.2
N7375 G03 X-23.634 Y16.585 I-23.633 J16.584
N7380 X23.236 Y-17.133 I23.633 J-16.584
N7385 G01 X23.632 Y-16.583
N7390 X23.71 Y-16.463 Z-10.205
N7395 X23.788 Y-16.341 Z-10.21
N7400 X24.233 Y-15.605 Z-10.24
N7405 X24.305 Y-15.481 Z-10.245
N7410 X24.374 Y-15.358 Z-10.25
N7415 G03 X-24.376 Y15.359 I-24.375 J15.359
N7420 X24.355 Y-15.388 I24.375 J-15.359
N7425 G01 X24.374 Y-15.358
N7430 X24.723 Y-14.732 Z-10.275
N7435 X24.791 Y-14.606 Z-10.28
N7440 X25.053 Y-14.096 Z-10.3
N7445 G03 X-25.057 Y14.098 I-25.055 J14.097
N7450 X24.775 Y-14.58 I25.055 J-14.097
N7455 G01 X25.053 Y-14.096
N7460 X25.185 Y-13.842 Z-10.31
N7465 X25.248 Y-13.711 Z-10.315
N7470 X25.615 Y-12.934 Z-10.345
N7475 X25.672 Y-12.804 Z-10.35
N7480 G03 X-25.673 Y12.804 I-25.672 J12.804
N7485 X25.657 Y-12.834 I25.672 J-12.804
N7490 G01 X25.672 Y-12.804
N7495 X25.956 Y-12.146 Z-10.375
N7500 X26.012 Y-12.014 Z-10.38
N7505 X26.221 Y-11.481 Z-10.4
N7510 G03 X-26.225 Y11.482 I-26.223 J11.481
N7515 X26.002 Y-11.969 I26.223 J-11.481
N7520 G01 X26.221 Y-11.481
N7525 X26.326 Y-11.214 Z-10.41
N7530 X26.377 Y-11.078 Z-10.415
N7535 X26.425 Y-10.943 Z-10.42
N7540 X26.66 Y-10.266 Z-10.445
N7545 X26.704 Y-10.131 Z-10.45
N7550 G03 X-26.704 Y10.131 I-26.704 J10.131
N7555 X26.698 Y-10.146 I26.704 J-10.131
N7560 G01 X26.704 Y-10.131
N7565 X26.958 Y-9.31 Z-10.48
N7570 X26.997 Y-9.171 Z-10.485
N7575 X27.11 Y-8.757 Z-10.5
N7580 G03 X-27.114 Y8.758 I-27.112 J8.758
N7585 X26.942 Y-9.263 I27.112 J-8.758
N7590 G01 X27.11 Y-8.757
N7595 X27.223 Y-8.341 Z-10.515
N7600 X27.257 Y-8.201 Z-10.52
N7605 X27.422 Y-7.504 Z-10.545
N7610 X27.453 Y-7.365 Z-10.55
N7615 G03 X-27.453 Y7.365 I-27.453 J7.365
N7620 X27.427 Y-7.459 I27.453 J-7.365
N7625 G01 X27.453 Y-7.365
N7630 X27.482 Y-7.224 Z-10.555
N7635 X27.623 Y-6.521 Z-10.58
N7640 X27.649 Y-6.379 Z-10.585
N7645 X27.719 Y-5.957 Z-10.6
N7650 G03 X-27.723 Y5.958 I-27.721 J5.958
N7655 X27.614 Y-6.427 I27.721 J-5.958
N7660 G01 X27.719 Y-5.957
N7665 X27.789 Y-5.533 Z-10.615
N7670 X27.809 Y-5.389 Z-10.62
N7675 X27.902 Y-4.679 Z-10.645
N7680 X27.92 Y-4.538 Z-10.65
N7685 G03 X-27.92 Y4.538 I-27.92 J4.538
N7690 X27.903 Y-4.637 I27.92 J-4.538
N7695 G01 X27.92 Y-4.538
N7700 X27.934 Y-4.394 Z-10.655
N7705 X28.003 Y-3.68 Z-10.68
N7710 X28.016 Y-3.537 Z-10.685
N7715 X28.042 Y-3.11 Z-10.7
N7720 G03 X-28.046 Y3.111 I-28.044 J3.11
N7725 X27.989 Y-3.561 I28.044 J-3.11
N7730 G01 X28.042 Y-3.11
N7735 X28.069 Y-2.681 Z-10.715
N7740 X28.075 Y-2.536 Z-10.72
N7745 X28.095 Y-1.82 Z-10.745
N7750 X28.099 Y-1.678 Z-10.75
N7755 G03 X-28.098 Y1.678 I-28.099 J1.678
N7760 X28.099 Y-1.68 I28.099 J-1.678
N7765 G01 Y-1.678
N7770 X28.098 Y-1.535 Z-10.755
N7775 X28.09 Y-0.818 Z-10.78
N7780 X28.087 Y-0.674 Z-10.785
N7785 X28.067 Y-0.245 Z-10.8
N7790 G03 X-28.071 Y0.245 I-28.069 J0.245
N7795 X28.062 Y-0.605 I28.069 J-0.245
N7800 G01 X28.067 Y-0.245
N7805 X28.048 Y0.185 Z-10.815
N7810 X28.038 Y0.329 Z-10.82
N7815 X27.981 Y1.044 Z-10.845
N7820 X27.968 Y1.185 Z-10.85
N7825 G03 X-27.968 Y-1.185 I-27.968 J-1.185
N7830 X27.97 Y1.142 I27.968 J1.185
N7835 G01 X27.968 Y1.185
N7840 X27.953 Y1.329 Z-10.855
N7845 X27.872 Y2.041 Z-10.88
N7850 X27.854 Y2.184 Z-10.885
N7855 X27.791 Y2.608 Z-10.9
N7860 G03 X-27.795 Y-2.608 I-27.793 J-2.608
N7865 X27.825 Y2.217 I27.793 J2.608
N7870 G01 X27.791 Y2.608
N7875 X27.727 Y3.035 Z-10.915
N7880 X27.702 Y3.176 Z-10.92
N7885 X27.573 Y3.882 Z-10.945
N7890 X27.546 Y4.02 Z-10.95
N7895 G03 X-27.546 Y-4.021 I-27.546 J-4.021
N7900 X27.554 Y3.964 I27.546 J4.021
N7905 G01 X27.546 Y4.02
N7910 X27.516 Y4.161 Z-10.955
N7915 X27.363 Y4.862 Z-10.98
N7920 X27.329 Y5.002 Z-10.985
N7925 X27.223 Y5.417 Z-11.
N7930 G03 X-27.227 Y-5.418 I-27.225 J-5.418
N7935 X27.296 Y5.039 I27.225 J5.418
N7940 G01 X27.223 Y5.417
N7945 X27.117 Y5.834 Z-11.015
N7950 X27.077 Y5.974 Z-11.02
N7955 X26.876 Y6.662 Z-11.045
N7960 X26.835 Y6.797 Z-11.05
N7965 G03 X-26.835 Y-6.797 I-26.835 J-6.797
N7970 X26.838 Y6.787 I26.835 J6.797
N7975 G01 X26.835 Y6.797
N7980 X26.745 Y7.071 Z-11.06
N7985 X26.7 Y7.207 Z-11.065
N7990 X26.562 Y7.616 Z-11.08
N7995 X26.512 Y7.751 Z-11.085
N8000 X26.362 Y8.151 Z-11.1
N8005 G03 X-26.366 Y-8.152 I-26.364 J-8.152
N8010 X26.49 Y7.727 I26.364 J8.152
N8015 G01 X26.362 Y8.151
N8020 X26.261 Y8.42 Z-11.11
N8025 X26.209 Y8.556 Z-11.115
N8030 X25.88 Y9.351 Z-11.145
N8035 X25.822 Y9.48 Z-11.15
N8040 G03 X-25.823 Y-9.48 I-25.823 J-9.48
N8045 X25.824 Y9.475 I25.823 J9.48
N8050 G01 X25.822 Y9.48
N8055 X25.525 Y10.133 Z-11.175
N8060 X25.465 Y10.264 Z-11.18
N8065 X25.21 Y10.777 Z-11.2
N8070 G03 X-25.213 Y-10.778 I-25.212 J-10.778
N8075 X25.417 Y10.28 I25.212 J10.778
N8080 G01 X25.21 Y10.777
N8085 X25.082 Y11.034 Z-11.21
N8090 X25.014 Y11.163 Z-11.215
N8095 X24.674 Y11.794 Z-11.24
N8100 X24.605 Y11.92 Z-11.245
N8105 X24.534 Y12.041 Z-11.25
N8110 G03 X-24.536 Y-12.042 I-24.535 J-12.042
N8115 X24.606 Y11.893 I24.535 J12.042
N8120 G01 X24.534 Y12.041
N8125 X24.172 Y12.661 Z-11.275
N8130 X24.096 Y12.784 Z-11.28
N8135 X23.791 Y13.268 Z-11.3
N8140 G03 X-23.793 Y-13.269 I-23.792 J-13.269
N8145 X24.099 Y12.699 I23.792 J13.269
N8150 G01 X23.791 Y13.268
N8155 X23.714 Y13.389 Z-11.305
N8160 X23.635 Y13.512 Z-11.31
N8165 X23.151 Y14.224 Z-11.34
N8170 X23.067 Y14.341 Z-11.345
N8175 X22.983 Y14.453 Z-11.35
N8180 G03 X-22.986 Y-14.455 I-22.985 J-14.454
N8185 X23.072 Y14.312 I22.985 J14.454
N8190 G01 X22.983 Y14.453
N8195 X22.64 Y14.914 Z-11.37
N8200 X22.552 Y15.029 Z-11.375
N8205 X22.106 Y15.588 Z-11.4
N8210 G03 X-22.107 Y-15.589 I-22.106 J-15.589
N8215 X22.52 Y14.984 I22.106 J15.589
N8220 G01 X22.106 Y15.588
N8225 X22.016 Y15.701 Z-11.405
N8230 X21.921 Y15.812 Z-11.41
N8235 X21.454 Y16.358 Z-11.435
N8240 X21.359 Y16.465 Z-11.44
N8245 X21.168 Y16.674 Z-11.45
N8250 G03 X-21.17 Y-16.676 I-21.169 J-16.675
N8255 X21.333 Y16.462 I21.169 J16.675
N8260 G01 X21.168 Y16.674
N8265 X20.877 Y16.992 Z-11.465
N8270 X20.778 Y17.098 Z-11.47
N8275 X20.275 Y17.611 Z-11.495
N8280 X20.176 Y17.711 Z-11.5
N8285 G03 X-20.176 Y-17.712 I-20.176 J-17.711
N8290 X20.21 Y17.672 I20.176 J17.711
N8295 G01 X20.176 Y17.711
N8300 X20.071 Y17.814 Z-11.505
N8305 X19.551 Y18.309 Z-11.53
N8310 X19.445 Y18.407 Z-11.535
N8315 X19.127 Y18.69 Z-11.55
N8320 G03 X-19.129 Y-18.693 I-19.128 J-18.692
N8325 X19.461 Y18.342 I19.128 J18.692
N8330 G01 X19.127 Y18.69
N8335 X18.912 Y18.881 Z-11.56
N8340 X18.805 Y18.977 Z-11.565
N8345 X18.141 Y19.528 Z-11.595
N8350 X18.029 Y19.615 Z-11.6
N8355 G03 X-18.029 Y-19.615 I-18.029 J-19.615
N8360 X18.096 Y19.553 I18.029 J19.615
N8365 G01 X18.029 Y19.615
N8370 X17.455 Y20.049 Z-11.625
N8375 X17.338 Y20.135 Z-11.63
N8380 X16.871 Y20.464 Z-11.65
N8385 G03 X-16.872 Y-20.466 I-16.872 J-20.465
N8390 X17.315 Y20.09 I16.872 J20.465
N8395 G01 X16.871 Y20.464
N8400 X16.753 Y20.547 Z-11.655
N8405 X16.633 Y20.631 Z-11.66
N8410 X16.032 Y21.025 Z-11.685
N8415 X15.911 Y21.104 Z-11.69
N8420 X15.788 Y21.179 Z-11.695
N8425 X15.67 Y21.251 Z-11.7
N8430 G03 X-15.671 Y-21.253 I-15.67 J-21.252
N8435 X15.79 Y21.162 I15.67 J21.252
N8440 G01 X15.67 Y21.251
N8445 X15.178 Y21.549 Z-11.72
N8450 X15.052 Y21.623 Z-11.725
N8455 X14.428 Y21.973 Z-11.75
N8460 G03 X-14.428 Y-21.974 I-14.428 J-21.974
N8465 X14.429 Y21.973 I14.428 J21.974
N8470 G01 X14.428
N8475 X14.3 Y22.044 Z-11.755
N8480 X13.661 Y22.374 Z-11.78
N8485 X13.533 Y22.44 Z-11.785
N8490 X13.147 Y22.623 Z-11.8
N8495 G03 X-13.149 Y-22.627 I-13.148 J-22.625
N8500 X13.505 Y22.412 I13.148 J22.625
N8505 G01 X13.147 Y22.623
N8510 X12.758 Y22.808 Z-11.815
N8515 X12.623 Y22.867 Z-11.82
N8520 X11.959 Y23.143 Z-11.845
N8525 X11.828 Y23.194 Z-11.85
N8530 G03 X-11.828 Y-23.195 I-11.828 J-23.195
N8535 X11.893 Y23.161 I11.828 J23.195
N8540 G01 X11.828 Y23.194
N8545 X11.155 Y23.448 Z-11.875
N8550 X11.018 Y23.497 Z-11.88
N8555 X10.475 Y23.682 Z-11.9
N8560 G03 X-10.476 Y-23.684 I-10.475 J-23.683
N8565 X10.983 Y23.45 I10.475 J23.683
N8570 G01 X10.475 Y23.682
N8575 X10.338 Y23.728 Z-11.905
N8580 X10.2 Y23.773 Z-11.91
N8585 X9.509 Y23.981 Z-11.935
N8590 X9.37 Y24.021 Z-11.94
N8595 X9.097 Y24.094 Z-11.95
N8600 G03 X-9.098 Y-24.097 I-9.098 J-24.095
N8605 X9.377 Y23.986 I9.098 J24.095
N8610 G01 X9.097 Y24.094
N8615 X8.68 Y24.204 Z-11.965
N8620 X8.538 Y24.241 Z-11.97
N8625 X7.837 Y24.402 Z-11.995
N8630 X7.702 Y24.442 Z-12.
N8635 G03 X-7.702 Y-24.441 I-7.702 J-24.442
N8640 X7.727 Y24.434 I7.702 J24.442
N8645 G01 X7.702 Y24.442
N8650 X7.556 Y24.46 Z-12.005
N8655 X7.415 Y24.488 Z-12.01
N8660 X6.989 Y24.561 Z-12.025
N8665 X6.846 Y24.585 Z-12.03
N8670 X6.278 Y24.663 Z-12.05
N8675 G03 X-6.278 Y-24.666 I-6.278 J-24.665
N8680 X6.802 Y24.524 I6.278 J24.665
N8685 G01 X6.278 Y24.663
N8690 X6.135 Y24.683 Z-12.055
N8695 X5.988 Y24.703 Z-12.06
N8700 X5.844 Y24.718 Z-12.065
N8705 X5.27 Y24.777 Z-12.085
N8710 X5.126 Y24.792 Z-12.09
N8715 X4.982 Y24.801 Z-12.095
N8720 X4.844 Y24.811 Z-12.1
N8725 G03 X-4.845 Y-24.814 I-4.845 J-24.812
N8730 X5.039 Y24.772 I4.845 J24.812
N8735 G01 X4.844 Y24.811
N8740 X4.269 Y24.85 Z-12.12
N8745 X4.121 Y24.856 Z-12.125
N8750 X3.545 Y24.876 Z-12.145
N8755 X3.404 Y24.88 Z-12.15
N8760 G03 X-3.404 Y-24.879 I-3.404 J-24.88
N8765 X3.427 Y24.877 I3.404 J24.88
N8770 G01 X3.404 Y24.88
N8775 X3.258 Y24.881 Z-12.155
N8780 X2.825 Z-12.17
N8785 X2.68 Y24.877 Z-12.175
N8790 X2.535 Y24.872 Z-12.18
N8795 X2.388 Y24.863 Z-12.185
N8800 X1.96 Y24.835 Z-12.2
N8805 G03 X-1.961 Y-24.838 I-1.96 J-24.837
N8810 X2.486 Y24.788 I1.96 J24.837
N8815 G01 X1.96 Y24.835
N8820 X1.816 Y24.826 Z-12.205
N8825 X1.666 Y24.816 Z-12.21
N8830 X0.945 Y24.745 Z-12.235
N8835 X0.8 Y24.729 Z-12.24
N8840 X0.521 Y24.692 Z-12.25
N8845 G03 X-0.521 Y-24.695 I-0.521 J-24.694
N8850 X0.739 Y24.686 I0.521 J24.694
N8855 G01 X0.521 Y24.692
N8860 X0.09 Y24.635 Z-12.265
N8865 X-0.055 Y24.613 Z-12.27
N8870 X-0.629 Y24.517 Z-12.29
N8875 X-0.772 Y24.493 Z-12.295
N8880 X-0.909 Y24.468 Z-12.3
N8885 G03 X0.909 Y-24.468 I0.909 J-24.468
N8890 X-0.874 Y24.469 I-0.909 J24.468
N8895 G01 X-0.909 Y24.468
N8900 X-1.051 Y24.432 Z-12.305
N8905 X-1.475 Y24.323 Z-12.32
N8910 X-1.618 Y24.287 Z-12.325
N8915 X-1.762 Y24.246 Z-12.33
N8920 X-2.318 Y24.084 Z-12.35
N8925 G03 X2.318 Y-24.085 I2.318 J-24.084
N8930 X-1.68 Y24.137 I-2.318 J24.084
N8935 G01 X-2.318 Y24.084
N8940 X-2.462 Y24.041 Z-12.355
N8945 X-3.16 Y23.811 Z-12.38
N8950 X-3.3 Y23.764 Z-12.385
N8955 X-3.439 Y23.713 Z-12.39
N8960 X-3.576 Y23.662 Z-12.395
N8965 X-3.7 Y23.609 Z-12.4
N8970 G03 X3.7 Y-23.612 I3.7 J-23.61
N8975 X-3.292 Y23.669 I-3.7 J23.61
N8980 G01 X-3.7 Y23.609
N8985 X-3.97 Y23.479 Z-12.41
N8990 X-4.113 Y23.406 Z-12.415
N8995 X-4.644 Y23.128 Z-12.435
N9000 X-4.777 Y23.058 Z-12.44
N9005 X-5.026 Y22.917 Z-12.45
N9010 G03 X5.026 Y-22.92 I5.026 J-22.918
N9015 X-4.77 Y22.971 I-5.026 J22.918
N9020 G01 X-5.026 Y22.917
N9025 G00 Z5.
N9030 X-0.337 Y10.934
N9035 Z0.517
N9040 G01 Z-0.55 F250.
N9045 G02 X0.337 Y-10.939 I0.337 J-10.937 F1500.
N9050 X-0.605 Y10.923 I-0.337 J10.937
N9055 G01 X-0.337 Y10.934
N9060 X-0.194 Y10.96 Z-0.555
N9065 X-0.056 Y10.984 Z-0.56
N9070 X0.083 Y11.002 Z-0.565
N9075 X0.227 Y11.017 Z-0.57
N9080 X0.371 Y11.03 Z-0.575
N9085 X0.514 Y11.043 Z-0.58
N9090 X0.657 Y11.056 Z-0.585
N9095 X0.799 Y11.06 Z-0.59
N9100 X0.943 Y11.063 Z-0.595
N9105 X1.087 Y11.065 Z-0.6
N9110 X1.101
N9115 G02 X-1.101 Y-11.069 I-1.101 J-11.067
N9120 X0.739 Y11.095 I1.101 J11.067
N9125 G01 X1.101 Y11.065
N9130 X1.245 Y11.067 Z-0.605
N9135 X1.387 Z-0.61
N9140 X1.526 Y11.06 Z-0.615
N9145 X1.669 Y11.051 Z-0.62
N9150 X1.813 Y11.043 Z-0.625
N9155 X1.956 Y11.034 Z-0.63
N9160 X2.097 Y11.023 Z-0.635
N9165 X2.24 Y11.005 Z-0.64
N9170 X2.382 Y10.987 Z-0.645
N9175 X2.535 Y10.967 Z-0.65
N9180 G02 X-2.536 Y-10.97 I-2.535 J-10.968
N9185 X2.217 Y11.035 I2.535 J10.968
N9190 G01 X2.535 Y10.967
N9195 X2.677 Y10.948 Z-0.655
N9200 X2.814 Y10.925 Z-0.66
N9205 X2.954 Y10.898 Z-0.665
N9210 X3.095 Y10.869 Z-0.67
N9215 X3.236 Y10.841 Z-0.675
N9220 X3.377 Y10.812 Z-0.68
N9225 X3.514 Y10.779 Z-0.685
N9230 X3.653 Y10.742 Z-0.69
N9235 X3.791 Y10.704 Z-0.695
N9240 X3.938 Y10.664 Z-0.7
N9245 G02 X-3.939 Y-10.667 I-3.939 J-10.665
N9250 X3.499 Y10.816 I3.939 J10.665
N9255 G01 X3.938 Y10.664
N9260 X4.075 Y10.627 Z-0.705
N9265 X4.208 Y10.584 Z-0.71
N9270 X4.344 Y10.537 Z-0.715
N9275 X4.48 Y10.49 Z-0.72
N9280 X4.615 Y10.443 Z-0.725
N9285 X4.751 Y10.396 Z-0.73
N9290 X4.882 Y10.343 Z-0.735
N9295 X5.014 Y10.288 Z-0.74
N9300 X5.147 Y10.232 Z-0.745
N9305 X5.286 Y10.174 Z-0.75
N9310 G02 X-5.287 Y-10.176 I-5.287 J-10.175
N9315 X4.905 Y10.363 I5.287 J10.175
N9320 G01 X5.286 Y10.174
N9325 X5.415 Y10.119 Z-0.755
N9330 X5.543 Y10.057 Z-0.76
N9335 X5.671 Y9.993 Z-0.765
N9340 X5.8 Y9.929 Z-0.77
N9345 X5.928 Y9.864 Z-0.775
N9350 X6.056 Y9.8 Z-0.78
N9355 X6.179 Y9.73 Z-0.785
N9360 X6.303 Y9.657 Z-0.79
N9365 X6.427 Y9.585 Z-0.795
N9370 X6.557 Y9.509 Z-0.8
N9375 G02 X-6.558 Y-9.511 I-6.557 J-9.51
N9380 X6.114 Y9.8 I6.557 J9.51
N9385 G01 X6.557 Y9.509
N9390 X6.679 Y9.437 Z-0.805
N9395 X6.796 Y9.359 Z-0.81
N9400 X6.915 Y9.279 Z-0.815
N9405 X7.034 Y9.199 Z-0.82
N9410 X7.153 Y9.119 Z-0.825
N9415 X7.27 Y9.039 Z-0.83
N9420 X7.384 Y8.952 Z-0.835
N9425 X7.498 Y8.865 Z-0.84
N9430 X7.611 Y8.777 Z-0.845
N9435 X7.73 Y8.686 Z-0.85
N9440 G02 X-7.731 Y-8.687 I-7.731 J-8.687
N9445 X7.323 Y9.032 I7.731 J8.687
N9450 G01 X7.73 Y8.686
N9455 X7.84 Y8.6 Z-0.855
N9460 X7.949 Y8.506 Z-0.86
N9465 X8.056 Y8.411 Z-0.865
N9470 X8.164 Y8.317 Z-0.87
N9475 X8.271 Y8.222 Z-0.875
N9480 X8.379 Y8.127 Z-0.88
N9485 X8.479 Y8.028 Z-0.885
N9490 X8.581 Y7.926 Z-0.89
N9495 X8.682 Y7.825 Z-0.895
N9500 X8.788 Y7.72 Z-0.9
N9505 G02 X-8.789 Y-7.721 I-8.789 J-7.72
N9510 X8.536 Y7.997 I8.789 J7.72
N9515 G01 X8.788 Y7.72
N9520 X8.889 Y7.618 Z-0.905
N9525 X8.982 Y7.513 Z-0.91
N9530 X9.077 Y7.406 Z-0.915
N9535 X9.172 Y7.299 Z-0.92
N9540 X9.266 Y7.191 Z-0.925
N9545 X9.361 Y7.084 Z-0.93
N9550 X9.449 Y6.972 Z-0.935
N9555 X9.536 Y6.859 Z-0.94
N9560 X9.624 Y6.745 Z-0.945
N9565 X9.715 Y6.628 Z-0.95
N9570 G02 X-9.717 Y-6.629 I-9.716 J-6.628
N9575 X9.41 Y7.054 I9.716 J6.628
N9580 G01 X9.715 Y6.628
N9585 X9.803 Y6.515 Z-0.955
N9590 X9.883 Y6.399 Z-0.96
N9595 X9.963 Y6.281 Z-0.965
N9600 X10.043 Y6.162 Z-0.97
N9605 X10.124 Y6.043 Z-0.975
N9610 X10.204 Y5.925 Z-0.98
N9615 X10.278 Y5.803 Z-0.985
N9620 X10.351 Y5.68 Z-0.99
N9625 X10.424 Y5.556 Z-0.995
N9630 X10.499 Y5.429 Z-1.
N9635 G02 X-10.501 Y-5.43 I-10.5 J-5.429
N9640 X10.273 Y5.845 I10.5 J5.429
N9645 G01 X10.499 Y5.429
N9650 X10.571 Y5.305 Z-1.005
N9655 X10.637 Y5.181 Z-1.01
N9660 X10.702 Y5.053 Z-1.015
N9665 X10.767 Y4.926 Z-1.02
N9670 X10.832 Y4.798 Z-1.025
N9675 X10.897 Y4.67 Z-1.03
N9680 X10.956 Y4.541 Z-1.035
N9685 X11.013 Y4.409 Z-1.04
N9690 X11.069 Y4.278 Z-1.045
N9695 X11.126 Y4.146 Z-1.05
N9700 X11.128 Y4.142
N9705 G02 X-11.131 Y-4.143 I-11.129 J-4.142
N9710 X10.95 Y4.592 I11.129 J4.142
N9715 G01 X11.128 Y4.142
N9720 X11.184 Y4.01 Z-1.055
N9725 X11.236 Y3.879 Z-1.06
N9730 X11.284 Y3.744 Z-1.065
N9735 X11.332 Y3.609 Z-1.07
N9740 X11.381 Y3.474 Z-1.075
N9745 X11.429 Y3.34 Z-1.08
N9750 X11.473 Y3.204 Z-1.085
N9755 X11.513 Y3.067 Z-1.09
N9760 X11.553 Y2.929 Z-1.095
N9765 X11.592 Y2.791 Z-1.1
N9770 X11.594 Y2.787
N9775 G02 X-11.597 Y-2.788 I-11.596 J-2.787
N9780 X11.488 Y3.197 I11.596 J2.787
N9785 G01 X11.594 Y2.787
N9790 X11.633 Y2.649 Z-1.105
N9795 X11.67 Y2.512 Z-1.11
N9800 X11.701 Y2.373 Z-1.115
N9805 X11.732 Y2.233 Z-1.12
N9810 X11.763 Y2.093 Z-1.125
N9815 X11.794 Y1.953 Z-1.13
N9820 X11.823 Y1.813 Z-1.135
N9825 X11.846 Y1.673 Z-1.14
N9830 X11.868 Y1.531 Z-1.145
N9835 X11.89 Y1.39 Z-1.15
N9840 X11.891 Y1.385
N9845 G02 X-11.895 Y-1.385 I-11.893 J-1.385
N9850 X11.853 Y1.68 I11.893 J1.385
N9855 G01 X11.891 Y1.385
N9860 X11.913 Y1.243 Z-1.155
N9865 X11.934 Y1.103 Z-1.16
N9870 X11.948 Y0.961 Z-1.165
N9875 X11.961 Y0.818 Z-1.17
N9880 X11.974 Y0.676 Z-1.175
N9885 X11.987 Y0.533 Z-1.18
N9890 X12. Y0.391 Z-1.185
N9895 X12.006 Y0.248 Z-1.19
N9900 X12.01 Y0.105 Z-1.195
N9905 X12.015 Y-0.038 Z-1.2
N9910 Y-0.043
N9915 G02 X-12.019 Y0.043 I-12.017 J0.043
N9920 X12.013 Y0.202 I12.017 J-0.043
N9925 G01 X12.015 Y-0.043
N9930 X12.019 Y-0.186 Z-1.205
N9935 X12.023 Y-0.33 Z-1.21
N9940 X12.021 Y-0.471 Z-1.215
N9945 X12.017 Y-0.614 Z-1.22
N9950 X12.012 Y-0.757 Z-1.225
N9955 X12.007 Y-0.9 Z-1.23
N9960 X12.003 Y-1.043 Z-1.235
N9965 X11.993 Y-1.186 Z-1.24
N9970 X11.98 Y-1.328 Z-1.245
N9975 X11.966 Y-1.471 Z-1.25
N9980 Y-1.476
N9985 G02 X-11.97 Y1.477 I-11.968 J1.476
N9990 X11.989 Y-1.277 I11.968 J-1.476
N9995 G01 X11.966 Y-1.476
N10000 X11.952 Y-1.619 Z-1.255
N10005 X11.938 Y-1.761 Z-1.26
N10010 X11.922 Y-1.902 Z-1.265
N10015 X11.899 Y-2.043 Z-1.27
N10020 X11.877 Y-2.185 Z-1.275
N10025 X11.854 Y-2.326 Z-1.28
N10030 X11.832 Y-2.467 Z-1.285
N10035 X11.808 Y-2.609 Z-1.29
N10040 X11.777 Y-2.748 Z-1.295
N10045 X11.745 Y-2.888 Z-1.3
N10050 X11.744 Y-2.893
N10055 G02 X-11.748 Y2.894 I-11.746 J2.893
N10060 X11.777 Y-2.755 I11.746 J-2.893
N10065 G01 X11.744 Y-2.893
N10070 X11.713 Y-3.032 Z-1.305
N10075 X11.682 Y-3.172 Z-1.31
N10080 X11.65 Y-3.311 Z-1.315
N10085 X11.611 Y-3.448 Z-1.32
N10090 X11.571 Y-3.586 Z-1.325
N10095 X11.531 Y-3.723 Z-1.33
N10100 X11.491 Y-3.861 Z-1.335
N10105 X11.451 Y-3.998 Z-1.34
N10110 X11.405 Y-4.133 Z-1.345
N10115 X11.356 Y-4.268 Z-1.35
N10120 X11.355 Y-4.273
N10125 G02 X-11.358 Y4.274 I-11.356 J4.274
N10130 X11.419 Y-4.098 I11.356 J-4.274
N10135 G01 X11.355 Y-4.273
N10140 X11.306 Y-4.408 Z-1.355
N10145 X11.258 Y-4.542 Z-1.36
N10150 X11.209 Y-4.677 Z-1.365
N10155 X11.156 Y-4.809 Z-1.37
N10160 X11.1 Y-4.94 Z-1.375
N10165 X11.043 Y-5.072 Z-1.38
N10170 X10.986 Y-5.203 Z-1.385
N10175 X10.929 Y-5.335 Z-1.39
N10180 X10.87 Y-5.465 Z-1.395
N10185 X10.805 Y-5.593 Z-1.4
N10190 X10.803 Y-5.597
N10195 G02 X-10.805 Y5.598 I-10.804 J5.598
N10200 X10.818 Y-5.568 I10.804 J-5.598
N10205 G01 X10.803 Y-5.597
N10210 X10.673 Y-5.852 Z-1.41
N10215 X10.608 Y-5.98 Z-1.415
N10220 X10.543 Y-6.106 Z-1.42
N10225 X10.47 Y-6.23 Z-1.425
N10230 X10.398 Y-6.353 Z-1.43
N10235 X10.325 Y-6.476 Z-1.435
N10240 X10.252 Y-6.6 Z-1.44
N10245 X10.179 Y-6.723 Z-1.445
N10250 X10.1 Y-6.842 Z-1.45
N10255 X10.097 Y-6.846
N10260 G02 X-10.099 Y6.847 I-10.098 J6.847
N10265 X10.138 Y-6.786 I10.098 J-6.847
N10270 G01 X10.097 Y-6.846
N10275 X10.017 Y-6.965 Z-1.455
N10280 X9.857 Y-7.202 Z-1.465
N10285 X9.777 Y-7.321 Z-1.47
N10290 X9.692 Y-7.435 Z-1.475
N10295 X9.605 Y-7.549 Z-1.48
N10300 X9.43 Y-7.776 Z-1.49
N10305 X9.342 Y-7.889 Z-1.495
N10310 X9.252 Y-8. Z-1.5
N10315 X9.249 Y-8.004
N10320 G02 X-9.248 Y8.003 I-9.248 J8.004
N10325 X9.255 Y-7.996 I9.248 J-8.004
N10330 G01 X9.249 Y-8.004
N10335 X9.154 Y-8.112 Z-1.505
N10340 X8.966 Y-8.327 Z-1.515
N10345 X8.871 Y-8.435 Z-1.52
N10350 X8.776 Y-8.541 Z-1.525
N10355 X8.676 Y-8.643 Z-1.53
N10360 X8.474 Y-8.846 Z-1.54
N10365 X8.373 Y-8.947 Z-1.545
N10370 X8.272 Y-9.049 Z-1.55
N10375 X8.268 Y-9.052
N10380 G02 X-8.267 Y9.051 I-8.267 J9.052
N10385 X8.39 Y-8.939 I8.267 J-9.051
N10390 G01 X8.268 Y-9.052
N10395 X8.163 Y-9.147 Z-1.555
N10400 X7.949 Y-9.338 Z-1.565
N10405 X7.735 Y-9.528 Z-1.575
N10410 X7.625 Y-9.618 Z-1.58
N10415 X7.4 Y-9.795 Z-1.59
N10420 X7.174 Y-9.972 Z-1.6
N10425 X7.17 Y-9.975
N10430 G02 X-7.17 Y9.975 I-7.17 J9.975
N10435 X7.19 Y-9.96 I7.17 J-9.975
N10440 G01 X7.17 Y-9.975
N10445 X7.056 Y-10.06 Z-1.605
N10450 X6.821 Y-10.222 Z-1.615
N10455 X6.585 Y-10.384 Z-1.625
N10460 X6.466 Y-10.464 Z-1.63
N10465 X6.344 Y-10.538 Z-1.635
N10470 X6.098 Y-10.685 Z-1.645
N10475 X5.975 Y-10.759 Z-1.65
N10480 X5.971 Y-10.762
N10485 G02 X-5.972 Y10.764 I-5.972 J10.763
N10490 X6.383 Y-10.523 I5.972 J-10.763
N10495 G01 X5.971 Y-10.762
N10500 X5.848 Y-10.835 Z-1.655
N10505 X5.723 Y-10.902 Z-1.66
N10510 X5.469 Y-11.034 Z-1.67
N10515 X5.214 Y-11.165 Z-1.68
N10520 X5.086 Y-11.227 Z-1.685
N10525 X4.824 Y-11.343 Z-1.695
N10530 X4.693 Y-11.401 Z-1.7
N10535 X4.688 Y-11.403
N10540 G02 X-4.69 Y11.406 I-4.689 J11.404
N10545 X5.039 Y-11.252 I4.689 J-11.404
N10550 G01 X4.688 Y-11.403
N10555 X4.557 Y-11.46 Z-1.705
N10560 X4.426 Y-11.516 Z-1.71
N10565 X4.292 Y-11.566 Z-1.715
N10570 X4.023 Y-11.665 Z-1.725
N10575 X3.889 Y-11.714 Z-1.73
N10580 X3.755 Y-11.763 Z-1.735
N10585 X3.618 Y-11.806 Z-1.74
N10590 X3.344 Y-11.888 Z-1.75
N10595 X3.339 Y-11.889
N10600 G02 X-3.34 Y11.894 I-3.339 J11.891
N10605 X3.427 Y-11.864 I3.339 J-11.891
N10610 G01 X3.339 Y-11.889
N10615 X3.202 Y-11.93 Z-1.755
N10620 X3.065 Y-11.971 Z-1.76
N10625 X2.927 Y-12.007 Z-1.765
N10630 X2.648 Y-12.072 Z-1.775
N10635 X2.369 Y-12.137 Z-1.785
N10640 X2.229 Y-12.167 Z-1.79
N10645 X2.088 Y-12.191 Z-1.795
N10650 X1.947 Y-12.214 Z-1.8
N10655 X1.942 Y-12.215
N10660 G02 X-1.942 Y12.22 I-1.942 J12.217
N10665 X2.217 Y-12.168 I1.942 J-12.217
N10670 G01 X1.942 Y-12.215
N10675 X1.659 Y-12.263 Z-1.81
N10680 X1.519 Y-12.286 Z-1.815
N10685 X1.376 Y-12.301 Z-1.82
N10690 X1.092 Y-12.331 Z-1.83
N10695 X0.949 Y-12.346 Z-1.835
N10700 X0.807 Y-12.361 Z-1.84
N10705 X0.664 Y-12.37 Z-1.845
N10710 X0.521 Y-12.376 Z-1.85
N10715 X0.516
N10720 G02 X-0.516 Y12.38 I-0.516 J12.378
N10725 X0.605 Y-12.372 I0.516 J-12.378
N10730 G01 X0.516 Y-12.376
N10735 X0.23 Y-12.389 Z-1.86
N10740 X0.087 Y-12.395 Z-1.865
N10745 X-0.056 Y-12.397 Z-1.87
N10750 X-0.199 Y-12.395 Z-1.875
N10755 X-0.485 Y-12.389 Z-1.885
N10760 X-0.628 Y-12.386 Z-1.89
N10765 X-0.771 Y-12.382 Z-1.895
N10770 X-0.914 Y-12.371 Z-1.9
N10775 X-0.919
N10780 G02 X0.919 Y12.373 I0.919 J12.372
N10785 X-0.873 Y-12.374 I-0.919 J-12.372
N10790 G01 X-0.919 Y-12.371
N10795 X-1.205 Y-12.348 Z-1.91
N10800 X-1.347 Y-12.336 Z-1.915
N10805 X-1.49 Y-12.324 Z-1.92
N10810 X-1.631 Y-12.306 Z-1.925
N10815 X-1.915 Y-12.265 Z-1.935
N10820 X-2.198 Y-12.224 Z-1.945
N10825 X-2.269 Y-12.213 Z-1.947
N10830 X-2.339 Y-12.2 Z-1.95
N10835 X-2.344 Y-12.199
N10840 G02 X2.344 Y12.198 I2.344 J12.198
N10845 X-2.217 Y-12.222 I-2.344 J-12.198
N10850 G01 X-2.344 Y-12.199
N10855 X-2.484 Y-12.17 Z-1.955
N10860 X-2.764 Y-12.111 Z-1.965
N10865 X-2.905 Y-12.082 Z-1.97
N10870 X-3.044 Y-12.051 Z-1.975
N10875 X-3.182 Y-12.014 Z-1.98
N10880 X-3.458 Y-11.938 Z-1.99
N10885 X-3.717 Y-11.867 Z-1.999
N10890 X-3.726 Y-11.865 Z-2.
N10895 X-3.735 Y-11.862
N10900 X-3.739 Y-11.86
N10905 G02 X3.739 Y11.86 I3.739 J11.86
N10910 X-3.696 Y-11.873 I-3.739 J-11.86
N10915 G01 X-3.739 Y-11.86
N10920 X-3.875 Y-11.817 Z-2.005
N10925 X-4.146 Y-11.724 Z-2.015
N10930 X-4.417 Y-11.631 Z-2.025
N10935 X-4.551 Y-11.581 Z-2.03
N10940 X-4.815 Y-11.472 Z-2.04
N10945 X-5.08 Y-11.362 Z-2.05
N10950 X-5.085 Y-11.36
N10955 G02 X5.085 Y11.361 I5.085 J11.361
N10960 X-4.637 Y-11.55 I-5.085 J-11.361
N10965 G01 X-5.085 Y-11.36
N10970 X-5.216 Y-11.304 Z-2.055
N10975 X-5.345 Y-11.242 Z-2.06
N10980 X-5.602 Y-11.117 Z-2.07
N10985 X-5.731 Y-11.054 Z-2.075
N10990 X-5.859 Y-10.991 Z-2.08
N10995 X-5.985 Y-10.922 Z-2.085
N11000 X-6.234 Y-10.781 Z-2.095
N11005 X-6.358 Y-10.71 Z-2.1
N11010 X-6.363 Y-10.708
N11015 G02 X6.364 Y10.711 I6.364 J10.709
N11020 X-5.979 Y-10.927 I-6.364 J-10.709
N11025 G01 X-6.363 Y-10.708
N11030 X-6.487 Y-10.637 Z-2.105
N11035 X-6.61 Y-10.563 Z-2.11
N11040 X-6.849 Y-10.407 Z-2.12
N11045 X-7.089 Y-10.25 Z-2.13
N11050 X-7.208 Y-10.171 Z-2.135
N11055 X-7.323 Y-10.086 Z-2.14
N11060 X-7.553 Y-9.915 Z-2.15
N11065 X-7.557 Y-9.912
N11070 G02 X7.56 Y9.916 I7.558 J9.914
N11075 X-7.323 Y-10.086 I-7.558 J-9.914
N11080 G01 X-7.557 Y-9.912
N11085 X-7.672 Y-9.826 Z-2.155
N11090 X-7.787 Y-9.741 Z-2.16
N11095 X-7.897 Y-9.651 Z-2.165
N11100 X-8.116 Y-9.466 Z-2.175
N11105 X-8.334 Y-9.28 Z-2.185
N11110 X-8.441 Y-9.186 Z-2.19
N11115 X-8.545 Y-9.087 Z-2.195
N11120 X-8.648 Y-8.987 Z-2.2
N11125 X-8.652 Y-8.984
N11130 G02 X8.655 Y8.987 I8.653 J8.986
N11135 X-8.533 Y-9.097 I-8.653 J-8.986
N11140 G01 X-8.652 Y-8.984
N11145 X-8.858 Y-8.786 Z-2.21
N11150 X-8.961 Y-8.686 Z-2.215
N11155 X-9.058 Y-8.581 Z-2.22
N11160 X-9.252 Y-8.371 Z-2.23
N11165 X-9.349 Y-8.265 Z-2.235
N11170 X-9.446 Y-8.16 Z-2.24
N11175 X-9.539 Y-8.051 Z-2.245
N11180 X-9.629 Y-7.94 Z-2.25
N11185 X-9.632 Y-7.936
N11190 G02 X9.635 Y7.938 I9.634 J7.937
N11195 X-9.583 Y-7.996 I-9.634 J-7.937
N11200 G01 X-9.632 Y-7.936
N11205 X-9.813 Y-7.713 Z-2.26
N11210 X-9.903 Y-7.602 Z-2.265
N11215 X-9.991 Y-7.489 Z-2.27
N11220 X-10.074 Y-7.373 Z-2.275
N11225 X-10.24 Y-7.14 Z-2.285
N11230 X-10.324 Y-7.023 Z-2.29
N11235 X-10.406 Y-6.906 Z-2.295
N11240 X-10.483 Y-6.786 Z-2.3
N11245 X-10.486 Y-6.781
N11250 G02 X10.487 Y6.782 I10.486 J6.782
N11255 X-10.482 Y-6.787 I-10.486 J-6.782
N11260 G01 X-10.486 Y-6.781
N11265 X-10.637 Y-6.538 Z-2.31
N11270 X-10.789 Y-6.295 Z-2.32
N11275 X-10.86 Y-6.171 Z-2.325
N11280 X-10.996 Y-5.919 Z-2.335
N11285 X-11.132 Y-5.668 Z-2.345
N11290 X-11.166 Y-5.604 Z-2.347
N11295 X-11.183 Y-5.573 Z-2.349
N11300 X-11.191 Y-5.557
N11305 X-11.195 Y-5.549 Z-2.35
N11310 X-11.198 Y-5.541
N11315 X-11.2 Y-5.536
N11320 G02 X11.199 Y5.535 I11.2 J5.536
N11325 X-11.18 Y-5.577 I-11.2 J-5.536
N11330 G01 X-11.2 Y-5.536
N11335 X-11.261 Y-5.406 Z-2.355
N11340 X-11.381 Y-5.146 Z-2.365
N11345 X-11.441 Y-5.016 Z-2.37
N11350 X-11.501 Y-4.886 Z-2.375
N11355 X-11.555 Y-4.753 Z-2.38
N11360 X-11.658 Y-4.487 Z-2.39
N11365 X-11.762 Y-4.22 Z-2.4
N11370 X-11.764 Y-4.215
N11375 G02 X11.764 Y4.215 I11.764 J4.215
N11380 X-11.759 Y-4.228 I-11.764 J-4.215
N11385 G01 X-11.764 Y-4.215
N11390 X-11.812 Y-4.08 Z-2.405
N11395 X-11.899 Y-3.807 Z-2.415
N11400 X-11.986 Y-3.535 Z-2.425
N11405 X-12.028 Y-3.398 Z-2.43
N11410 X-12.063 Y-3.259 Z-2.435
N11415 X-12.169 Y-2.843 Z-2.45
N11420 X-12.17 Y-2.838
N11425 G02 X12.172 Y2.838 I12.171 J2.838
N11430 X-12.055 Y-3.292 I-12.171 J-2.838
N11435 G01 X-12.17 Y-2.838
N11440 X-12.205 Y-2.699 Z-2.455
N11445 X-12.233 Y-2.559 Z-2.46
N11450 X-12.312 Y-2.136 Z-2.475
N11455 X-12.339 Y-1.996 Z-2.48
N11460 X-12.361 Y-1.854 Z-2.485
N11465 X-12.379 Y-1.712 Z-2.49
N11470 X-12.415 Y-1.428 Z-2.5
N11475 Y-1.423
N11480 G02 X12.419 Y1.424 I12.417 J1.423
N11485 X-12.364 Y-1.814 I-12.417 J-1.423
N11490 G01 X-12.415 Y-1.423
N11495 X-12.433 Y-1.281 Z-2.505
N11500 X-12.449 Y-1.139 Z-2.51
N11505 X-12.459 Y-0.996 Z-2.515
N11510 X-12.486 Y-0.567 Z-2.53
N11515 X-12.494 Y-0.424 Z-2.535
N11520 X-12.497 Y-0.281 Z-2.54
N11525 X-12.498 Y0.005 Z-2.55
N11530 Y0.01
N11535 G02 X12.502 Y-0.01 I12.5 J-0.01
N11540 X-12.496 Y-0.202 I-12.5 J0.01
N11545 G01 X-12.498 Y0.01
N11550 Y0.153 Z-2.555
N11555 Y0.296 Z-2.56
N11560 X-12.495 Y0.44 Z-2.565
N11565 X-12.486 Y0.582 Z-2.57
N11570 X-12.469 Y0.868 Z-2.58
N11575 X-12.46 Y1.011 Z-2.585
N11580 X-12.45 Y1.154 Z-2.59
N11585 X-12.434 Y1.296 Z-2.595
N11590 X-12.417 Y1.438 Z-2.6
N11595 X-12.416 Y1.443
N11600 G02 X12.419 Y-1.444 I12.418 J-1.444
N11605 X-12.435 Y1.276 I-12.418 J1.444
N11610 G01 X-12.416 Y1.443
N11615 X-12.382 Y1.728 Z-2.61
N11620 X-12.363 Y1.87 Z-2.615
N11625 X-12.341 Y2.011 Z-2.62
N11630 X-12.315 Y2.152 Z-2.625
N11635 X-12.263 Y2.433 Z-2.635
N11640 X-12.236 Y2.574 Z-2.64
N11645 X-12.206 Y2.714 Z-2.645
N11650 X-12.173 Y2.853 Z-2.65
N11655 X-12.172 Y2.858
N11660 G02 X12.173 Y-2.858 I12.172 J-2.858
N11665 X-12.196 Y2.755 I-12.172 J2.858
N11670 G01 X-12.172 Y2.858
N11675 X-12.137 Y2.997 Z-2.655
N11680 X-12.103 Y3.136 Z-2.66
N11685 X-12.068 Y3.275 Z-2.665
N11690 X-12.031 Y3.413 Z-2.67
N11695 X-11.989 Y3.55 Z-2.675
N11700 X-11.903 Y3.823 Z-2.685
N11705 X-11.86 Y3.96 Z-2.69
N11710 X-11.816 Y4.096 Z-2.695
N11715 X-11.769 Y4.231 Z-2.7
N11720 X-11.767 Y4.236
N11725 G02 X11.765 Y-4.235 I11.766 J-4.236
N11730 X-11.768 Y4.233 I-11.766 J4.236
N11735 G01 X-11.767 Y4.236
N11740 X-11.715 Y4.37 Z-2.705
N11745 X-11.664 Y4.503 Z-2.71
N11750 X-11.612 Y4.637 Z-2.715
N11755 X-11.561 Y4.77 Z-2.72
N11760 X-11.506 Y4.902 Z-2.725
N11765 X-11.448 Y5.033 Z-2.73
N11770 X-11.329 Y5.294 Z-2.74
N11775 X-11.269 Y5.424 Z-2.745
N11780 X-11.207 Y5.553 Z-2.75
N11785 X-11.205 Y5.558
N11790 G02 X11.204 Y-5.557 I11.204 J-5.557
N11795 X-11.221 Y5.524 I-11.204 J5.557
N11800 G01 X-11.205 Y5.558
N11805 X-11.141 Y5.685 Z-2.755
N11810 X-11.073 Y5.812 Z-2.76
N11815 X-11.006 Y5.938 Z-2.765
N11820 X-10.938 Y6.064 Z-2.77
N11825 X-10.869 Y6.19 Z-2.775
N11830 X-10.798 Y6.314 Z-2.78
N11835 X-10.724 Y6.437 Z-2.785
N11840 X-10.574 Y6.68 Z-2.795
N11845 X-10.497 Y6.801 Z-2.8
N11850 X-10.495 Y6.806
N11855 G02 X10.494 Y-6.805 I10.495 J-6.805
N11860 X-10.507 Y6.787 I-10.495 J6.805
N11865 G01 X-10.495 Y6.806
N11870 X-10.417 Y6.926 Z-2.805
N11875 X-10.335 Y7.043 Z-2.81
N11880 X-10.252 Y7.16 Z-2.815
N11885 X-10.171 Y7.278 Z-2.82
N11890 X-10.089 Y7.395 Z-2.825
N11895 X-10.004 Y7.51 Z-2.83
N11900 X-9.918 Y7.625 Z-2.835
N11905 X-9.828 Y7.736 Z-2.84
N11910 X-9.738 Y7.848 Z-2.845
N11915 X-9.65 Y7.96 Z-2.85
N11920 X-9.646 Y7.964
N11925 G02 X9.647 Y-7.964 I9.646 J-7.964
N11930 X-9.729 Y7.863 I-9.646 J7.964
N11935 G01 X-9.646 Y7.964
N11940 X-9.555 Y8.075 Z-2.855
N11945 X-9.463 Y8.184 Z-2.86
N11950 X-9.368 Y8.291 Z-2.865
N11955 X-9.271 Y8.397 Z-2.87
N11960 X-9.175 Y8.503 Z-2.875
N11965 X-9.079 Y8.609 Z-2.88
N11970 X-8.979 Y8.712 Z-2.885
N11975 X-8.88 Y8.814 Z-2.89
N11980 X-8.777 Y8.915 Z-2.895
N11985 X-8.675 Y9.014 Z-2.9
N11990 X-8.671 Y9.018
N11995 G02 X8.672 Y-9.018 I8.671 J-9.018
N12000 X-8.754 Y8.937 I-8.671 J9.018
N12005 G01 X-8.671 Y9.018
N12010 X-8.568 Y9.117 Z-2.905
N12015 X-8.464 Y9.215 Z-2.91
N12020 X-8.357 Y9.311 Z-2.915
N12025 X-8.251 Y9.406 Z-2.92
N12030 X-8.142 Y9.5 Z-2.925
N12035 X-8.033 Y9.592 Z-2.93
N12040 X-7.923 Y9.684 Z-2.935
N12045 X-7.812 Y9.775 Z-2.94
N12050 X-7.699 Y9.863 Z-2.945
N12055 X-7.586 Y9.951 Z-2.95
N12060 X-7.582 Y9.954
N12065 G02 X7.582 Y-9.954 I7.582 J-9.954
N12070 X-7.593 Y9.945 I-7.582 J9.954
N12075 G01 X-7.582 Y9.954
N12080 X-7.468 Y10.04 Z-2.955
N12085 X-7.352 Y10.125 Z-2.96
N12090 X-7.237 Y10.209 Z-2.965
N12095 X-7.119 Y10.29 Z-2.97
N12100 X-7. Y10.37 Z-2.975
N12105 X-6.881 Y10.45 Z-2.98
N12110 X-6.762 Y10.53 Z-2.985
N12115 X-6.52 Y10.682 Z-2.995
N12120 X-6.397 Y10.755 Z-3.
N12125 X-6.392 Y10.758
N12130 G02 X6.393 Y-10.758 I6.393 J-10.758
N12135 X-6.516 Y10.683 I-6.393 J10.758
N12140 G01 X-6.392 Y10.758
N12145 X-6.269 Y10.83 Z-3.005
N12150 X-6.145 Y10.902 Z-3.01
N12155 X-6.02 Y10.972 Z-3.015
N12160 X-5.894 Y11.04 Z-3.02
N12165 X-5.768 Y11.107 Z-3.025
N12170 X-5.64 Y11.172 Z-3.03
N12175 X-5.383 Y11.299 Z-3.04
N12180 X-5.254 Y11.359 Z-3.045
N12185 X-5.123 Y11.419 Z-3.05
N12190 X-5.119 Y11.421
N12195 G02 X5.119 Y-11.421 I5.119 J-11.421
N12200 X-5.308 Y11.334 I-5.119 J11.421
N12205 G01 X-5.119 Y11.421
N12210 X-4.988 Y11.479 Z-3.055
N12215 X-4.856 Y11.535 Z-3.06
N12220 X-4.592 Y11.644 Z-3.07
N12225 X-4.458 Y11.695 Z-3.075
N12230 X-4.324 Y11.746 Z-3.08
N12235 X-4.19 Y11.796 Z-3.085
N12240 X-4.055 Y11.843 Z-3.09
N12245 X-3.8 Y11.929 Z-3.099
N12250 X-3.792 Y11.931 Z-3.1
N12255 X-3.783 Y11.934
N12260 X-3.778 Y11.935
N12265 G02 X3.778 Y-11.935 I3.778 J-11.935
N12270 X-3.83 Y11.918 I-3.778 J11.935
N12275 G01 X-3.778 Y11.935
N12280 X-3.642 Y11.977 Z-3.105
N12285 X-3.504 Y12.019 Z-3.11
N12290 X-3.367 Y12.06 Z-3.115
N12295 X-3.229 Y12.097 Z-3.12
N12300 X-3.09 Y12.133 Z-3.125
N12305 X-2.952 Y12.169 Z-3.13
N12310 X-2.812 Y12.201 Z-3.135
N12315 X-2.673 Y12.233 Z-3.14
N12320 X-2.533 Y12.265 Z-3.145
N12325 X-2.393 Y12.292 Z-3.15
N12330 X-2.388 Y12.293
N12335 G02 X2.388 Y-12.294 I2.388 J-12.293
N12340 X-2.486 Y12.273 I-2.388 J12.293
N12345 G01 X-2.388 Y12.293
N12350 X-2.247 Y12.32 Z-3.155
N12355 X-2.106 Y12.346 Z-3.16
N12360 X-1.965 Y12.369 Z-3.165
N12365 X-1.824 Y12.391 Z-3.17
N12370 X-1.682 Y12.413 Z-3.175
N12375 X-1.54 Y12.43 Z-3.18
N12380 X-1.398 Y12.447 Z-3.185
N12385 X-1.256 Y12.464 Z-3.19
N12390 X-1.113 Y12.477 Z-3.195
N12395 X-0.971 Y12.489 Z-3.2
N12400 X-0.966 Y12.49
N12405 G02 X0.966 Y-12.49 I0.966 J-12.49
N12410 X-1.008 Y12.486 I-0.966 J12.49
N12415 G01 X-0.966 Y12.49
N12420 X-0.823 Y12.501 Z-3.205
N12425 X-0.537 Y12.517 Z-3.215
N12430 X-0.394 Y12.524 Z-3.22
N12435 X-0.108 Y12.529 Z-3.23
N12440 X0.035 Y12.531 Z-3.235
N12445 X0.322 Y12.527 Z-3.245
N12450 X0.465 Y12.524 Z-3.25
N12455 X0.47 Y12.523
N12460 G02 X-0.47 Y-12.523 I-0.47 J-12.523
N12465 X0.336 Y12.528 I0.47 J12.523
N12470 G01 X0.47 Y12.523
N12475 X0.756 Y12.51 Z-3.26
N12480 X0.899 Y12.501 Z-3.265
N12485 X1.184 Y12.478 Z-3.275
N12490 X1.326 Y12.464 Z-3.28
N12495 X1.611 Y12.431 Z-3.29
N12500 X1.753 Y12.413 Z-3.295
N12505 X1.894 Y12.391 Z-3.3
N12510 X1.899
N12515 G02 X-1.9 Y-12.392 I-1.899 J-12.391
N12520 X1.814 Y12.403 I1.899 J12.391
N12525 G01 X1.899 Y12.391
N12530 X2.041 Y12.369 Z-3.305
N12535 X2.182 Y12.346 Z-3.31
N12540 X2.464 Y12.293 Z-3.32
N12545 X2.604 Y12.265 Z-3.325
N12550 X2.883 Y12.203 Z-3.335
N12555 X3.023 Y12.17 Z-3.34
N12560 X3.3 Y12.098 Z-3.35
N12565 X3.305 Y12.097
N12570 G02 X-3.305 Y-12.097 I-3.305 J-12.097
N12575 X3.293 Y12.1 I3.305 J12.097
N12580 G01 X3.305 Y12.097
N12585 X3.443 Y12.059 Z-3.355
N12590 X3.717 Y11.978 Z-3.365
N12595 X3.854 Y11.935 Z-3.37
N12600 X4.126 Y11.845 Z-3.38
N12605 X4.261 Y11.797 Z-3.385
N12610 X4.529 Y11.698 Z-3.395
N12615 X4.663 Y11.646 Z-3.4
N12620 X4.667 Y11.644
N12625 G02 X-4.667 Y-11.644 I-4.667 J-11.644
N12630 X4.636 Y11.656 I4.667 J11.644
N12635 G01 X4.667 Y11.644
N12640 X4.932 Y11.536 Z-3.41
N12645 X5.063 Y11.478 Z-3.415
N12650 X5.325 Y11.361 Z-3.425
N12655 X5.454 Y11.3 Z-3.43
N12660 X5.711 Y11.174 Z-3.44
N12665 X5.838 Y11.107 Z-3.445
N12670 X5.964 Y11.04 Z-3.45
N12675 X5.969 Y11.038
N12680 G02 X-5.969 Y-11.039 I-5.969 J-11.038
N12685 X5.846 Y11.103 I5.969 J11.038
N12690 G01 X5.969 Y11.038
N12695 X6.095 Y10.97 Z-3.455
N12700 X6.22 Y10.9 Z-3.46
N12705 X6.468 Y10.757 Z-3.47
N12710 X6.589 Y10.682 Z-3.475
N12715 X6.711 Y10.606 Z-3.48
N12720 X6.832 Y10.53 Z-3.485
N12725 X6.952 Y10.451 Z-3.49
N12730 X7.071 Y10.371 Z-3.495
N12735 X7.189 Y10.291 Z-3.5
N12740 X7.194 Y10.289
N12745 G02 X-7.193 Y-10.288 I-7.193 J-10.288
N12750 X7.19 Y10.291 I7.193 J10.288
N12755 G01 X7.194 Y10.289
N12760 X7.31 Y10.205 Z-3.505
N12765 X7.426 Y10.121 Z-3.51
N12770 X7.542 Y10.038 Z-3.515
N12775 X7.655 Y9.95 Z-3.52
N12780 X7.769 Y9.863 Z-3.525
N12785 X7.882 Y9.775 Z-3.53
N12790 X7.992 Y9.684 Z-3.535
N12795 X8.102 Y9.592 Z-3.54
N12800 X8.212 Y9.5 Z-3.545
N12805 X8.319 Y9.406 Z-3.55
N12810 X8.323 Y9.402
N12815 G02 X-8.324 Y-9.403 I-8.323 J-9.403
N12820 X8.242 Y9.474 I8.323 J9.403
N12825 G01 X8.323 Y9.402
N12830 X8.43 Y9.307 Z-3.555
N12835 X8.537 Y9.212 Z-3.56
N12840 X8.641 Y9.113 Z-3.565
N12845 X8.744 Y9.014 Z-3.57
N12850 X8.848 Y8.915 Z-3.575
N12855 X8.948 Y8.813 Z-3.58
N12860 X9.048 Y8.711 Z-3.585
N12865 X9.148 Y8.609 Z-3.59
N12870 X9.245 Y8.503 Z-3.595
N12875 X9.342 Y8.398 Z-3.6
N12880 X9.345 Y8.394
N12885 G02 X-9.346 Y-8.394 I-9.345 J-8.394
N12890 X9.34 Y8.399 I9.345 J8.394
N12895 G01 X9.345 Y8.394
N12900 X9.441 Y8.288 Z-3.605
N12905 X9.534 Y8.179 Z-3.61
N12910 X9.628 Y8.07 Z-3.615
N12915 X9.72 Y7.961 Z-3.62
N12920 X9.809 Y7.849 Z-3.625
N12925 X9.899 Y7.737 Z-3.63
N12930 X9.987 Y7.625 Z-3.635
N12935 X10.073 Y7.51 Z-3.64
N12940 X10.202 Y7.338 Z-3.647
N12945 X10.223 Y7.309 Z-3.649
N12950 X10.233 Y7.295
N12955 X10.239 Y7.288 Z-3.65
N12960 X10.244 Y7.28
N12965 X10.246 Y7.276
N12970 G02 X-10.246 Y-7.276 I-10.246 J-7.276
N12975 X10.212 Y7.324 I10.246 J7.276
N12980 G01 X10.246 Y7.276
N12985 X10.328 Y7.159 Z-3.655
N12990 X10.41 Y7.041 Z-3.66
N12995 X10.491 Y6.923 Z-3.665
N13000 X10.646 Y6.683 Z-3.675
N13005 X10.723 Y6.562 Z-3.68
N13010 X10.87 Y6.316 Z-3.69
N13015 X10.943 Y6.193 Z-3.695
N13020 X11.012 Y6.068 Z-3.7
N13025 X11.015 Y6.063
N13030 G02 X-11.015 Y-6.064 I-11.015 J-6.064
N13035 X10.952 Y6.175 I11.015 J6.064
N13040 G01 X11.015 Y6.063
N13045 X11.084 Y5.938 Z-3.705
N13050 X11.152 Y5.812 Z-3.71
N13055 X11.282 Y5.557 Z-3.72
N13060 X11.346 Y5.429 Z-3.725
N13065 X11.467 Y5.17 Z-3.735
N13070 X11.526 Y5.039 Z-3.74
N13075 X11.639 Y4.776 Z-3.75
N13080 X11.641 Y4.772
N13085 G02 X-11.641 Y-4.772 I-11.641 J-4.772
N13090 X11.528 Y5.04 I11.641 J4.772
N13095 G01 X11.641 Y4.772
N13100 X11.695 Y4.639 Z-3.755
N13105 X11.799 Y4.372 Z-3.765
N13110 X11.849 Y4.238 Z-3.77
N13115 X11.943 Y3.968 Z-3.78
N13120 X11.989 Y3.832 Z-3.785
N13125 X12.074 Y3.559 Z-3.795
N13130 X12.114 Y3.422 Z-3.8
N13135 X12.116 Y3.417
N13140 G02 X-12.116 Y-3.417 I-12.116 J-3.417
N13145 X12.113 Y3.427 I12.116 J3.417
N13150 G01 X12.116 Y3.417
N13155 X12.192 Y3.141 Z-3.81
N13160 X12.227 Y3.002 Z-3.815
N13165 X12.294 Y2.724 Z-3.825
N13170 X12.325 Y2.584 Z-3.83
N13175 X12.382 Y2.303 Z-3.84
N13180 X12.408 Y2.163 Z-3.845
N13185 X12.431 Y2.021 Z-3.85
N13190 X12.432 Y2.016
N13195 G02 X-12.433 Y-2.017 I-12.433 J-2.016
N13200 X12.421 Y2.083 I12.433 J2.016
N13205 G01 X12.432 Y2.016
N13210 X12.456 Y1.875 Z-3.855
N13215 X12.477 Y1.734 Z-3.86
N13220 X12.515 Y1.45 Z-3.87
N13225 X12.531 Y1.308 Z-3.875
N13230 X12.559 Y1.023 Z-3.885
N13235 X12.57 Y0.88 Z-3.89
N13240 X12.589 Y0.594 Z-3.9
N13245 Y0.589
N13250 G02 X-12.589 Y-0.589 I-12.589 J-0.589
N13255 X12.588 Y0.605 I12.589 J0.589
N13260 G01 X12.589 Y0.589
N13265 X12.595 Y0.446 Z-3.905
N13270 X12.604 Y0.16 Z-3.915
N13275 X12.605 Y0.017 Z-3.92
N13280 X12.604 Y-0.269 Z-3.93
N13285 X12.601 Y-0.412 Z-3.935
N13290 X12.59 Y-0.698 Z-3.945
N13295 X12.582 Y-0.841 Z-3.95
N13300 X12.581 Y-0.846
N13305 G02 X-12.582 Y0.846 I-12.581 J0.846
N13310 X12.588 Y-0.739 I12.581 J-0.846
N13315 G01 X12.581 Y-0.846
N13320 X12.571 Y-0.989 Z-3.955
N13325 X12.561 Y-1.132 Z-3.96
N13330 X12.547 Y-1.274 Z-3.965
N13335 X12.517 Y-1.559 Z-3.975
N13340 X12.499 Y-1.701 Z-3.98
N13345 X12.459 Y-1.984 Z-3.99
N13350 X12.436 Y-2.126 Z-3.995
N13355 X12.411 Y-2.267 Z-4.
N13360 X12.41 Y-2.272
N13365 G02 X-12.411 Y2.272 I-12.411 J2.272
N13370 X12.443 Y-2.083 I12.411 J-2.272
N13375 G01 X12.41 Y-2.272
N13380 X12.385 Y-2.413 Z-4.005
N13385 X12.357 Y-2.553 Z-4.01
N13390 X12.298 Y-2.833 Z-4.02
N13395 X12.265 Y-2.972 Z-4.025
N13400 X12.197 Y-3.25 Z-4.035
N13405 X12.159 Y-3.388 Z-4.04
N13410 X12.081 Y-3.664 Z-4.05
N13415 X12.08 Y-3.669
N13420 G02 X-12.079 Y3.669 I-12.08 J3.669
N13425 X12.112 Y-3.562 I12.08 J-3.669
N13430 G01 X12.08 Y-3.669
N13435 X12.037 Y-3.805 Z-4.055
N13440 X11.95 Y-4.078 Z-4.065
N13445 X11.903 Y-4.213 Z-4.07
N13450 X11.807 Y-4.483 Z-4.08
N13455 X11.755 Y-4.616 Z-4.085
N13460 X11.65 Y-4.882 Z-4.095
N13465 X11.593 Y-5.014 Z-4.1
N13470 X11.591 Y-5.019
N13475 G02 X-11.592 Y5.019 I-11.591 J5.019
N13480 X11.624 Y-4.942 I11.591 J-5.019
N13485 G01 X11.591 Y-5.019
N13490 X11.534 Y-5.15 Z-4.105
N13495 X11.477 Y-5.281 Z-4.11
N13500 X11.416 Y-5.41 Z-4.115
N13505 X11.354 Y-5.54 Z-4.12
N13510 X11.293 Y-5.669 Z-4.125
N13515 X11.227 Y-5.796 Z-4.13
N13520 X11.161 Y-5.923 Z-4.135
N13525 X11.095 Y-6.05 Z-4.14
N13530 X11.026 Y-6.175 Z-4.145
N13535 X10.956 Y-6.3 Z-4.15
N13540 X10.953 Y-6.305
N13545 G02 X-10.954 Y6.305 I-10.953 J6.305
N13550 X11.06 Y-6.114 I10.953 J-6.305
N13555 G01 X10.953 Y-6.305
N13560 X10.883 Y-6.429 Z-4.155
N13565 X10.809 Y-6.552 Z-4.16
N13570 X10.734 Y-6.674 Z-4.165
N13575 X10.66 Y-6.796 Z-4.17
N13580 X10.582 Y-6.916 Z-4.175
N13585 X10.503 Y-7.036 Z-4.18
N13590 X10.425 Y-7.156 Z-4.185
N13595 X10.343 Y-7.273 Z-4.19
N13600 X10.188 Y-7.492 Z-4.199
N13605 X10.183 Y-7.499 Z-4.2
N13610 X10.178 Y-7.507
N13615 X10.174 Y-7.51
N13620 G02 X-10.174 Y7.51 I-10.174 J7.51
N13625 X10.212 Y-7.459 I10.174 J-7.51
N13630 G01 X10.174 Y-7.51
N13635 X10.089 Y-7.625 Z-4.205
N13640 X10.002 Y-7.739 Z-4.21
N13645 X9.916 Y-7.853 Z-4.215
N13650 X9.826 Y-7.965 Z-4.22
N13655 X9.736 Y-8.076 Z-4.225
N13660 X9.646 Y-8.187 Z-4.23
N13665 X9.553 Y-8.296 Z-4.235
N13670 X9.459 Y-8.404 Z-4.24
N13675 X9.365 Y-8.512 Z-4.245
N13680 X9.268 Y-8.617 Z-4.25
N13685 X9.264 Y-8.621
N13690 G02 X-9.265 Y8.621 I-9.265 J8.621
N13695 X9.339 Y-8.54 I9.265 J-8.621
N13700 G01 X9.264 Y-8.621
N13705 X9.167 Y-8.726 Z-4.255
N13710 X9.069 Y-8.831 Z-4.26
N13715 X8.969 Y-8.932 Z-4.265
N13720 X8.868 Y-9.034 Z-4.27
N13725 X8.767 Y-9.135 Z-4.275
N13730 X8.663 Y-9.233 Z-4.28
N13735 X8.559 Y-9.331 Z-4.285
N13740 X8.454 Y-9.429 Z-4.29
N13745 X8.347 Y-9.524 Z-4.295
N13750 X8.239 Y-9.619 Z-4.3
N13755 X8.236 Y-9.622
N13760 G02 X-8.236 Y9.623 I-8.236 J9.622
N13765 X8.251 Y-9.609 I8.236 J-9.622
N13770 G01 X8.236 Y-9.622
N13775 X8.128 Y-9.716 Z-4.305
N13780 X8.018 Y-9.807 Z-4.31
N13785 X7.907 Y-9.898 Z-4.315
N13790 X7.796 Y-9.988 Z-4.32
N13795 X7.682 Y-10.075 Z-4.325
N13800 X7.569 Y-10.162 Z-4.33
N13805 X7.455 Y-10.249 Z-4.335
N13810 X7.338 Y-10.332 Z-4.34
N13815 X7.12 Y-10.488 Z-4.349
N13820 X7.112 Y-10.493 Z-4.35
N13825 X7.105 Y-10.498
N13830 X7.1 Y-10.5
N13835 G02 X-7.101 Y10.501 I-7.1 J10.501
N13840 X7.19 Y-10.439 I7.1 J-10.501
N13845 G01 X7.1 Y-10.5
N13850 X6.982 Y-10.58 Z-4.355
N13855 X6.862 Y-10.659 Z-4.36
N13860 X6.743 Y-10.738 Z-4.365
N13865 X6.621 Y-10.813 Z-4.37
N13870 X6.499 Y-10.888 Z-4.375
N13875 X6.377 Y-10.963 Z-4.38
N13880 X6.253 Y-11.034 Z-4.385
N13885 X6.128 Y-11.105 Z-4.39
N13890 X6.004 Y-11.175 Z-4.395
N13895 X5.877 Y-11.242 Z-4.4
N13900 X5.873 Y-11.244
N13905 G02 X-5.873 Y11.245 I-5.873 J11.245
N13910 X5.916 Y-11.221 I5.873 J-11.245
N13915 G01 X5.873 Y-11.244
N13920 X5.746 Y-11.311 Z-4.405
N13925 X5.619 Y-11.377 Z-4.41
N13930 X5.49 Y-11.439 Z-4.415
N13935 X5.361 Y-11.501 Z-4.42
N13940 X5.232 Y-11.563 Z-4.425
N13945 X5.101 Y-11.621 Z-4.43
N13950 X4.97 Y-11.679 Z-4.435
N13955 X4.839 Y-11.736 Z-4.44
N13960 X4.706 Y-11.79 Z-4.445
N13965 X4.574 Y-11.843 Z-4.45
N13970 X4.569 Y-11.845
N13975 G02 X-4.569 Y11.846 I-4.569 J11.845
N13980 X4.787 Y-11.758 I4.569 J-11.845
N13985 G01 X4.569 Y-11.845
N13990 X4.436 Y-11.898 Z-4.455
N13995 X4.302 Y-11.947 Z-4.46
N14000 X4.167 Y-11.995 Z-4.465
N14005 X4.032 Y-12.044 Z-4.47
N14010 X3.896 Y-12.088 Z-4.475
N14015 X3.76 Y-12.132 Z-4.48
N14020 X3.624 Y-12.176 Z-4.485
N14025 X3.486 Y-12.216 Z-4.49
N14030 X3.349 Y-12.255 Z-4.495
N14035 X3.211 Y-12.295 Z-4.5
N14040 X3.206 Y-12.296
N14045 G02 X-3.206 Y12.295 I-3.206 J12.295
N14050 X3.293 Y-12.273 I3.206 J-12.295
N14055 G01 X3.206 Y-12.296
N14060 X3.067 Y-12.331 Z-4.505
N14065 X2.929 Y-12.366 Z-4.51
N14070 X2.79 Y-12.4 Z-4.515
N14075 X2.65 Y-12.43 Z-4.52
N14080 X2.51 Y-12.46 Z-4.525
N14085 X2.37 Y-12.49 Z-4.53
N14090 X2.229 Y-12.516 Z-4.535
N14095 X2.088 Y-12.541 Z-4.54
N14100 X1.947 Y-12.566 Z-4.545
N14105 X1.806 Y-12.587 Z-4.55
N14110 X1.801 Y-12.588
N14115 G02 X-1.801 Y12.588 I-1.801 J12.588
N14120 X1.814 Y-12.586 I1.801 J-12.588
N14125 G01 X1.801 Y-12.588
N14130 X1.659 Y-12.608 Z-4.555
N14135 X1.517 Y-12.628 Z-4.56
N14140 X1.375 Y-12.644 Z-4.565
N14145 X1.233 Y-12.66 Z-4.57
N14150 X1.09 Y-12.675 Z-4.575
N14155 X0.948 Y-12.687 Z-4.58
N14160 X0.805 Y-12.697 Z-4.585
N14165 X0.662 Y-12.708 Z-4.59
N14170 X0.519 Y-12.714 Z-4.595
N14175 X0.376 Y-12.72 Z-4.6
N14180 X0.371
N14185 G02 X-0.371 Y12.721 I-0.371 J12.721
N14190 X0.605 Y-12.712 I0.371 J-12.721
N14195 G01 X0.371 Y-12.72
N14200 X0.228 Y-12.726 Z-4.605
N14205 X0.085 Y-12.728 Z-4.61
N14210 X-0.058 Y-12.729 Z-4.615
N14215 X-0.201 Y-12.73 Z-4.62
N14220 X-0.344 Y-12.726 Z-4.625
N14225 X-0.487 Y-12.723 Z-4.63
N14230 X-0.63 Y-12.719 Z-4.635
N14235 X-0.773 Y-12.711 Z-4.64
N14240 X-1.055 Y-12.694 Z-4.65
N14245 X-1.059 Y-12.693
N14250 X-1.064 Y-12.692
N14255 G02 X1.064 Y12.692 I1.064 J12.692
N14260 X-1.008 Y-12.697 I-1.064 J-12.692
N14265 G01 X-1.064 Y-12.692
N14270 X-1.206 Y-12.68 Z-4.655
N14275 X-1.349 Y-12.666 Z-4.66
N14280 X-1.491 Y-12.653 Z-4.665
N14285 X-1.633 Y-12.635 Z-4.67
N14290 X-1.775 Y-12.617 Z-4.675
N14295 X-1.917 Y-12.598 Z-4.68
N14300 X-2.059 Y-12.576 Z-4.685
N14305 X-2.341 Y-12.53 Z-4.695
N14310 X-2.482 Y-12.502 Z-4.7
N14315 X-2.487 Y-12.501
N14320 G02 X2.487 Y12.502 I2.487 J12.502
N14325 X-2.486 Y-12.502 I-2.487 J-12.502
N14330 G01 X-2.487 Y-12.501
N14335 X-2.767 Y-12.445 Z-4.71
N14340 X-2.907 Y-12.414 Z-4.715
N14345 X-3.185 Y-12.348 Z-4.725
N14350 X-3.324 Y-12.312 Z-4.73
N14355 X-3.6 Y-12.237 Z-4.74
N14360 X-3.737 Y-12.196 Z-4.745
N14365 X-3.874 Y-12.154 Z-4.75
N14370 X-3.879 Y-12.152
N14375 G02 X3.879 Y12.153 I3.879 J12.153
N14380 X-3.696 Y-12.209 I-3.879 J-12.153
N14385 G01 X-3.879 Y-12.152
N14390 X-4.016 Y-12.11 Z-4.755
N14395 X-4.151 Y-12.064 Z-4.76
N14400 X-4.287 Y-12.018 Z-4.765
N14405 X-4.422 Y-11.971 Z-4.77
N14410 X-4.556 Y-11.921 Z-4.775
N14415 X-4.823 Y-11.819 Z-4.785
N14420 X-4.956 Y-11.765 Z-4.79
N14425 X-5.22 Y-11.654 Z-4.8
N14430 X-5.224 Y-11.652
N14435 G02 X5.224 Y11.652 I5.224 J11.652
N14440 X-5.174 Y-11.674 I-5.224 J-11.652
N14445 G01 X-5.224 Y-11.652
N14450 X-5.355 Y-11.593 Z-4.805
N14455 X-5.615 Y-11.473 Z-4.815
N14460 X-5.743 Y-11.41 Z-4.82
N14465 X-5.999 Y-11.282 Z-4.83
N14470 X-6.125 Y-11.214 Z-4.835
N14475 X-6.376 Y-11.077 Z-4.845
N14480 X-6.5 Y-11.006 Z-4.85
N14485 X-6.505 Y-11.003
N14490 G02 X6.505 Y11.004 I6.505 J11.003
N14495 X-6.383 Y-11.074 I-6.505 J-11.003
N14500 G01 X-6.505 Y-11.003
N14505 X-6.628 Y-10.93 Z-4.855
N14510 X-6.751 Y-10.857 Z-4.86
N14515 X-6.872 Y-10.782 Z-4.865
N14520 X-7.114 Y-10.628 Z-4.875
N14525 X-7.233 Y-10.549 Z-4.88
N14530 X-7.469 Y-10.386 Z-4.89
N14535 X-7.585 Y-10.303 Z-4.895
N14540 X-7.7 Y-10.218 Z-4.9
N14545 X-7.704 Y-10.215
N14550 G02 X7.705 Y10.216 I7.705 J10.215
N14555 X-7.593 Y-10.298 I-7.705 J-10.215
N14560 G01 X-7.704 Y-10.215
N14565 X-7.82 Y-10.13 Z-4.905
N14570 X-7.933 Y-10.043 Z-4.91
N14575 X-8.157 Y-9.865 Z-4.92
N14580 X-8.268 Y-9.774 Z-4.925
N14585 X-8.486 Y-9.589 Z-4.935
N14590 X-8.593 Y-9.495 Z-4.94
N14595 X-8.805 Y-9.302 Z-4.95
N14600 X-8.809 Y-9.298
N14605 G02 X8.809 Y9.299 I8.809 J9.299
N14610 X-8.803 Y-9.304 I-8.809 J-9.299
N14615 G01 X-8.809 Y-9.298
N14620 X-8.913 Y-9.2 Z-4.955
N14625 X-9.118 Y-9.001 Z-4.965
N14630 X-9.219 Y-8.9 Z-4.97
N14635 X-9.418 Y-8.693 Z-4.98
N14640 X-9.515 Y-8.589 Z-4.985
N14645 X-9.706 Y-8.375 Z-4.995
N14650 X-9.801 Y-8.268 Z-5.
N14655 X-9.804 Y-8.264
N14660 G02 X9.804 Y8.264 I9.804 J8.264
N14665 X-9.803 Y-8.265 I-9.804 J-8.264
N14670 G01 X-9.804 Y-8.264
N14675 X-9.987 Y-8.044 Z-5.01
N14680 X-10.078 Y-7.934 Z-5.015
N14685 X-10.254 Y-7.708 Z-5.025
N14690 X-10.341 Y-7.594 Z-5.03
N14695 X-10.509 Y-7.363 Z-5.04
N14700 X-10.593 Y-7.246 Z-5.045
N14705 X-10.673 Y-7.128 Z-5.05
N14710 X-10.676 Y-7.124
N14715 G02 X10.677 Y7.124 I10.676 J7.124
N14720 X-10.631 Y-7.19 I-10.676 J-7.124
N14725 G01 X-10.676 Y-7.124
N14730 X-10.756 Y-7.005 Z-5.055
N14735 X-10.835 Y-6.886 Z-5.06
N14740 X-10.987 Y-6.644 Z-5.07
N14745 X-11.063 Y-6.522 Z-5.075
N14750 X-11.207 Y-6.275 Z-5.085
N14755 X-11.278 Y-6.15 Z-5.09
N14760 X-11.346 Y-6.024 Z-5.095
N14765 X-11.414 Y-5.898 Z-5.1
N14770 X-11.416 Y-5.894
N14775 G02 X11.417 Y5.894 I11.416 J5.894
N14780 X-11.299 Y-6.115 I-11.416 J-5.894
N14785 G01 X-11.416 Y-5.894
N14790 X-11.483 Y-5.768 Z-5.105
N14795 X-11.546 Y-5.639 Z-5.11
N14800 X-11.61 Y-5.511 Z-5.115
N14805 X-11.673 Y-5.383 Z-5.12
N14810 X-11.732 Y-5.252 Z-5.125
N14815 X-11.791 Y-5.122 Z-5.13
N14820 X-11.85 Y-4.991 Z-5.135
N14825 X-11.904 Y-4.859 Z-5.14
N14830 X-12. Y-4.627 Z-5.149
N14835 X-12.007 Y-4.611
N14840 X-12.01 Y-4.603 Z-5.15
N14845 X-12.013 Y-4.594
N14850 X-12.015 Y-4.589
N14855 G02 X12.014 Y4.589 I12.015 J4.589
N14860 X-11.997 Y-4.636 I-12.015 J-4.589
N14865 G01 X-12.015 Y-4.589
N14870 X-12.065 Y-4.456 Z-5.155
N14875 X-12.115 Y-4.322 Z-5.16
N14880 X-12.165 Y-4.188 Z-5.165
N14885 X-12.211 Y-4.052 Z-5.17
N14890 X-12.257 Y-3.916 Z-5.175
N14895 X-12.302 Y-3.781 Z-5.18
N14900 X-12.343 Y-3.644 Z-5.185
N14905 X-12.384 Y-3.506 Z-5.19
N14910 X-12.425 Y-3.369 Z-5.195
N14915 X-12.462 Y-3.231 Z-5.2
N14920 X-12.463 Y-3.226
N14925 G02 X12.464 Y3.226 I12.463 J3.226
N14930 X-12.446 Y-3.292 I-12.463 J-3.226
N14935 G01 X-12.463 Y-3.226
N14940 X-12.499 Y-3.087 Z-5.205
N14945 X-12.535 Y-2.949 Z-5.21
N14950 X-12.568 Y-2.81 Z-5.215
N14955 X-12.63 Y-2.53 Z-5.225
N14960 X-12.658 Y-2.39 Z-5.23
N14965 X-12.712 Y-2.109 Z-5.24
N14970 X-12.735 Y-1.967 Z-5.245
N14975 X-12.757 Y-1.826 Z-5.25
N14980 Y-1.821
N14985 G02 X12.758 Y1.821 I12.758 J1.821
N14990 X-12.739 Y-1.949 I-12.758 J-1.821
N14995 G01 X-12.757 Y-1.821
N15000 X-12.779 Y-1.68 Z-5.255
N15005 X-12.798 Y-1.538 Z-5.26
N15010 X-12.832 Y-1.254 Z-5.27
N15015 X-12.846 Y-1.111 Z-5.275
N15020 X-12.87 Y-0.826 Z-5.285
N15025 X-12.88 Y-0.683 Z-5.29
N15030 X-12.895 Y-0.397 Z-5.3
N15035 Y-0.392
N15040 G02 X12.895 Y0.392 I12.895 J0.392
N15045 X-12.892 Y-0.47 I-12.895 J-0.392
N15050 G01 X-12.895 Y-0.392
N15055 X-12.899 Y-0.25 Z-5.305
N15060 X-12.904 Y0.037 Z-5.315
N15065 X-12.905 Y0.18 Z-5.32
N15070 X-12.901 Y0.466 Z-5.33
N15075 X-12.897 Y0.609 Z-5.335
N15080 X-12.883 Y0.895 Z-5.345
N15085 X-12.874 Y1.038 Z-5.35
N15090 Y1.043
N15095 G02 X12.874 Y-1.043 I12.874 J-1.043
N15100 X-12.877 Y1.008 I-12.874 J1.043
N15105 G01 X-12.874 Y1.043
N15110 X-12.862 Y1.185 Z-5.355
N15115 X-12.85 Y1.328 Z-5.36
N15120 X-12.837 Y1.47 Z-5.365
N15125 X-12.804 Y1.755 Z-5.375
N15130 X-12.786 Y1.897 Z-5.38
N15135 X-12.743 Y2.18 Z-5.39
N15140 X-12.721 Y2.321 Z-5.395
N15145 X-12.695 Y2.462 Z-5.4
N15150 X-12.694 Y2.467
N15155 G02 X12.695 Y-2.467 I12.694 J-2.467
N15160 X-12.716 Y2.352 I-12.694 J2.467
N15165 G01 X-12.694 Y2.467
N15170 X-12.668 Y2.608 Z-5.405
N15175 X-12.641 Y2.748 Z-5.41
N15180 X-12.61 Y2.888 Z-5.415
N15185 X-12.579 Y3.027 Z-5.42
N15190 X-12.547 Y3.167 Z-5.425
N15195 X-12.512 Y3.305 Z-5.43
N15200 X-12.476 Y3.444 Z-5.435
N15205 X-12.44 Y3.583 Z-5.44
N15210 X-12.4 Y3.72 Z-5.445
N15215 X-12.36 Y3.857 Z-5.45
N15220 X-12.358 Y3.862
N15225 G02 X12.359 Y-3.862 I12.359 J-3.862
N15230 X-12.43 Y3.624 I-12.359 J3.862
N15235 G01 X-12.358 Y3.862
N15240 X-12.318 Y3.999 Z-5.455
N15245 X-12.273 Y4.135 Z-5.46
N15250 X-12.228 Y4.271 Z-5.465
N15255 X-12.183 Y4.407 Z-5.47
N15260 X-12.134 Y4.541 Z-5.475
N15265 X-12.035 Y4.81 Z-5.485
N15270 X-11.981 Y4.943 Z-5.49
N15275 X-11.873 Y5.208 Z-5.5
N15280 X-11.869 Y5.212
N15285 G02 X11.869 Y-5.212 I11.869 J-5.212
N15290 X-11.885 Y5.174 I-11.869 J5.212
N15295 G01 X-11.869 Y5.212
N15300 X-11.814 Y5.343 Z-5.505
N15305 X-11.696 Y5.604 Z-5.515
N15310 X-11.635 Y5.733 Z-5.52
N15315 X-11.509 Y5.991 Z-5.53
N15320 X-11.443 Y6.118 Z-5.535
N15325 X-11.308 Y6.37 Z-5.545
N15330 X-11.239 Y6.495 Z-5.55
N15335 X-11.236 Y6.5
N15340 G02 X11.236 Y-6.5 I11.236 J-6.5
N15345 X-11.302 Y6.383 I-11.236 J6.5
N15350 G01 X-11.236 Y6.5
N15355 X-11.165 Y6.624 Z-5.555
N15360 X-11.093 Y6.748 Z-5.56
N15365 X-11.019 Y6.87 Z-5.565
N15370 X-10.868 Y7.113 Z-5.575
N15375 X-10.791 Y7.233 Z-5.58
N15380 X-10.631 Y7.471 Z-5.59
N15385 X-10.55 Y7.589 Z-5.595
N15390 X-10.466 Y7.705 Z-5.6
N15395 X-10.463 Y7.709
N15400 G02 X10.464 Y-7.71 I10.463 J-7.709
