%
O1001 (MH2E3)
(T2 D=6. CR=0. - ZMIN=-11. - FLAT END MILL)
N10 G90 G94 G17 G49 G40 G80
N15 G21
N20 G28 G91 Z0.
N25 G90

(POCKET3)
N30 T3
N32 M06
N35 S6000 M03
N40 G54
N45 G5.1 Q1
N50 G00 X-5.424 Y25.845
N55 G43 Z15. H03
N60 G00 Z2.
N65 G01 Z1.65 F50.
N70 X-5.429 Y25.826 Z1.498 F200.
N75 X-5.444 Y25.771 Z1.356
N80 X-5.465 Y25.682 Z1.233
N85 X-5.488 Y25.564 Z1.137
N90 X-5.51 Y25.426 Z1.075
N95 X-5.525 Y25.276 Z1.05
N100 G03 X0.159 Y24.851 Z0.737 I2.842 J-0.212
N105 X-5.525 Y25.276 Z0.425 I-2.842 J0.212
N110 X0.159 Y24.851 Z0.112 I2.842 J-0.212
N115 X-5.525 Y25.276 Z-0.201 I-2.842 J0.212
N120 X0.159 Y24.851 Z-0.513 I2.842 J-0.212
N125 X-5.525 Y25.276 Z-0.826 I-2.842 J0.212
N130 X-2.389 Y22.229 Z-1. I2.842 J-0.212
N135 G02 X7.957 Y20.822 I2.277 J-22.007
N140 X12.096 Y18.736 I-8.908 J-22.833
N145 X15.701 Y15.821 I-10.422 J-16.573
N150 X22.259 Y-1.409 I-16.631 J-16.194
N155 X13.582 Y-17.676 I-21.378 J0.956
N160 X4.49 Y-21.693 I-13.558 J18.385
N165 X-5.449 Y-21.607 I-4.763 J23.893
N170 X-12.998 Y-18.074 I3.993 J18.363
N175 X-18.745 Y-12.038 I17.293 J22.22
N180 X-22.083 Y-3.515 I15.81 J11.105
N185 X-21.568 Y5.623 I23.972 J3.233
N190 X-2.389 Y22.229 I21.455 J-5.402
N195 X-0.011 Y20.928 I0.246 J-2.376
N200 G03 X2.22 Y19.386 I2.529 J1.274
N205 G02 X17.613 Y8.573 I-2.039 J-19.266
N210 X19.479 Y2.408 I-18.473 J-8.957
N215 X19.152 Y-4.024 I-17.135 J-2.353
N220 X9.228 Y-17.28 I-20.446 J4.963
N225 X1.208 Y-19.629 I-8.921 J15.599
N230 X-7.035 Y-18.253 I-0.98 J19.519
N235 X-18.155 Y-7.379 I7.539 J18.833
N240 X-17.808 Y8.171 I17.331 J7.391
N245 X-0.224 Y19.49 I18.001 J-8.647
N250 X2.22 Y19.386 I0.404 J-19.369
N255 X4.12 Y17.758 I-0.232 J-2.194
N260 G03 X5.817 Y15.92 I2.589 J0.687
N265 G02 X8.809 Y14.488 I-5.158 J-14.611
N270 X13.917 Y9.572 I-8.844 J-14.303
N275 X14.839 Y8.106 I-23.314 J-15.685
N280 X15.567 Y6.535 I-7.767 J-4.557
N285 X16.778 Y0.813 I-21.362 J-7.509
N290 X16.127 Y-5.001 I-15.393 J-1.218
N295 X9.437 Y-14.066 I-16.428 J5.121
N300 X-1.486 Y-16.827 I-9.196 J13.397
N305 X-12.61 Y-11.183 I1.867 J17.461
N310 X-16.881 Y0.536 I12.176 J11.076
N315 X-15.392 Y6.819 I16.756 J-0.655
N320 X-11.742 Y12.145 I16.95 J-7.702
N325 X-5.346 Y16.002 I10.655 J-10.437
N330 X2.086 Y16.738 I5.621 J-18.862
N335 X5.817 Y15.92 I-1.426 J-15.429
N340 X7.427 Y13.593 I-0.803 J-2.276
N345 G03 X8.629 Y11.032 I3.184 J-0.068
N350 G01 X9.464 Y10.368
N355 X9.584 Y10.264
N360 G02 X10.016 Y9.83 I-5.194 J-5.606
N365 X11.361 Y8.254 I-22.304 J-20.38
N370 G01 X11.453 Y8.129
N375 X11.552 Y7.981
N380 X11.614 Y7.882
N385 X12.377 Y6.566
N390 X12.542 Y6.293
N395 X12.619 Y6.152
N400 X12.802 Y5.773
N405 X12.843 Y5.683
N410 X12.879 Y5.59
N415 X13.521 Y3.762
N420 X13.567 Y3.609
N425 X13.693 Y3.111
N430 X13.713 Y3.023
N435 X13.728 Y2.934
N440 G02 X14.013 Y0.894 I-40.254 J-6.673
N445 G01 X14.025 Y0.74
N450 X14.034 Y0.407
N455 X14.033 Y0.281
N460 G02 X13.92 Y-1.844 I-39.234 J1.02
N465 G01 X13.909 Y-1.955
N470 X13.89 Y-2.065
N475 G02 X13.406 Y-4.153 I-25.879 J4.9
N480 G01 X13.25 Y-4.651
N485 X13.215 Y-4.752
N490 X13.174 Y-4.852
N495 X12.502 Y-6.337
N500 X12.397 Y-6.576
N505 X12.362 Y-6.652
N510 X12.323 Y-6.726
N515 X12.092 Y-7.142
N520 X12.043 Y-7.224
N525 X11.99 Y-7.303
N530 X10.87 Y-8.882
N535 X10.772 Y-9.008
N540 G02 X10.284 Y-9.552 I-6.516 J5.354
N545 X8.816 Y-10.93 I-24.675 J24.81
N550 G01 X8.752 Y-10.984
N555 X8.686 Y-11.036
N560 X8.353 Y-11.281
N565 X8.26 Y-11.345
N570 X6.93 Y-12.199
N575 G02 X6.473 Y-12.463 I-4.726 J7.655
N580 G01 X6.387 Y-12.509
N585 X6.298 Y-12.55
N590 G02 X3.846 Y-13.515 I-10.821 J23.904
N595 G01 X3.755 Y-13.536
N600 X3.664 Y-13.552
N605 X1.835 Y-13.913
N610 X1.693 Y-13.935
N615 X1.195 Y-13.992
N620 X1.096 Y-14.
N625 X0.997 Y-14.003
N630 X-0.997
N635 X-1.096 Y-14.
N640 X-1.195 Y-13.992
N645 X-1.693 Y-13.935
N650 X-1.828 Y-13.915
N655 G02 X-3.697 Y-13.546 I7.165 J41.187
N660 G01 X-3.844 Y-13.507
N665 X-4.176 Y-13.404
N670 X-4.286 Y-13.365
N675 G02 X-6.353 Y-12.524 I12.064 J32.619
N680 G01 X-6.465 Y-12.47
N685 X-6.572 Y-12.408
N690 X-6.905 Y-12.203
N695 X-6.931 Y-12.186
N700 X-7.907 Y-11.559
N705 X-8.218 Y-11.371
N710 X-8.355 Y-11.279
N715 X-8.705 Y-11.021
N720 X-8.779 Y-10.962
N725 X-8.851 Y-10.9
N730 X-9.175 Y-10.601
N735 X-9.191 Y-10.585
N740 X-10.279 Y-9.555
N745 X-10.376 Y-9.455
N750 X-10.675 Y-9.123
N755 X-10.758 Y-9.024
N760 X-10.932 Y-8.798
N765 X-11.991 Y-7.302
N770 X-12.041 Y-7.227
N775 X-12.087 Y-7.15
N780 X-12.274 Y-6.817
N785 X-12.337 Y-6.694
N790 X-12.8 Y-5.697
N795 X-12.813 Y-5.669
N800 X-13.18 Y-4.838
N805 X-13.236 Y-4.696
N810 G02 X-13.436 Y-4.044 I7.746 J2.736
N815 X-13.89 Y-2.065 I25.469 J6.89
N820 G01 X-13.91 Y-1.944
N825 X-13.922 Y-1.822
N830 X-13.965 Y-1.074
N835 X-13.966 Y-1.061
N840 X-14.033 Y0.269
N845 X-14.034 Y0.425
N850 X-14.017 Y0.841
N855 X-14.011 Y0.93
N860 X-14.001 Y1.02
N865 X-13.728 Y2.931
N870 X-13.713 Y3.021
N875 X-13.693 Y3.111
N880 X-13.567 Y3.609
N885 X-13.524 Y3.754
N890 X-13.122 Y4.917
N895 X-13.114 Y4.94
N900 X-12.874 Y5.605
N905 X-12.841 Y5.687
N910 X-12.805 Y5.768
N915 G02 X-11.453 Y8.132 I20.342 J-10.066
N920 G01 X-11.355 Y8.26
N925 G02 X-9.71 Y10.155 I22.474 J-17.855
N930 G01 X-9.598 Y10.252
N935 X-9.454 Y10.376
N940 X-9.427 Y10.399
N945 X-9.399 Y10.421
N950 X-7.99 Y11.538
N955 X-7.869 Y11.626
N960 X-7.458 Y11.899
N965 X-7.377 Y11.949
N970 X-7.293 Y11.995
N975 X-5.54 Y12.899
N980 X-5.458 Y12.939
N985 X-5.374 Y12.974
N990 X-4.958 Y13.136
N995 X-4.814 Y13.185
N1000 X-3.151 Y13.672
N1005 X-3.124 Y13.679
N1010 X-3.097 Y13.687
N1015 X-2.848 Y13.751
N1020 X-2.747 Y13.774
N1025 X-2.645 Y13.791
N1030 G02 X-0.08 Y14.046 I3.81 J-25.261
N1035 G01 X0.08 Y14.044
N1040 G02 X2.644 Y13.789 I-1.035 J-23.457
N1045 G01 X2.771 Y13.768
N1050 X2.895 Y13.738
N1055 X4.807 Y13.187
N1060 X4.958 Y13.136
N1065 X5.374 Y12.974
N1070 X5.458 Y12.939
N1075 X5.54 Y12.899
N1080 X7.293 Y11.995
N1085 X7.366 Y11.955
N1090 X7.438 Y11.912
N1095 G02 X8.629 Y11.032 I-5.575 J-8.794
N1100 G03 X9.064 Y11.097 I0.187 J0.235
N1105 G01 X13.627 Y17.778
N1110 G03 X13.559 Y18.188 I-0.248 J0.169
N1115 X-19.857 Y10.969 I-13.552 J-18.216
N1120 X-22.579 Y-2.328 I19.919 J-11.005
N1125 X-17.17 Y-14.776 I22.199 J2.247
N1130 X-0.707 Y-22.624 I17.336 J15.173
N1135 X16.227 Y-15.853 I0.85 J22.435
N1140 X13.559 Y18.188 I-16.274 J15.849
N1145 G02 X12.735 Y20.396 I1.304 J1.744
N1150 G03 X11.735 Y22.53 I-1.895 J0.413
N1155 X0. Y25.391 I-11.701 J-22.499
N1160 X-6.68 Y-24.497 J-25.391
N1165 X25.17 Y-3.328 I6.676 J24.5
N1170 X11.735 Y22.53 I-25.137 J3.359
N1175 G02 X10.582 Y24.559 I0.991 J1.906
N1180 G03 X9.286 Y26.499 I-1.935 J0.111
N1185 X-27.286 Y-6.689 I-9.278 J-26.521
N1190 X10.21 Y-26.173 I27.286 J6.689
N1195 X24.592 Y13.582 I-10.223 J26.177
N1200 X9.286 Y26.499 I-24.584 J-13.603
N1205 G02 X7.786 Y28.479 I0.742 J2.121
N1210 G03 X6.117 Y30.319 I-1.986 J-0.125
N1215 G01 X3.304 Y30.772
N1220 X0. Y30.949
N1225 X-3.304 Y30.772
N1230 X-6.528 Y30.252
N1235 X-9.755 Y29.37
N1240 X-12.823 Y28.166
N1245 X-15.722 Y26.658
N1250 X-18.49 Y24.816
N1255 X-20.985 Y22.748
N1260 X-23.317 Y20.348
N1265 X-25.321 Y17.796
N1270 X-27.089 Y14.964
N1275 X-28.528 Y11.996
N1280 X-29.638 Y8.909
N1285 X-30.406 Y5.765
N1290 X-30.851 Y2.46
N1295 X-30.937 Y-0.841
N1300 X-30.668 Y-4.146
N1305 X-30.531 Y-4.877
N1310 X-30.058 Y-7.369
N1315 X-29.108 Y-10.515
N1320 X-27.847 Y-13.501
N1325 X-26.215 Y-16.447
N1330 X-24.363 Y-19.084
N1335 X-22.146 Y-21.617
N1340 X-19.753 Y-23.826
N1345 X-17.07 Y-25.813
N1350 X-14.238 Y-27.478
N1355 X-11.248 Y-28.832
N1360 X-8.141 Y-29.859
N1365 X-4.912 Y-30.557
N1370 X-1.652 Y-30.905
N1375 X1.652
N1380 X4.912 Y-30.557
N1385 X8.141 Y-29.859
N1390 X11.248 Y-28.832
N1395 X14.238 Y-27.478
N1400 X17.07 Y-25.813
N1405 X19.753 Y-23.826
N1410 X22.146 Y-21.617
N1415 X24.363 Y-19.084
N1420 X26.215 Y-16.447
N1425 X27.847 Y-13.501
N1430 X29.108 Y-10.515
N1435 X30.058 Y-7.37
N1440 X30.679 Y-4.064
N1445 X30.937 Y-0.842
N1450 X30.851 Y2.46
N1455 X30.406 Y5.765
N1460 X29.638 Y8.907
N1465 X28.496 Y12.071
N1470 X27.09 Y14.963
N1475 X25.322 Y17.795
N1480 X23.263 Y20.41
N1485 X20.986 Y22.747
N1490 X18.49 Y24.816
N1495 X15.722 Y26.658
N1500 X12.823 Y28.166
N1505 X9.755 Y29.37
N1510 X6.528 Y30.252
N1515 X6.117 Y30.319
N1520 G03 X5.78 Y30.101 I-0.048 J-0.296
N1525 G01 X4.094 Y23.912
N1530 X4.075 Y23.86
N1535 X4.047 Y23.813
N1540 X0.251 Y18.631
N1545 G03 X0.292 Y18.23 I0.242 J-0.177
N1550 X4.095 Y22.476 Z-1.313 I1.902 J2.123
N1555 X0.292 Y18.23 Z-1.625 I-1.902 J-2.123
N1560 X4.095 Y22.476 Z-1.938 I1.902 J2.123
N1565 X2.5 Y23.186 Z-2. I-1.902 J-2.123
N1570 X-21.946 Y-7.879 I-2.5 J-23.184
N1575 X10.757 Y-20.69 I21.956 J7.902
N1580 X19.085 Y13.4 I-10.745 J20.687
N1585 X2.5 Y23.186 I-19.085 J-13.398
N1590 G02 X1.176 Y24.276 I0.167 J1.553
N1595 G03 X-0.209 Y25.289 I-1.374 J-0.426
N1600 X-3.716 Y24.995 I0.165 J-23.061
N1605 X-13.27 Y21.488 I4.247 J-26.336
N1610 X-20.709 Y14.54 I12.782 J-21.142
N1615 X-24.829 Y-4.692 I20.619 J-14.475
N1620 X-20.433 Y-14.751 I24.107 J4.546
N1625 X-12.274 Y-22.096 I22.179 J16.433
N1630 X7.368 Y-24.176 I12.105 J20.53
N1635 X15.071 Y-20.147 I-8.396 J25.431
N1640 X21.113 Y-13.897 I-16.667 J22.158
N1645 X24.981 Y-4.591 I-19.153 J13.417
N1650 X24.67 Y5.481 I-24.063 J4.297
N1655 X20.268 Y15.136 I-27.399 J-6.662
N1660 X12.264 Y22.103 I-18.396 J-13.052
N1665 X4.507 Y24.836 I-13.569 J-26.137
N1670 X-0.209 Y25.289 I-4.551 J-22.608
N1675 G02 X-2.203 Y26.556 I-0.016 J2.178
N1680 G03 X-4.285 Y27.675 I-1.781 J-0.82
N1685 X-27.996 Y-0.764 I4.294 J-27.684
N1690 X-22.211 Y-16.878 I27.42 J0.748
N1695 X-8.215 Y-26.74 I23.229 J18.106
N1700 X3.301 Y-27.832 I8.153 J24.696
N1705 X14.24 Y-24.071 I-3.736 J28.65
N1710 X2.999 Y27.846 I-14.209 J24.098
N1715 X-4.285 Y27.675 I-2.99 J-27.855
N1720 G02 X-6.531 Y28.669 I-0.349 J2.247
N1725 G03 X-8.83 Y29.536 I-1.748 J-1.154
N1730 G01 X-9.674 Y29.305
N1735 X-12.742 Y28.108
N1740 X-15.651 Y26.597
N1745 X-18.411 Y24.768
N1750 X-20.951 Y22.659
N1755 X-23.234 Y20.312
N1760 X-25.258 Y17.734
N1765 X-27.001 Y14.944
N1770 X-28.443 Y11.974
N1775 X-29.548 Y8.909
N1780 X-30.332 Y5.683
N1785 X-30.763 Y2.461
N1790 X-30.849 Y-0.842
N1795 X-30.585 Y-4.117
N1800 X-29.982 Y-7.315
N1805 X-29.043 Y-10.433
N1810 X-27.752 Y-13.501
N1815 X-26.15 Y-16.389
N1820 X-24.286 Y-19.041
N1825 X-22.113 Y-21.528
N1830 X-19.662 Y-23.785
N1835 X-17.068 Y-25.712
N1840 X-14.234 Y-27.383
N1845 X-11.217 Y-28.75
N1850 X-8.101 Y-29.779
N1855 X-4.914 Y-30.468
N1860 X-1.652 Y-30.817
N1865 X1.652
N1870 X4.914 Y-30.468
N1875 X8.101 Y-29.779
N1880 X11.217 Y-28.75
N1885 X14.234 Y-27.383
N1890 X17.068 Y-25.712
N1895 X19.662 Y-23.785
N1900 X22.113 Y-21.528
N1905 X24.285 Y-19.042
N1910 X26.183 Y-16.334
N1915 X27.751 Y-13.502
N1920 X29.043 Y-10.433
N1925 X29.982 Y-7.316
N1930 X30.591 Y-4.065
N1935 X30.849 Y-0.842
N1940 X30.763 Y2.461
N1945 X30.332 Y5.683
N1950 X29.548 Y8.909
N1955 X28.443 Y11.974
N1960 X27.001 Y14.944
N1965 X25.258 Y17.734
N1970 X23.234 Y20.312
N1975 X20.951 Y22.659
N1980 X18.411 Y24.768
N1985 X15.651 Y26.597
N1990 X12.742 Y28.108
N1995 X9.674 Y29.305
N2000 X6.528 Y30.163
N2005 X3.304 Y30.683
N2010 X0. Y30.862
N2015 X-3.304 Y30.683
N2020 X-6.528 Y30.163
N2025 X-8.83 Y29.536
N2030 G03 X-9.044 Y29.181 I0.079 J-0.289
N2035 G01 X-7.166 Y20.749
N2040 G03 X-6.777 Y20.53 I0.293 J0.065
N2045 G02 X-3.141 Y21.425 I7.016 J-20.659
N2050 X14.255 Y16.287 I3.342 J-20.704
N2055 X21.65 Y-0.275 I-15.025 J-16.641
N2060 X7.211 Y-20.418 I-21.165 J-0.074
N2065 X-8.671 Y-19.795 I-7.113 J21.437
N2070 X-19.893 Y-8.538 I8.152 J19.349
N2075 X-6.777 Y20.53 I20.132 J8.409
N2080 X-5.077 Y20.037 I0.497 J-1.463
N2085 G03 X-3.425 Y19.403 I1.371 J1.105
N2090 G02 X-1.376 Y19.622 I3.032 J-18.729
N2095 X7.461 Y18.22 I1.116 J-21.519
N2100 X14.744 Y13.022 I-6.391 J-16.654
N2105 X19.549 Y-2.243 I-16.04 J-13.438
N2110 X15.886 Y-11.808 I-18.295 J1.522
N2115 X7.777 Y-18.065 I-15.579 J11.805
N2120 X0.357 Y-19.682 I-8.217 J19.867
N2125 X-7.117 Y-18.339 I-0.66 J17.789
N2130 X-14.456 Y-13.318 I8.275 J19.972
N2135 X-18.857 Y-5.591 I13.189 J12.629
N2140 X-16.17 Y11.212 I19.647 J5.475
N2145 X-3.425 Y19.403 I15.777 J-10.539
N2150 X-1.11 Y18.278 I0.358 J-2.209
N2155 G03 X1.065 Y16.903 I2.344 J1.298
N2160 G02 X5.298 Y16.155 I-1.212 J-19.232
N2165 X11.697 Y12.306 I-4.182 J-14.194
N2170 X15.78 Y5.901 I-13.231 J-12.937
N2175 X16.891 Y-1.614 I-16.743 J-6.316
N2180 X13.07 Y-10.805 I-15.46 J1.038
N2185 X4.767 Y-16.296 I-14.251 J12.525
N2190 X4.297 Y-16.424 I-1.442 J4.368
N2195 X-8.015 Y-14.932 I-4.003 J18.51
N2200 X-16.065 Y-5.498 I6.822 J13.973
N2205 X-14.371 Y8.956 I17.345 J5.293
N2210 X-2.137 Y16.838 I13.896 J-8.133
N2215 X1.065 Y16.903 I1.99 J-19.167
N2220 X3.18 Y15.204 I-0.148 J-2.35
N2225 G03 X5.009 Y13.202 I2.938 J0.847
N2230 G01 X5.622 Y12.963
N2235 X5.706 Y12.928
N2240 X5.789 Y12.888
N2245 X7.119 Y12.202
N2250 X7.247 Y12.129
N2255 G02 X9.524 Y10.434 I-8.603 J-13.934
N2260 G01 X9.593 Y10.376
N2265 X9.659 Y10.314
N2270 X10.399 Y9.557
N2275 X10.489 Y9.457
N2280 G02 X11.539 Y8.156 I-16.224 J-14.163
N2285 G01 X11.6 Y8.072
N2290 X11.655 Y7.985
N2295 X12.096 Y7.249
N2300 X12.421 Y6.723
N2305 X12.467 Y6.644
N2310 X12.509 Y6.563
N2315 X12.971 Y5.604
N2320 X13.01 Y5.517
N2325 X13.044 Y5.428
N2330 X13.545 Y4.015
N2335 X13.572 Y3.932
N2340 X13.595 Y3.847
N2345 X13.839 Y2.85
N2350 X13.858 Y2.763
N2355 X13.872 Y2.676
N2360 X14.069 Y1.263
N2365 X14.073 Y1.23
N2370 X14.077 Y1.197
N2375 X14.093 Y1.031
N2380 X14.102 Y0.904
N2385 G02 X14.119 Y-0.302 I-25.387 J-0.96
N2390 G01 X14.115 Y-0.425
N2395 X14.048 Y-1.423
N2400 X14.046 Y-1.451
N2405 X14.018 Y-1.783
N2410 X14.009 Y-1.867
N2415 X13.996 Y-1.95
N2420 G02 X13.721 Y-3.335 I-22.145 J3.677
N2425 G01 X13.693 Y-3.448
N2430 G02 X13.3 Y-4.774 I-18.779 J4.838
N2435 G01 X13.272 Y-4.854
N2440 X13.24 Y-4.932
N2445 X12.629 Y-6.328
N2450 X12.555 Y-6.477
N2455 X12.072 Y-7.344
N2460 X12.024 Y-7.425
N2465 X11.972 Y-7.503
N2470 X11.07 Y-8.777
N2475 X11.016 Y-8.85
N2480 X10.957 Y-8.921
N2485 X10.292 Y-9.679
N2490 X10.179 Y-9.797
N2495 X9.514 Y-10.425
N2500 X9.496 Y-10.442
N2505 X9.05 Y-10.851
N2510 X8.981 Y-10.912
N2515 X8.908 Y-10.969
N2520 X8.023 Y-11.624
N2525 X7.909 Y-11.702
N2530 G02 X6.48 Y-12.562 I-13.822 J21.352
N2535 G01 X6.376 Y-12.61
N2540 G02 X4.957 Y-13.225 I-9.944 J20.995
N2545 G01 X4.84 Y-13.269
N2550 X3.876 Y-13.589
N2555 X3.781 Y-13.618
N2560 X3.684 Y-13.641
N2565 X2.188 Y-13.955
N2570 X2.102 Y-13.971
N2575 X2.016 Y-13.982
N2580 X0.935 Y-14.098
N2585 X0.842 Y-14.106
N2590 X0.748 Y-14.108
N2595 X-0.748
N2600 X-0.842 Y-14.106
N2605 X-0.935 Y-14.098
N2610 X-2.016 Y-13.982
N2615 X-2.159 Y-13.961
N2620 G02 X-3.699 Y-13.638 I5.792 J31.428
N2625 G01 X-3.79 Y-13.615
N2630 X-3.879 Y-13.588
N2635 X-4.877 Y-13.255
N2640 X-4.992 Y-13.212
N2645 G02 X-6.451 Y-12.573 I8.014 J20.287
N2650 G01 X-6.551 Y-12.523
N2655 X-6.648 Y-12.467
N2660 X-7.226 Y-12.106
N2665 X-7.872 Y-11.724
N2670 X-7.949 Y-11.676
N2675 X-8.023 Y-11.624
N2680 X-8.908 Y-10.969
N2685 X-8.986 Y-10.907
N2690 X-9.061 Y-10.841
N2695 X-10.172 Y-9.803
N2700 X-10.234 Y-9.742
N2705 X-10.292 Y-9.679
N2710 X-10.957 Y-8.921
N2715 X-11.016 Y-8.85
N2720 X-11.07 Y-8.777
N2725 X-11.971 Y-7.504
N2730 X-12.023 Y-7.426
N2735 X-12.071 Y-7.345
N2740 X-12.555 Y-6.477
N2745 X-12.618 Y-6.351
N2750 G02 X-13.28 Y-4.83 I24.334 J11.485
N2755 G01 X-13.311 Y-4.749
N2760 X-13.339 Y-4.666
N2765 G02 X-13.995 Y-1.95 I16.408 J5.401
N2770 G01 X-14.011 Y-1.843
N2775 X-14.021 Y-1.734
N2780 X-14.048 Y-1.254
N2785 X-14.121 Y-0.272
N2790 X-14.126 Y-0.182
N2795 Y-0.092
N2800 X-14.095 Y0.988
N2805 X-14.09 Y1.083
N2810 X-14.079 Y1.178
N2815 X-13.872 Y2.674
N2820 X-13.858 Y2.762
N2825 X-13.839 Y2.85
N2830 X-13.595 Y3.847
N2835 X-13.572 Y3.932
N2840 X-13.545 Y4.015
N2845 X-13.044 Y5.428
N2850 X-13.011 Y5.515
N2855 X-12.973 Y5.6
N2860 X-12.55 Y6.483
N2865 X-12.492 Y6.594
N2870 G02 X-11.574 Y8.107 I17.388 J-9.514
N2875 G01 X-11.525 Y8.18
N2880 X-11.473 Y8.25
N2885 G02 X-10.485 Y9.463 I17.535 J-13.274
N2890 G01 X-10.399 Y9.557
N2895 X-9.659 Y10.314
N2900 X-9.587 Y10.383
N2905 X-9.511 Y10.448
N2910 X-8.335 Y11.405
N2915 X-8.202 Y11.502
N2920 G02 X-7.149 Y12.187 I7.135 J-9.823
N2925 G01 X-7.119 Y12.202
N2930 X-5.789 Y12.888
N2935 X-5.706 Y12.928
N2940 X-5.622 Y12.963
N2945 X-4.669 Y13.334
N2950 X-4.514 Y13.386
N2955 G02 X-2.93 Y13.823 I9.797 J-32.44
N2960 G01 X-2.772 Y13.856
N2965 G02 X-0.091 Y14.13 I2.979 J-15.908
N2970 G01 X0.003 Y14.133
N2975 X0.097 Y14.13
N2980 G02 X1.948 Y13.99 I-0.463 J-18.325
N2985 G01 X2.862 Y13.838
N2990 X2.956 Y13.82
N2995 X3.049 Y13.797
N3000 X4.507 Y13.388
N3005 X4.589 Y13.363
N3010 X4.669 Y13.334
N3015 X5.009 Y13.202
N3020 G03 X5.411 Y13.417 I0.109 J0.28
N3025 G01 X6.561 Y18.685
N3030 X6.578 Y18.745
N3035 X6.608 Y18.8
N3040 X9.375 Y22.865
N3045 G03 X9.368 Y23.213 I-0.248 J0.169
N3050 X4.801 Y19.803 Z-2.313 I-2.284 J-1.705
N3055 X9.368 Y23.213 Z-2.625 I2.284 J1.705
N3060 X4.801 Y19.803 Z-2.938 I-2.284 J-1.705
N3065 X6.225 Y18.791 Z-3. I2.284 J1.705
N3070 G02 X8.562 Y17.912 I-7.083 J-22.392
N3075 X15.206 Y12.768 I-6.915 J-15.791
N3080 X19.708 Y-2.069 I-16.812 J-13.203
N3085 X12.22 Y-15.645 I-18.644 J1.429
N3090 X-2.675 Y-19.677 I-12.569 J16.907
N3095 X-15.953 Y-11.816 I2.071 J18.642
N3100 X-19.761 Y-2.178 I18.125 J12.731
N3105 X-18.145 Y8.058 I17.554 J2.476
N3110 X-10.656 Y16.747 I20.189 J-9.83
N3115 X0.387 Y19.851 I10.097 J-14.723
N3120 X6.225 Y18.791 I-1.245 J-23.453
N3125 X7.763 Y16.812 I-0.666 J-2.105
N3130 G03 X9.045 Y14.66 I2.709 J0.156
N3135 G02 X11.824 Y12.432 I-7.68 J-12.426
N3140 X15.898 Y6.458 I-14.919 J-14.549
N3145 X17.144 Y-0.665 I-13.274 J-5.993
N3150 X11.202 Y-12.994 I-18.798 J1.463
N3155 X4.79 Y-16.464 I-10.019 J10.853
N3160 X-2.483 Y-16.976 I-5.071 J20.136
N3165 X-13.35 Y-10.778 I1.656 J15.528
N3170 X-17.118 Y1.152 I15.287 J11.389
N3175 X-13.933 Y10.009 I15.102 J-0.429
N3180 X-8.522 Y14.888 I16.54 J-12.905
N3185 X-1.575 Y17.084 I7.722 J-12.34
N3190 X5.627 Y16.206 I1.111 J-20.849
N3195 X9.045 Y14.66 I-4.261 J-13.972
N3200 X10.173 Y12.08 I-1.301 J-2.105
N3205 G03 X10.837 Y9.344 I3.309 J-0.646
N3210 G01 X10.844 Y9.336
N3215 X11.686 Y8.256
N3220 X11.74 Y8.183
N3225 X11.791 Y8.107
N3230 X12.456 Y7.044
N3235 X12.502 Y6.964
N3240 X12.545 Y6.882
N3245 X13.155 Y5.629
N3250 X13.194 Y5.544
N3255 X13.228 Y5.457
N3260 X13.655 Y4.275
N3265 X13.684 Y4.189
N3270 X13.708 Y4.102
N3275 X14.038 Y2.773
N3280 X14.058 Y2.68
N3285 X14.073 Y2.586
N3290 X14.254 Y1.257
N3295 X14.264 Y1.164
N3300 X14.269 Y1.071
N3305 X14.307 Y-0.258
N3310 Y-0.351
N3315 X14.302 Y-0.444
N3320 X14.199 Y-1.773
N3325 X14.189 Y-1.866
N3330 X14.174 Y-1.958
N3335 X13.926 Y-3.288
N3340 X13.906 Y-3.381
N3345 X13.881 Y-3.474
N3350 X13.478 Y-4.803
N3355 X13.449 Y-4.891
N3360 X13.416 Y-4.977
N3365 X12.925 Y-6.14
N3370 X12.888 Y-6.222
N3375 X12.846 Y-6.303
N3380 X12.207 Y-7.466
N3385 X12.16 Y-7.546
N3390 X12.109 Y-7.624
N3395 X11.342 Y-8.724
N3400 X11.288 Y-8.797
N3405 X11.231 Y-8.866
N3410 X10.747 Y-9.428
N3415 X10.731 Y-9.446
N3420 X10.286 Y-9.948
N3425 X10.227 Y-10.011
N3430 X10.165 Y-10.071
N3435 X9.27 Y-10.899
N3440 X9.171 Y-10.984
N3445 G02 X8.025 Y-11.847 I-14.194 J17.653
N3450 G01 X7.95 Y-11.9
N3455 X7.872 Y-11.948
N3460 X6.665 Y-12.662
N3465 X6.581 Y-12.709
N3470 X6.495 Y-12.75
N3475 X5.271 Y-13.303
N3480 X5.187 Y-13.338
N3485 X5.101 Y-13.369
N3490 X3.874 Y-13.775
N3495 X3.786 Y-13.802
N3500 X3.696 Y-13.824
N3505 X2.366 Y-14.112
N3510 X2.274 Y-14.13
N3515 X2.18 Y-14.142
N3520 X0.85 Y-14.284
N3525 X0.758 Y-14.291
N3530 X0.665 Y-14.294
N3535 X-0.665
N3540 X-0.758 Y-14.291
N3545 X-0.85 Y-14.284
N3550 X-2.18 Y-14.142
N3555 X-2.274 Y-14.13
N3560 X-2.366 Y-14.112
N3565 X-3.696 Y-13.824
N3570 X-3.786 Y-13.802
N3575 X-3.874 Y-13.775
N3580 X-5.101 Y-13.369
N3585 X-5.187 Y-13.338
N3590 X-5.271 Y-13.303
N3595 X-6.495 Y-12.75
N3600 X-6.581 Y-12.709
N3605 X-6.665 Y-12.662
N3610 X-7.872 Y-11.948
N3615 X-7.95 Y-11.899
N3620 X-8.025 Y-11.847
N3625 X-9.016 Y-11.111
N3630 X-9.142 Y-11.008
N3635 X-9.481 Y-10.704
N3640 X-9.5 Y-10.686
N3645 X-10.165 Y-10.071
N3650 X-10.229 Y-10.009
N3655 X-10.29 Y-9.943
N3660 X-11.136 Y-8.984
N3665 X-11.216 Y-8.885
N3670 G02 X-12.11 Y-7.622 I15.732 J12.077
N3675 G01 X-12.16 Y-7.545
N3680 X-12.207 Y-7.466
N3685 X-12.846 Y-6.303
N3690 X-12.888 Y-6.222
N3695 X-12.925 Y-6.14
N3700 X-13.416 Y-4.977
N3705 X-13.449 Y-4.891
N3710 X-13.478 Y-4.803
N3715 X-13.881 Y-3.474
N3720 X-13.905 Y-3.386
N3725 X-13.925 Y-3.297
N3730 X-14.02 Y-2.8
N3735 X-14.023 Y-2.785
N3740 X-14.175 Y-1.953
N3745 X-14.189 Y-1.863
N3750 X-14.199 Y-1.773
N3755 X-14.302 Y-0.444
N3760 X-14.307 Y-0.351
N3765 Y-0.258
N3770 X-14.269 Y1.071
N3775 X-14.264 Y1.164
N3780 X-14.254 Y1.257
N3785 X-14.073 Y2.586
N3790 X-14.058 Y2.68
N3795 X-14.038 Y2.773
N3800 X-13.708 Y4.102
N3805 X-13.684 Y4.189
N3810 X-13.655 Y4.275
N3815 X-13.228 Y5.457
N3820 X-13.194 Y5.544
N3825 X-13.155 Y5.629
N3830 X-12.545 Y6.882
N3835 X-12.502 Y6.964
N3840 X-12.456 Y7.044
N3845 X-11.791 Y8.107
N3850 X-11.74 Y8.183
N3855 X-11.686 Y8.256
N3860 X-10.844 Y9.336
N3865 X-10.784 Y9.409
N3870 X-10.72 Y9.478
N3875 X-9.786 Y10.44
N3880 X-9.72 Y10.505
N3885 X-9.65 Y10.566
N3890 X-8.636 Y11.409
N3895 X-8.563 Y11.466
N3900 X-8.488 Y11.52
N3905 X-7.371 Y12.264
N3910 X-7.29 Y12.315
N3915 X-7.206 Y12.362
N3920 X-5.959 Y13.009
N3925 X-5.876 Y13.049
N3930 X-5.791 Y13.085
N3935 X-4.627 Y13.54
N3940 X-4.542 Y13.571
N3945 X-4.456 Y13.597
N3950 X-3.16 Y13.955
N3955 X-3.068 Y13.978
N3960 X-2.975 Y13.996
N3965 X-1.611 Y14.218
N3970 X-1.517 Y14.231
N3975 X-1.423 Y14.238
N3980 X-0.093 Y14.309
N3985 X0. Y14.311
N3990 X0.093 Y14.309
N3995 X1.423 Y14.238
N4000 X1.517 Y14.231
N4005 X1.611 Y14.218
N4010 X2.975 Y13.996
N4015 X3.068 Y13.978
N4020 X3.16 Y13.955
N4025 X4.456 Y13.597
N4030 X4.542 Y13.571
N4035 X4.627 Y13.54
N4040 X5.791 Y13.085
N4045 X5.876 Y13.049
N4050 X5.959 Y13.009
N4055 X7.206 Y12.362
N4060 X7.29 Y12.315
N4065 X7.371 Y12.264
N4070 X8.488 Y11.52
N4075 X8.563 Y11.466
N4080 X8.636 Y11.409
N4085 X9.65 Y10.566
N4090 X9.72 Y10.505
N4095 X9.786 Y10.44
N4100 X10.72 Y9.478
N4105 X10.78 Y9.413
N4110 X10.837 Y9.344
N4115 G03 X11.273 Y9.307 I0.235 J0.186
N4120 G01 X18.895 Y16.132
N4125 G03 X18.921 Y16.553 I-0.2 J0.224
N4130 X-10.407 Y22.867 I-18.905 J-16.538
N4135 X-24.063 Y7.224 I10.378 J-22.842
N4140 X-24.023 Y-7.633 I24.471 J-7.363
N4145 X-15.456 Y-19.772 I22.787 J6.99
N4150 X-5.93 Y-24.394 I16.944 J22.792
N4155 X4.655 Y-24.662 I5.842 J21.591
N4160 X14.137 Y-20.664 I-5.921 J27.286
N4165 X21.318 Y-13.295 I-13.364 J20.206
N4170 X18.921 Y16.553 I-21.302 J13.309
N4175 G02 X18.592 Y18.863 I1.608 J1.407
N4180 G03 X18.097 Y21.143 I-1.746 J0.814
N4185 X16.627 Y22.314 I-18.232 J-21.368
N4190 X-24.346 Y13.48 I-16.62 J-22.349
N4195 X-12.839 Y-24.69 I24.369 J-13.473
N4200 X19.915 Y-19.436 I12.833 J24.725
N4205 X25.842 Y-10.474 I-20.035 J19.689
N4210 X27.795 Y0.091 I-23.929 J9.887
N4215 X21.454 Y17.674 I-29.706 J-0.779
N4220 X19.195 Y20.155 I-18.072 J-14.192
N4225 X18.097 Y21.143 I-19.33 J-20.38
N4230 G02 X17.387 Y23.492 I1.473 J1.727
N4235 G03 X16.538 Y25.795 I-2. J0.571
N4240 G01 X15.568 Y26.44
N4245 X12.658 Y27.949
N4250 X9.601 Y29.141
N4255 X6.446 Y29.997
N4260 X3.258 Y30.51
N4265 X0. Y30.684
N4270 X-3.257 Y30.51
N4275 X-6.526 Y29.979
N4280 X-9.675 Y29.116
N4285 X-12.706 Y27.927
N4290 X-15.567 Y26.441
N4295 X-18.33 Y24.604
N4300 X-20.795 Y22.56
N4305 X-23.084 Y20.214
N4310 X-25.113 Y17.63
N4315 X-26.844 Y14.861
N4320 X-28.283 Y11.892
N4325 X-29.385 Y8.826
N4330 X-30.153 Y5.682
N4335 X-30.584 Y2.461
N4340 X-30.671 Y-0.843
N4345 X-30.413 Y-4.064
N4350 X-29.806 Y-7.287
N4355 X-28.855 Y-10.432
N4360 X-27.595 Y-13.417
N4365 X-25.988 Y-16.308
N4370 X-24.161 Y-18.91
N4375 X-22.012 Y-21.373
N4380 X-21.906 Y-21.477
N4385 X-19.595 Y-23.611
N4390 X-16.957 Y-25.572
N4395 X-14.154 Y-27.224
N4400 X-11.139 Y-28.588
N4405 X-8.1 Y-29.594
N4410 X-4.874 Y-30.294
N4415 X-1.652 Y-30.638
N4420 X1.652
N4425 X4.874 Y-30.294
N4430 X8.099 Y-29.594
N4435 X11.203 Y-28.564
N4440 X14.153 Y-27.224
N4445 X16.957 Y-25.572
N4450 X19.595 Y-23.611
N4455 X21.951 Y-21.436
N4460 X22.293 Y-21.052
N4465 X24.16 Y-18.911
N4470 X26.031 Y-16.24
N4475 X27.594 Y-13.418
N4480 X28.855 Y-10.432
N4485 X29.806 Y-7.287
N4490 X30.413 Y-4.064
N4495 X30.671 Y-0.843
N4500 X30.584 Y2.461
N4505 X30.153 Y5.682
N4510 X29.385 Y8.824
N4515 X28.249 Y11.973
N4520 X26.845 Y14.86
N4525 X25.113 Y17.63
N4530 X23.084 Y20.214
N4535 X20.795 Y22.56
N4540 X18.33 Y24.604
N4545 X16.538 Y25.795
N4550 G03 X16.093 Y25.655 I-0.166 J-0.25
N4555 G01 X14.076 Y20.541
N4560 X14.071 Y20.528
N4565 X14.067 Y20.516
N4570 X14.048 Y20.467
N4575 X14.02 Y20.422
N4580 X13.985 Y20.383
N4585 X10.5 Y17.107
N4590 G03 X10.42 Y16.798 I0.205 J-0.219
N4595 X15.852 Y18.526 Z-3.313 I2.716 J0.864
N4600 X10.42 Y16.798 Z-3.625 I-2.716 J-0.864
N4605 X15.852 Y18.526 Z-3.938 I2.716 J0.864
N4610 X14.837 Y19.948 Z-4. I-2.716 J-0.864
N4615 X-24.633 Y-3.323 I-14.84 J-19.939
N4620 X3.986 Y-24.534 I24.622 J3.308
N4625 X23.786 Y7.212 I-3.965 J24.521
N4630 X14.837 Y19.948 I-23.789 J-7.203
N4635 G02 X14.015 Y22.152 I1.294 J1.738
N4640 G03 X13.032 Y24.289 I-1.905 J0.419
N4645 X-20.752 Y18.137 I-13.031 J-24.279
N4650 X-27.313 Y-3.683 I20.731 J-18.13
N4655 X4.418 Y-27.203 I27.301 J3.668
N4660 X26.374 Y7.996 I-4.397 J27.19
N4665 X13.032 Y24.289 I-26.373 J-7.985
N4670 G02 X11.841 Y26.429 I1.073 J1.999
N4675 G03 X10.523 Y28.493 I-2.072 J0.129
N4680 G01 X9.508 Y28.889
N4685 X6.445 Y29.724
N4690 X3.221 Y30.244
N4695 X0. Y30.416
N4700 X-3.221 Y30.244
N4705 X-6.444 Y29.724
N4710 X-9.589 Y28.862
N4715 X-12.574 Y27.694
N4720 X-15.45 Y26.199
N4725 X-18.146 Y24.409
N4730 X-20.644 Y22.335
N4735 X-22.9 Y20.016
N4740 X-24.882 Y17.492
N4745 X-26.615 Y14.721
N4750 X-28.038 Y11.784
N4755 X-29.13 Y8.744
N4760 X-29.894 Y5.596
N4765 X-30.314 Y2.46
N4770 X-30.402 Y-0.842
N4775 X-30.142 Y-4.063
N4780 X-29.549 Y-7.204
N4785 X-28.599 Y-10.348
N4790 X-27.35 Y-13.307
N4795 X-25.772 Y-16.151
N4800 X-23.945 Y-18.752
N4805 X-21.761 Y-21.247
N4810 X-19.377 Y-23.441
N4815 X-16.825 Y-25.338
N4820 X-13.988 Y-27.006
N4825 X-11.081 Y-28.325
N4830 X-8.003 Y-29.344
N4835 X-4.793 Y-30.033
N4840 X-1.652 Y-30.369
N4845 X1.651
N4850 X4.874 Y-30.021
N4855 X8.001 Y-29.344
N4860 X11.081 Y-28.325
N4865 X13.988 Y-27.006
N4870 X16.825 Y-25.338
N4875 X19.377 Y-23.441
N4880 X21.761 Y-21.247
N4885 X23.945 Y-18.752
N4890 X25.772 Y-16.151
N4895 X27.35 Y-13.307
N4900 X28.607 Y-10.331
N4905 X29.549 Y-7.204
N4910 X30.142 Y-4.063
N4915 X30.402 Y-0.842
N4920 X30.314 Y2.46
N4925 X29.887 Y5.642
N4930 X29.105 Y8.823
N4935 X28.01 Y11.851
N4940 X26.615 Y14.72
N4945 X24.882 Y17.492
N4950 X22.9 Y20.016
N4955 X20.644 Y22.335
N4960 X18.146 Y24.409
N4965 X15.402 Y26.225
N4970 X12.576 Y27.694
N4975 X10.523 Y28.493
N4980 G03 X10.141 Y28.338 I-0.109 J-0.28
N4985 G01 X6.109 Y19.5
N4990 G03 X6.291 Y19.09 I0.273 J-0.125
N4995 G02 X11.011 Y16.833 I-5.734 J-18.053
N5000 X17.973 Y9.214 I-11.708 J-17.691
N5005 X20.103 Y-0.885 I-16.049 J-8.658
N5010 X17.406 Y-10.089 I-23.38 J1.854
N5015 X10.76 Y-17.004 I-15.599 J8.339
N5020 X4.913 Y-19.514 I-12.885 J21.953
N5025 X-1.425 Y-20.072 I-4.604 J16.004
N5030 X-14.682 Y-13.754 I2.29 J21.874
N5035 X-20.123 Y-0.113 I13.139 J13.146
N5040 X-15.553 Y12.774 I22.119 J-0.589
N5045 X-3.799 Y19.761 I14.633 J-11.237
N5050 X3.881 Y19.685 I3.614 J-22.883
N5055 X6.291 Y19.09 I-3.324 J-18.647
N5060 X7.827 Y17.097 I-0.668 J-2.104
N5065 G03 X9.096 Y14.923 I2.732 J0.137
N5070 G02 X10.582 Y13.844 I-7.729 J-12.203
N5075 X16.147 Y6.543 I-12.976 J-15.663
N5080 X17.234 Y-2.573 I-13.932 J-6.284
N5085 X14.107 Y-10.232 I-20.337 J3.835
N5090 X7.797 Y-15.583 I-12.506 J8.352
N5095 X2.55 Y-17.236 I-9.52 J21.055
N5100 X-2.95 Y-17.172 I-2.591 J13.767
N5105 X-13.832 Y-10.593 I4.023 J18.942
N5110 X-17.349 Y1.628 I12.213 J10.13
N5115 X-12.299 Y12.34 I19.344 J-2.571
N5120 X-1.57 Y17.354 I11.552 J-10.735
N5125 X4.836 Y16.742 I1.142 J-21.884
N5130 X9.096 Y14.923 I-3.47 J-14.022
N5135 X10.142 Y12.362 I-1.277 J-2.016
N5140 G03 X10.884 Y9.696 I2.801 J-0.657
N5145 G01 X10.894 Y9.685
N5150 X10.957 Y9.617
N5155 X11.017 Y9.546
N5160 X11.862 Y8.473
N5165 X11.917 Y8.4
N5170 X11.968 Y8.323
N5175 G02 X12.757 Y7.057 I-20.387 J-13.581
N5180 G01 X12.82 Y6.937
N5185 X13.385 Y5.774
N5190 X13.423 Y5.69
N5195 X13.457 Y5.604
N5200 X13.936 Y4.274
N5205 X13.966 Y4.184
N5210 X13.991 Y4.092
N5215 X14.313 Y2.763
N5220 X14.332 Y2.673
N5225 X14.347 Y2.582
N5230 X14.523 Y1.252
N5235 X14.533 Y1.161
N5240 X14.538 Y1.07
N5245 X14.575 Y-0.26
N5250 Y-0.353
N5255 X14.57 Y-0.446
N5260 X14.458 Y-1.859
N5265 X14.448 Y-1.953
N5270 X14.433 Y-2.046
N5275 X14.182 Y-3.37
N5280 X14.163 Y-3.459
N5285 X14.139 Y-3.547
N5290 X13.764 Y-4.799
N5295 X13.736 Y-4.884
N5300 X13.704 Y-4.968
N5305 X13.253 Y-6.054
N5310 X13.24 Y-6.084
N5315 X13.133 Y-6.327
N5320 X13.061 Y-6.474
N5325 X12.412 Y-7.645
N5330 X12.364 Y-7.726
N5335 X12.312 Y-7.804
N5340 X11.498 Y-8.96
N5345 X11.442 Y-9.035
N5350 X11.383 Y-9.106
N5355 X10.508 Y-10.103
N5360 X10.447 Y-10.17
N5365 X10.382 Y-10.233
N5370 G02 X9.297 Y-11.229 I-18.175 J18.713
N5375 G01 X9.186 Y-11.318
N5380 X8.105 Y-12.116
N5385 X8.029 Y-12.169
N5390 X7.951 Y-12.218
N5395 X6.787 Y-12.901
N5400 X6.706 Y-12.946
N5405 X6.622 Y-12.986
N5410 X5.376 Y-13.55
N5415 X5.288 Y-13.586
N5420 X5.199 Y-13.618
N5425 X3.869 Y-14.054
N5430 X3.779 Y-14.08
N5435 X3.688 Y-14.102
N5440 X2.358 Y-14.385
N5445 X2.268 Y-14.401
N5450 X2.177 Y-14.413
N5455 X0.847 Y-14.553
N5460 X0.756 Y-14.56
N5465 X0.665 Y-14.562
N5470 X-0.665
N5475 X-0.756 Y-14.56
N5480 X-0.847 Y-14.553
N5485 X-2.177 Y-14.413
N5490 X-2.268 Y-14.401
N5495 X-2.358 Y-14.385
N5500 X-3.688 Y-14.102
N5505 X-3.779 Y-14.08
N5510 X-3.869 Y-14.054
N5515 X-5.199 Y-13.618
N5520 X-5.288 Y-13.586
N5525 X-5.376 Y-13.55
N5530 X-6.622 Y-12.986
N5535 X-6.706 Y-12.946
N5540 X-6.787 Y-12.901
N5545 X-7.951 Y-12.218
N5550 X-8.029 Y-12.169
N5555 X-8.105 Y-12.116
N5560 X-9.186 Y-11.318
N5565 X-9.258 Y-11.262
N5570 X-9.327 Y-11.202
N5575 X-10.157 Y-10.444
N5580 X-10.175 Y-10.428
N5585 X-10.39 Y-10.225
N5590 X-10.451 Y-10.166
N5595 X-10.508 Y-10.103
N5600 X-11.383 Y-9.106
N5605 X-11.442 Y-9.035
N5610 X-11.498 Y-8.96
N5615 X-12.312 Y-7.804
N5620 X-12.364 Y-7.726
N5625 X-12.412 Y-7.645
N5630 X-13.061 Y-6.474
N5635 X-13.102 Y-6.395
N5640 X-13.139 Y-6.314
N5645 X-13.423 Y-5.649
N5650 X-13.433 Y-5.627
N5655 X-13.706 Y-4.962
N5660 X-13.737 Y-4.883
N5665 X-13.763 Y-4.802
N5670 X-13.977 Y-4.094
N5675 X-13.979 Y-4.086
N5680 X-14.141 Y-3.542
N5685 X-14.164 Y-3.457
N5690 X-14.182 Y-3.37
N5695 X-14.433 Y-2.046
N5700 X-14.448 Y-1.953
N5705 X-14.458 Y-1.859
N5710 X-14.57 Y-0.446
N5715 X-14.575 Y-0.353
N5720 Y-0.26
N5725 X-14.538 Y1.07
N5730 X-14.533 Y1.161
N5735 X-14.523 Y1.252
N5740 X-14.347 Y2.582
N5745 X-14.332 Y2.673
N5750 X-14.313 Y2.763
N5755 X-13.991 Y4.092
N5760 X-13.966 Y4.184
N5765 X-13.936 Y4.274
N5770 X-13.457 Y5.604
N5775 X-13.423 Y5.69
N5780 X-13.385 Y5.774
N5785 X-12.82 Y6.937
N5790 X-12.779 Y7.017
N5795 X-12.733 Y7.095
N5800 X-12.027 Y8.235
N5805 X-11.935 Y8.369
N5810 X-11.666 Y8.725
N5815 X-11.643 Y8.754
N5820 X-11.014 Y9.549
N5825 X-10.956 Y9.619
N5830 X-10.894 Y9.685
N5835 X-9.952 Y10.652
N5840 X-9.884 Y10.718
N5845 X-9.812 Y10.78
N5850 X-8.724 Y11.678
N5855 X-8.652 Y11.734
N5860 X-8.578 Y11.786
N5865 G02 X-7.375 Y12.576 I12.01 J-16.987
N5870 G01 X-7.27 Y12.634
N5875 X-6.162 Y13.21
N5880 X-6.083 Y13.249
N5885 X-6.002 Y13.283
N5890 X-4.969 Y13.694
N5895 X-4.936 Y13.707
N5900 X-4.603 Y13.832
N5905 X-4.524 Y13.859
N5910 X-4.444 Y13.883
N5915 X-3.114 Y14.24
N5920 X-3.024 Y14.262
N5925 X-2.933 Y14.279
N5930 X-1.603 Y14.489
N5935 X-1.512 Y14.5
N5940 X-1.421 Y14.508
N5945 X-0.091 Y14.577
N5950 X0. Y14.579
N5955 X0.091 Y14.577
N5960 X1.421 Y14.508
N5965 X1.512 Y14.5
N5970 X1.603 Y14.489
N5975 X2.933 Y14.279
N5980 X3.024 Y14.262
N5985 X3.114 Y14.24
N5990 X4.444 Y13.883
N5995 X4.532 Y13.857
N6000 X4.619 Y13.826
N6005 G02 X6.02 Y13.276 I-12.352 J-33.545
N6010 G01 X6.162 Y13.21
N6015 X7.27 Y12.634
N6020 X7.344 Y12.594
N6025 X7.415 Y12.55
N6030 X7.934 Y12.213
N6035 X7.953 Y12.201
N6040 X8.618 Y11.757
N6045 X8.692 Y11.705
N6050 X8.763 Y11.649
N6055 X9.815 Y10.777
N6060 X9.885 Y10.716
N6065 X9.952 Y10.652
N6070 X10.884 Y9.696
N6075 G03 X11.309 Y9.692 I0.215 J0.209
N6080 G01 X15.159 Y13.487
N6085 X15.211 Y13.527
N6090 X15.269 Y13.555
N6095 X20.086 Y15.277
N6100 G03 X20.284 Y15.588 I-0.101 J0.283
N6105 X14.611 Y15.035 Z-4.313 I-2.837 J-0.277
N6110 X20.284 Y15.588 Z-4.625 I2.837 J0.277
N6115 X14.611 Y15.035 Z-4.938 I-2.837 J-0.277
N6120 X15.305 Y13.432 Z-5. I2.837 J0.277
N6125 G02 X19.5 Y6.32 I-16.673 J-14.629
N6130 X19.407 Y-6.589 I-17.571 J-6.328
N6135 X11.622 Y-16.886 I-21.32 J8.028
N6140 X4.529 Y-20.04 I-10.671 J14.448
N6145 X-3.23 Y-20.248 I-4.472 J21.996
N6150 X-15.064 Y-13.913 I2.91 J19.658
N6155 X-20.426 Y-1.607 I15.646 J14.138
N6160 X-18.695 Y8.253 I19.345 J1.687
N6165 X-12.584 Y16.181 I20.597 J-9.557
N6170 X-2.573 Y20.325 I11.718 J-14.144
N6175 X8.156 Y18.806 I2.173 J-23.289
N6180 X8.848 Y18.491 I-2.67 J-6.794
N6185 X15.305 Y13.432 I-10.216 J-19.688
N6190 X15.578 Y11.058 I-1.577 J-1.384
N6195 G03 X15.603 Y8.669 I2.191 J-1.172
N6200 G02 X11.128 Y-13.892 I-15.418 J-8.666
N6205 X-12.549 Y-12.623 I-11.117 J14.103
N6210 X-16.474 Y-6.952 I12.633 J12.938
N6215 X-17.8 Y-0.184 I14.453 J6.344
N6220 X-12.277 Y12.889 I19.475 J-0.524
N6225 X-4.01 Y17.343 I11.185 J-10.859
N6230 X5.373 Y16.97 I3.888 J-20.406
N6235 X7.925 Y15.96 I-3.328 J-12.133
N6240 X10.27 Y14.533 I-10.659 J-20.162
N6245 X15.603 Y8.669 I-10.085 J-14.53
N6250 X15.285 Y5.898 I-2.074 J-1.166
N6255 G03 X14.597 Y3.194 I2.179 J-1.994
N6260 G01 X14.665 Y2.917
N6265 X14.685 Y2.829
N6270 X14.699 Y2.741
N6275 X14.814 Y1.931
N6280 X14.817 Y1.907
N6285 X14.901 Y1.242
N6290 X14.91 Y1.156
N6295 X14.915 Y1.069
N6300 X14.951 Y-0.261
N6305 Y-0.351
N6310 X14.946 Y-0.441
N6315 X14.845 Y-1.77
N6320 X14.842 Y-1.804
N6325 X14.838 Y-1.839
N6330 X14.819 Y-2.005
N6335 X14.8 Y-2.13
N6340 X14.547 Y-3.46
N6345 X14.528 Y-3.548
N6350 X14.505 Y-3.635
N6355 G02 X14.063 Y-5.083 I-27.439 J7.573
N6360 G01 X14.013 Y-5.217
N6365 X13.488 Y-6.455
N6370 X13.451 Y-6.537
N6375 X13.409 Y-6.618
N6380 X12.756 Y-7.801
N6385 X12.711 Y-7.879
N6390 X12.661 Y-7.954
N6395 X11.87 Y-9.091
N6400 X11.788 Y-9.2
N6405 G02 X10.817 Y-10.323 I-18.039 J14.611
N6410 G01 X10.76 Y-10.386
N6415 X10.699 Y-10.446
N6420 X10.175 Y-10.938
N6425 X10.164 Y-10.949
N6430 X9.665 Y-11.409
N6435 X9.561 Y-11.497
N6440 G02 X8.324 Y-12.422 I-16.132 J20.295
N6445 G01 X8.25 Y-12.474
N6450 X8.174 Y-12.521
N6455 X7.012 Y-13.207
N6460 X6.932 Y-13.251
N6465 X6.851 Y-13.291
N6470 X5.599 Y-13.864
N6475 X5.514 Y-13.901
N6480 X5.427 Y-13.932
N6485 X4.047 Y-14.395
N6490 X3.957 Y-14.422
N6495 X3.865 Y-14.445
N6500 X2.535 Y-14.736
N6505 X2.371 Y-14.764
N6510 X1.872 Y-14.824
N6515 X1.84 Y-14.827
N6520 X0.843 Y-14.929
N6525 X0.754 Y-14.936
N6530 X0.665 Y-14.938
N6535 X-0.665
N6540 X-0.755 Y-14.936
N6545 X-0.845 Y-14.929
N6550 G02 X-2.251 Y-14.782 I2.226 J28.136
N6555 G01 X-2.417 Y-14.757
N6560 X-2.535 Y-14.736
N6565 X-3.865 Y-14.445
N6570 X-3.957 Y-14.422
N6575 X-4.047 Y-14.395
N6580 X-5.427 Y-13.932
N6585 X-5.514 Y-13.901
N6590 X-5.599 Y-13.864
N6595 X-6.851 Y-13.291
N6600 X-6.932 Y-13.251
N6605 X-7.012 Y-13.207
N6610 X-8.174 Y-12.521
N6615 X-8.25 Y-12.474
N6620 X-8.324 Y-12.422
N6625 G02 X-9.569 Y-11.491 I13.103 J18.825
N6630 G01 X-9.665 Y-11.409
N6635 G02 X-10.723 Y-10.423 I17.977 J20.348
N6640 G01 X-10.818 Y-10.322
N6645 X-11.692 Y-9.322
N6650 X-11.749 Y-9.253
N6655 X-11.802 Y-9.182
N6660 X-12.4 Y-8.337
N6665 X-12.418 Y-8.311
N6670 X-12.67 Y-7.94
N6675 X-12.756 Y-7.801
N6680 X-13.409 Y-6.618
N6685 X-13.451 Y-6.537
N6690 X-13.488 Y-6.455
N6695 X-14.013 Y-5.217
N6700 X-14.045 Y-5.135
N6705 X-14.074 Y-5.051
N6710 X-14.352 Y-4.148
N6715 X-14.358 Y-4.129
N6720 X-14.506 Y-3.63
N6725 X-14.529 Y-3.547
N6730 X-14.547 Y-3.463
N6735 X-14.685 Y-2.742
N6740 X-14.686 Y-2.735
N6745 X-14.801 Y-2.127
N6750 X-14.815 Y-2.041
N6755 X-14.824 Y-1.956
N6760 X-14.897 Y-1.125
N6765 X-14.899 Y-1.098
N6770 X-14.947 Y-0.434
N6775 X-14.951 Y-0.347
N6780 Y-0.261
N6785 X-14.915 Y1.069
N6790 X-14.91 Y1.159
N6795 X-14.901 Y1.248
N6800 G02 X-14.716 Y2.652 I28.863 J-3.086
N6805 G01 X-14.69 Y2.797
N6810 X-14.665 Y2.917
N6815 X-14.331 Y4.267
N6820 X-14.306 Y4.357
N6825 X-14.277 Y4.446
N6830 X-13.792 Y5.775
N6835 X-13.759 Y5.859
N6840 X-13.722 Y5.941
N6845 X-13.157 Y7.104
N6850 X-13.115 Y7.184
N6855 X-13.07 Y7.262
N6860 X-12.297 Y8.507
N6865 X-12.245 Y8.586
N6870 X-12.188 Y8.663
N6875 X-11.342 Y9.745
N6880 X-11.283 Y9.816
N6885 X-11.22 Y9.883
N6890 X-10.234 Y10.902
N6895 X-10.167 Y10.967
N6900 X-10.098 Y11.029
N6905 X-9.048 Y11.904
N6910 X-8.979 Y11.958
N6915 X-8.908 Y12.009
N6920 X-8.269 Y12.442
N6925 X-8.242 Y12.459
N6930 X-7.604 Y12.875
N6935 X-7.531 Y12.92
N6940 X-7.456 Y12.961
N6945 X-6.292 Y13.565
N6950 X-6.21 Y13.605
N6955 X-6.126 Y13.64
N6960 X-4.796 Y14.163
N6965 X-4.708 Y14.195
N6970 X-4.619 Y14.222
N6975 X-3.289 Y14.587
N6980 X-3.199 Y14.609
N6985 X-3.108 Y14.626
N6990 X-1.695 Y14.857
N6995 X-1.601 Y14.869
N7000 X-1.507 Y14.877
N7005 X-0.094 Y14.953
N7010 X0. Y14.955
N7015 X0.094 Y14.953
N7020 X1.507 Y14.877
N7025 X1.601 Y14.869
N7030 X1.695 Y14.857
N7035 X3.108 Y14.626
N7040 X3.199 Y14.609
N7045 X3.289 Y14.587
N7050 X4.619 Y14.222
N7055 X4.708 Y14.195
N7060 X4.796 Y14.163
N7065 X6.126 Y13.64
N7070 X6.21 Y13.605
N7075 X6.292 Y13.565
N7080 X7.456 Y12.961
N7085 X7.533 Y12.918
N7090 X7.608 Y12.872
N7095 G02 X8.925 Y11.997 I-16.259 J-25.917
N7100 G01 X9.05 Y11.902
N7105 X10.122 Y11.005
N7110 X10.191 Y10.944
N7115 X10.257 Y10.88
N7120 X11.221 Y9.883
N7125 X11.283 Y9.815
N7130 X11.342 Y9.745
N7135 X12.188 Y8.663
N7140 X12.245 Y8.586
N7145 X12.297 Y8.507
N7150 X13.07 Y7.262
N7155 X13.115 Y7.184
N7160 X13.157 Y7.104
N7165 X13.722 Y5.941
N7170 X13.759 Y5.859
N7175 X13.792 Y5.775
N7180 X14.277 Y4.446
N7185 X14.306 Y4.357
N7190 X14.331 Y4.267
N7195 X14.597 Y3.194
N7200 G03 X15.011 Y2.993 I0.291 J0.072
N7205 G01 X23.26 Y6.724
N7210 G03 X23.421 Y7.091 I-0.124 J0.273
N7215 X23.224 Y7.661 I-20.674 J-6.804
N7220 X19.553 Y14.653 I-27.03 J-9.734
N7225 X13.871 Y20.136 I-17.753 J-12.712
N7230 X-5.586 Y23.726 I-13.936 J-21.008
N7235 X-21.417 Y11.859 I5.283 J-23.54
N7240 X-23.443 Y7.056 I21.559 J-11.919
N7245 X-23.397 Y-7.456 I23.837 J-7.182
N7250 X-15.013 Y-19.3 I22.235 J6.85
N7255 X4.584 Y-24.032 I15.384 J20.764
N7260 X21.064 Y-12.421 I-3.778 J22.864
N7265 X24.318 Y-2.614 I-24.336 J13.517
N7270 X23.421 Y7.091 I-21.571 J2.9
N7275 G02 X24.044 Y9.384 I2.048 J0.674
N7280 G03 X24.52 Y11.712 I-1.302 J1.479
N7285 X-5.758 Y26.568 I-24.532 J-11.715
N7290 X-26.407 Y-6.46 I5.752 J-26.565
N7295 X9.878 Y-25.326 I26.401 J6.451
N7300 X24.52 Y11.712 I-9.89 J25.323
N7305 G02 X24.825 Y14.154 I2.059 J0.983
N7310 G03 X24.989 Y16.609 I-1.613 J1.341
N7315 G01 X24.559 Y17.296
N7320 X22.581 Y19.809
N7325 X20.404 Y22.044
N7330 X20.294 Y22.141
N7335 X17.906 Y24.119
N7340 X15.258 Y25.876
N7345 X12.387 Y27.366
N7350 X9.438 Y28.519
N7355 X6.363 Y29.358
N7360 X3.158 Y29.872
N7365 X0.001 Y30.04
N7370 X-3.215 Y29.866
N7375 X-6.362 Y29.358
N7380 X-9.437 Y28.519
N7385 X-12.433 Y27.345
N7390 X-15.258 Y25.876
N7395 X-17.906 Y24.119
N7400 X-20.339 Y22.104
N7405 X-20.708 Y21.731
N7410 X-22.63 Y19.753
N7415 X-24.596 Y17.244
N7420 X-26.281 Y14.548
N7425 X-27.69 Y11.642
N7430 X-28.764 Y8.659
N7435 X-29.512 Y5.599
N7440 X-29.944 Y2.378
N7445 X-30.026 Y-0.842
N7450 X-29.775 Y-3.981
N7455 X-29.179 Y-7.137
N7460 X-28.261 Y-10.182
N7465 X-26.998 Y-13.167
N7470 X-25.446 Y-15.962
N7475 X-23.614 Y-18.566
N7480 X-21.52 Y-20.958
N7485 X-19.164 Y-23.132
N7490 X-16.571 Y-25.053
N7495 X-13.818 Y-26.671
N7500 X-10.916 Y-27.985
N7505 X-7.933 Y-28.972
N7510 X-4.791 Y-29.655
N7515 X-1.57 Y-29.997
N7520 X1.57
N7525 X4.791 Y-29.655
N7530 X7.933 Y-28.972
N7535 X10.916 Y-27.985
N7540 X13.818 Y-26.671
N7545 X16.571 Y-25.053
N7550 X19.164 Y-23.132
N7555 X21.52 Y-20.958
N7560 X23.614 Y-18.566
N7565 X25.446 Y-15.962
N7570 X26.998 Y-13.167
N7575 X28.261 Y-10.182
N7580 X29.179 Y-7.137
N7585 X29.774 Y-3.982
N7590 X30.028 Y-0.761
N7595 X29.945 Y2.377
N7600 X29.512 Y5.599
N7605 X28.764 Y8.659
N7610 X27.69 Y11.642
N7615 X26.282 Y14.547
N7620 X24.989 Y16.609
N7625 G03 X24.568 Y16.699 I-0.254 J-0.159
N7630 G01 X19.956 Y13.608
N7635 X19.914 Y13.589
N7640 X19.87 Y13.576
N7645 X14.712 Y12.486
N7650 G03 X14.474 Y12.196 I0.062 J-0.294
N7655 X20.174 Y12.134 Z-5.313 I2.85 J-0.031
N7660 X14.474 Y12.196 Z-5.625 I-2.85 J0.031
N7665 X20.174 Y12.134 Z-5.938 I2.85 J-0.031
N7670 X19.657 Y13.803 Z-6. I-2.85 J0.031
N7675 X2.545 Y23.88 I-19.647 J-13.794
N7680 X-24.006 Y-0.617 I-2.56 J-23.863
N7685 X23.805 Y-3.164 I24.006 J0.622
N7690 X19.657 Y13.803 I-23.795 J3.173
N7695 G02 X19.566 Y16.147 I1.77 J1.243
N7700 G03 X19.298 Y18.478 I-1.67 J0.989
N7705 X18.098 Y19.655 I-19.3 J-18.479
N7710 X-21.868 Y15.352 I-18.097 J-19.663
N7715 X-26.094 Y5.93 I22.381 J-15.696
N7720 X-26.323 Y-4.394 I24.178 J-5.702
N7725 X-23.208 Y-12.949 I27.727 J5.251
N7730 X-17.567 Y-20.096 I25.395 J14.246
N7735 X-8.741 Y-25.31 I16.528 J17.899
N7740 X1.417 Y-26.682 I8.695 J26.091
N7745 X19.146 Y-18.638 I-1.423 J26.693
N7750 X19.298 Y18.478 I-19.148 J18.637
N7755 G02 X18.824 Y20.885 I1.643 J1.573
N7760 G03 X18.213 Y23.261 I-1.946 J0.766
N7765 G01 X17.635 Y23.74
N7770 X14.994 Y25.49
N7775 X12.242 Y26.919
N7780 X9.295 Y28.074
N7785 X6.278 Y28.898
N7790 X3.138 Y29.406
N7795 X0. Y29.574
N7800 X-3.138 Y29.406
N7805 X-6.278 Y28.898
N7810 X-9.295 Y28.074
N7815 X-12.242 Y26.919
N7820 X-14.994 Y25.49
N7825 X-17.635 Y23.74
N7830 X-20.029 Y21.756
N7835 X-22.243 Y19.488
N7840 X-22.264 Y19.465
N7845 X-24.205 Y16.991
N7850 X-25.885 Y14.299
N7855 X-27.252 Y11.482
N7860 X-28.325 Y8.495
N7865 X-29.068 Y5.434
N7870 X-29.477 Y2.377
N7875 X-29.562 Y-0.761
N7880 X-29.314 Y-3.902
N7885 X-29.2 Y-4.519
N7890 X-28.723 Y-7.037
N7895 X-27.824 Y-10.017
N7900 X-26.601 Y-12.92
N7905 X-25.082 Y-15.665
N7910 X-23.266 Y-18.255
N7915 X-21.191 Y-20.628
N7920 X-18.88 Y-22.762
N7925 X-16.327 Y-24.656
N7930 X-13.626 Y-26.247
N7935 X-10.75 Y-27.549
N7940 X-7.786 Y-28.53
N7945 X-4.708 Y-29.196
N7950 X-1.569 Y-29.532
N7955 X1.569
N7960 X4.708 Y-29.196
N7965 X7.786 Y-28.53
N7970 X10.75 Y-27.549
N7975 X13.626 Y-26.247
N7980 X16.327 Y-24.656
N7985 X18.88 Y-22.762
N7990 X21.191 Y-20.628
N7995 X23.266 Y-18.255
N8000 X25.082 Y-15.665
N8005 X26.601 Y-12.92
N8010 X27.824 Y-10.017
N8015 X28.723 Y-7.038
N8020 X29.314 Y-3.898
N8025 X29.562 Y-0.761
N8030 X29.477 Y2.376
N8035 X29.053 Y5.514
N8040 X28.301 Y8.574
N8045 X27.253 Y11.481
N8050 X25.885 Y14.299
N8055 X24.205 Y16.991
N8060 X22.285 Y19.438
N8065 X21.022 Y20.742
N8070 X20.03 Y21.755
N8075 X18.213 Y23.261
N8080 G03 X17.798 Y23.231 I-0.191 J-0.231
N8085 G01 X12.501 Y17.342
N8090 G03 X12.545 Y16.9 I0.223 J-0.201
N8095 G02 X16.046 Y13.493 I-10.995 J-14.802
N8100 X20.464 Y4.554 I-19.055 J-14.978
N8105 X20.253 Y-5.415 I-17.913 J-4.609
N8110 X13.68 Y-15.887 I-22.462 J6.801
N8115 X5.099 Y-20.423 I-12.842 J13.907
N8120 X-4.608 Y-20.442 I-4.895 J21.187
N8125 X-15.191 Y-14.291 I4.534 J19.981
N8130 X-20.691 Y-3.356 I16.631 J15.216
N8135 X-18.122 Y10.542 I18.998 J3.675
N8140 X-11.271 Y17.688 I20.564 J-12.857
N8145 X-1.899 Y20.878 I10.385 J-15.149
N8150 X7.977 Y19.381 I1.348 J-24.425
N8155 X12.545 Y16.9 I-6.427 J-17.282
N8160 X13.336 Y14.433 I-1.327 J-1.786
N8165 G03 X13.816 Y11.887 I2.584 J-0.831
N8170 G02 X17.404 Y5.548 I-16.79 J-13.688
N8175 X17.803 Y-4.071 I-15.095 J-5.444
N8180 X13.262 Y-12.561 I-20.578 J5.546
N8185 X7.711 Y-16.582 I-11.561 J10.117
N8190 X1.059 Y-18.237 I-8.518 J20.041
N8195 X-12.115 Y-13.727 I-1.478 J17.179
N8200 X-18.216 Y-1.21 I13.001 J14.083
N8205 X-16.653 Y7.493 I17.176 J1.408
N8210 X-11.182 Y14.441 I17.575 J-8.213
N8215 X-3.174 Y17.932 I10.496 J-13.147
N8220 X5.546 Y17.404 I3.116 J-20.831
N8225 X12.918 Y12.92 I-4.196 J-15.199
N8230 X13.816 Y11.887 I-15.892 J-14.72
N8235 X14.019 Y9.242 I-1.801 J-1.469
N8240 G03 X13.921 Y6.592 I2.416 J-1.417
N8245 G01 X14.156 Y6.113
N8250 X14.195 Y6.027
N8255 X14.229 Y5.94
N8260 X14.721 Y4.585
N8265 X14.751 Y4.496
N8270 X14.776 Y4.405
N8275 X15.137 Y2.935
N8280 X15.158 Y2.839
N8285 X15.173 Y2.743
N8290 X15.368 Y1.247
N8295 X15.377 Y1.158
N8300 X15.381 Y1.068
N8305 X15.417 Y-0.262
N8310 Y-0.352
N8315 X15.412 Y-0.442
N8320 X15.297 Y-1.938
N8325 X15.287 Y-2.031
N8330 X15.273 Y-2.123
N8335 X15.056 Y-3.287
N8340 X15.049 Y-3.323
N8345 X14.98 Y-3.656
N8350 X14.942 Y-3.806
N8355 X14.539 Y-5.136
N8360 X14.51 Y-5.223
N8365 X14.477 Y-5.308
N8370 X13.914 Y-6.644
N8375 X13.875 Y-6.73
N8380 X13.832 Y-6.815
N8385 X13.099 Y-8.134
N8390 X13.051 Y-8.214
N8395 X12.999 Y-8.292
N8400 X12.177 Y-9.459
N8405 X12.122 Y-9.533
N8410 X12.064 Y-9.603
N8415 X11.118 Y-10.684
N8420 X11.055 Y-10.753
N8425 X10.988 Y-10.817
N8430 X9.915 Y-11.809
N8435 X9.844 Y-11.871
N8440 X9.77 Y-11.929
N8445 X8.576 Y-12.814
N8450 X8.501 Y-12.867
N8455 X8.422 Y-12.916
N8460 X7.205 Y-13.633
N8465 X7.124 Y-13.677
N8470 X7.042 Y-13.718
N8475 X5.712 Y-14.322
N8480 X5.627 Y-14.358
N8485 X5.54 Y-14.39
N8490 X4.21 Y-14.833
N8495 X4.124 Y-14.859
N8500 X4.036 Y-14.881
N8505 G02 X2.499 Y-15.217 I-8.234 J33.99
N8510 G01 X2.35 Y-15.239
N8515 G02 X0.815 Y-15.398 I-4.453 J35.612
N8520 G01 X0.665 Y-15.404
N8525 X-0.665
N8530 X-0.752 Y-15.402
N8535 X-0.839 Y-15.396
N8540 X-1.836 Y-15.296
N8545 X-1.854 Y-15.294
N8550 X-2.353 Y-15.239
N8555 X-2.439 Y-15.227
N8560 X-2.525 Y-15.211
N8565 X-3.356 Y-15.035
N8570 X-3.379 Y-15.03
N8575 X-4.044 Y-14.879
N8580 X-4.128 Y-14.858
N8585 X-4.21 Y-14.833
N8590 X-5.54 Y-14.39
N8595 X-5.627 Y-14.358
N8600 X-5.712 Y-14.322
N8605 X-7.042 Y-13.718
N8610 X-7.124 Y-13.677
N8615 X-7.205 Y-13.633
N8620 X-8.422 Y-12.916
N8625 X-8.501 Y-12.867
N8630 X-8.576 Y-12.814
N8635 X-9.77 Y-11.929
N8640 X-9.844 Y-11.871
N8645 X-9.915 Y-11.809
N8650 X-10.988 Y-10.817
N8655 X-11.055 Y-10.753
N8660 X-11.118 Y-10.684
N8665 X-12.064 Y-9.603
N8670 X-12.122 Y-9.533
N8675 X-12.177 Y-9.459
N8680 X-12.999 Y-8.292
N8685 X-13.051 Y-8.214
N8690 X-13.099 Y-8.134
N8695 X-13.832 Y-6.815
N8700 X-13.875 Y-6.73
N8705 X-13.914 Y-6.644
N8710 X-14.477 Y-5.308
N8715 X-14.51 Y-5.223
N8720 X-14.539 Y-5.136
N8725 X-14.942 Y-3.806
N8730 X-14.965 Y-3.719
N8735 X-14.985 Y-3.632
N8740 G02 X-15.277 Y-2.097 I35.687 J7.597
N8745 G01 X-15.296 Y-1.947
N8750 X-15.376 Y-0.977
N8755 X-15.377 Y-0.953
N8760 X-15.413 Y-0.427
N8765 X-15.417 Y-0.261
N8770 X-15.381 Y1.083
N8775 X-15.376 Y1.173
N8780 X-15.367 Y1.263
N8785 X-15.173 Y2.744
N8790 X-15.158 Y2.84
N8795 X-15.137 Y2.935
N8800 X-14.776 Y4.405
N8805 X-14.751 Y4.496
N8810 X-14.721 Y4.585
N8815 X-14.229 Y5.94
N8820 X-14.195 Y6.027
N8825 X-14.156 Y6.113
N8830 X-13.503 Y7.442
N8835 X-13.462 Y7.522
N8840 X-13.416 Y7.599
N8845 G02 X-12.617 Y8.864 I29.379 J-17.67
N8850 G01 X-12.53 Y8.985
N8855 X-11.668 Y10.081
N8860 X-11.61 Y10.15
N8865 X-11.549 Y10.217
N8870 X-10.565 Y11.23
N8875 X-10.5 Y11.294
N8880 X-10.432 Y11.354
N8885 G02 X-9.22 Y12.36 I23.579 J-27.166
N8890 G01 X-9.096 Y12.45
N8895 X-7.95 Y13.212
N8900 X-7.872 Y13.26
N8905 X-7.792 Y13.305
N8910 X-6.463 Y14.
N8915 X-6.376 Y14.042
N8920 X-6.288 Y14.079
N8925 X-4.909 Y14.617
N8930 X-4.822 Y14.648
N8935 X-4.735 Y14.675
N8940 G02 X-3.382 Y15.043 I8.263 J-27.641
N8945 G01 X-3.216 Y15.081
N8950 X-3.104 Y15.103
N8955 X-1.774 Y15.317
N8960 X-1.684 Y15.329
N8965 X-1.593 Y15.336
N8970 X-0.096 Y15.419
N8975 X0. Y15.422
N8980 X0.096 Y15.419
N8985 X1.593 Y15.336
N8990 X1.684 Y15.329
N8995 X1.774 Y15.317
N9000 X3.104 Y15.103
N9005 X3.216 Y15.081
N9010 X3.382 Y15.043
N9015 G02 X4.788 Y14.657 I-6.646 J-26.941
N9020 G01 X4.875 Y14.63
N9025 X4.961 Y14.599
N9030 X6.291 Y14.078
N9035 X6.378 Y14.041
N9040 X6.463 Y14.
N9045 X7.792 Y13.305
N9050 X7.872 Y13.26
N9055 X7.95 Y13.212
N9060 X9.096 Y12.45
N9065 X9.17 Y12.399
N9070 X9.24 Y12.344
N9075 X10.088 Y11.646
N9080 X10.111 Y11.627
N9085 X10.444 Y11.344
N9090 X10.506 Y11.288
N9095 X10.566 Y11.229
N9100 X11.564 Y10.2
N9105 X11.625 Y10.133
N9110 X11.683 Y10.064
N9115 X12.531 Y8.984
N9120 X12.584 Y8.913
N9125 X12.633 Y8.84
N9130 X13.203 Y7.941
N9135 X13.209 Y7.931
N9140 X13.417 Y7.599
N9145 X13.462 Y7.522
N9150 X13.503 Y7.442
N9155 X13.921 Y6.592
N9160 G03 X14.31 Y6.449 I0.269 J0.132
N9165 G01 X19.423 Y8.692
N9170 X19.485 Y8.711
N9175 X19.55 Y8.717
N9180 X24.934 Y8.603
N9185 G03 X25.233 Y8.835 I0.006 J0.3
N9190 X19.68 Y10.123 Z-6.313 I-2.776 J0.644
N9195 X25.233 Y8.835 Z-6.625 I2.776 J-0.644
N9200 X19.68 Y10.123 Z-6.938 I-2.776 J0.644
N9205 X19.826 Y8.382 Z-7. I2.776 J-0.644
N9210 G02 X21.499 Y-2.371 I-21.062 J-8.784
N9215 X13.33 Y-17.005 I-20.351 J1.763
N9220 X0.388 Y-21.544 I-13.762 J18.524
N9225 X-12.708 Y-17.468 I-0.736 J20.711
N9230 X-19.863 Y-8.252 I12.966 J17.452
N9235 X-21.348 Y3.32 I20.936 J8.57
N9240 X-18.735 Y10.903 I20.127 J-2.695
N9245 X-13.429 Y16.918 I18.12 J-10.634
N9250 X2.306 Y21.505 I13.739 J-17.851
N9255 X16.714 Y13.69 I-1.829 J-20.562
N9260 X19.826 Y8.382 I-17.949 J-14.092
N9265 X19.291 Y5.896 I-2.058 J-0.858
N9270 G03 X18.509 Y3.475 I1.79 J-1.915
N9275 G02 X18.823 Y-2.013 I-19.755 J-3.884
N9280 X11.72 Y-14.838 I-17.681 J1.413
N9285 X0.388 Y-18.844 I-12.159 J16.366
N9290 X-11.097 Y-15.301 I-0.731 J18.018
N9295 X-17.375 Y-7.203 I11.356 J15.285
N9300 X-18.672 Y2.962 I18.45 J7.52
N9305 X-16.397 Y9.552 I17.452 J-2.337
N9310 X-11.782 Y14.779 I15.783 J-9.284
N9315 X1.97 Y18.826 I12.097 J-15.718
N9320 X14.59 Y12.023 I-1.499 J-17.887
N9325 X18.509 Y3.475 I-15.835 J-12.432
N9330 X17.418 Y1.046 I-2.26 J-0.444
N9335 G03 X16.005 Y-1.211 I1.464 J-2.487
N9340 G01 X15.959 Y-1.777
N9345 X15.947 Y-1.889
N9350 G02 X15.547 Y-4.021 I-18.375 J2.343
N9355 G01 X15.517 Y-4.137
N9360 X15.307 Y-4.832
N9365 X15.298 Y-4.862
N9370 X15.094 Y-5.496
N9375 X15.038 Y-5.646
N9380 X14.472 Y-6.976
N9385 X14.434 Y-7.06
N9390 X14.391 Y-7.142
N9395 X13.651 Y-8.471
N9400 X13.605 Y-8.549
N9405 X13.555 Y-8.624
N9410 X13.07 Y-9.317
N9415 X13.049 Y-9.345
N9420 X12.584 Y-9.982
N9425 X12.488 Y-10.102
N9430 X11.624 Y-11.089
N9435 X11.566 Y-11.153
N9440 X11.504 Y-11.213
N9445 X10.84 Y-11.837
N9450 X10.829 Y-11.847
N9455 X10.415 Y-12.229
N9460 X10.326 Y-12.306
N9465 G02 X8.631 Y-13.538 I-12.33 J15.174
N9470 G01 X8.535 Y-13.6
N9475 G02 X5.653 Y-15.029 I-8.726 J13.982
N9480 G01 X5.537 Y-15.074
N9485 X4.872 Y-15.294
N9490 X4.843 Y-15.303
N9495 X4.178 Y-15.511
N9500 X4.027 Y-15.55
N9505 X2.697 Y-15.838
N9510 X2.609 Y-15.854
N9515 X2.521 Y-15.866
N9520 X1.191 Y-16.014
N9525 X1.064 Y-16.024
N9530 G02 X-1.149 Y-16.016 I-1.041 J18.279
N9535 G01 X-1.265 Y-16.006
N9540 X-2.521 Y-15.866
N9545 X-2.609 Y-15.854
N9550 X-2.697 Y-15.838
N9555 X-4.027 Y-15.55
N9560 X-4.182 Y-15.51
N9565 X-4.937 Y-15.272
N9570 X-4.963 Y-15.264
N9575 X-5.537 Y-15.074
N9580 X-5.653 Y-15.031
N9585 G02 X-8.535 Y-13.6 I5.951 J15.602
N9590 G01 X-8.635 Y-13.536
N9595 G02 X-10.327 Y-12.308 I11.655 J17.82
N9600 G01 X-10.415 Y-12.229
N9605 X-11.135 Y-11.565
N9610 X-11.154 Y-11.546
N9615 X-11.513 Y-11.204
N9620 X-11.624 Y-11.089
N9625 X-12.488 Y-10.102
N9630 X-12.584 Y-9.981
N9635 X-13.07 Y-9.316
N9640 X-13.09 Y-9.289
N9645 X-13.555 Y-8.624
N9650 X-13.605 Y-8.549
N9655 X-13.651 Y-8.471
N9660 X-14.391 Y-7.142
N9665 X-14.434 Y-7.06
N9670 X-14.472 Y-6.976
N9675 X-15.038 Y-5.646
N9680 X-15.095 Y-5.495
N9685 X-15.307 Y-4.83
N9690 X-15.316 Y-4.802
N9695 X-15.517 Y-4.137
N9700 X-15.547 Y-4.021
N9705 G02 X-15.947 Y-1.89 I18.231 J4.522
N9710 G01 X-15.959 Y-1.777
N9715 G02 X-16.061 Y-0.403 I28.223 J2.776
N9720 G01 X-16.063 Y-0.261
N9725 X-16.027 Y1.068
N9730 X-16.017 Y1.22
N9735 G02 X-15.314 Y4.829 I16.988 J-1.433
N9740 G01 X-15.278 Y4.948
N9745 X-15.041 Y5.604
N9750 X-15.03 Y5.633
N9755 X-14.777 Y6.297
N9760 X-14.711 Y6.449
N9765 X-14.056 Y7.778
N9770 X-14.015 Y7.856
N9775 X-13.97 Y7.932
N9780 X-13.554 Y8.597
N9785 X-13.537 Y8.623
N9790 X-13.103 Y9.29
N9795 X-13.013 Y9.416
N9800 G02 X-10.86 Y11.835 I14.008 J-10.304
N9805 G01 X-10.759 Y11.929
N9810 G02 X-9.364 Y13.044 I16.517 J-19.242
N9815 G01 X-9.262 Y13.116
N9820 X-8.258 Y13.781
N9825 X-8.182 Y13.829
N9830 X-8.103 Y13.873
N9835 X-6.833 Y14.537
N9840 X-6.709 Y14.596
N9845 G02 X-4.881 Y15.299 I9.087 J-20.886
N9850 G01 X-4.749 Y15.341
N9855 X-3.447 Y15.692
N9860 X-3.36 Y15.713
N9865 X-3.272 Y15.729
N9870 X-1.942 Y15.944
N9875 X-1.795 Y15.962
N9880 G02 X0.176 Y16.068 I2.359 J-25.373
N9885 X1.795 Y15.962 I-2.265 J-46.832
N9890 G01 X1.942 Y15.944
N9895 X3.272 Y15.729
N9900 X3.36 Y15.713
N9905 X3.447 Y15.692
N9910 X4.777 Y15.334
N9915 X4.915 Y15.29
N9920 G02 X6.71 Y14.597 I-8.165 J-23.807
N9925 G01 X6.833 Y14.537
N9930 X8.103 Y13.873
N9935 X8.182 Y13.829
N9940 X8.258 Y13.781
N9945 X9.278 Y13.106
N9950 X9.381 Y13.032
N9955 G02 X10.759 Y11.929 I-15.655 J-20.965
N9960 G01 X10.862 Y11.837
N9965 G02 X13.016 Y9.415 I-12.273 J-13.083
N9970 G01 X13.111 Y9.278
N9975 X13.775 Y8.244
N9980 X13.785 Y8.227
N9985 X13.97 Y7.932
N9990 X14.015 Y7.856
N9995 X14.056 Y7.778
N10000 X14.711 Y6.449
N10005 X14.777 Y6.297
N10010 X15.03 Y5.633
N10015 X15.041 Y5.604
N10020 X15.281 Y4.939
N10025 X15.319 Y4.819
N10030 G02 X16.014 Y1.22 I-16.177 J-4.988
N10035 G01 X16.027 Y1.068
N10040 X16.063 Y-0.261
N10045 X16.059 Y-0.427
N10050 X16.014 Y-1.092
N10055 X16.013 Y-1.112
N10060 X16.005 Y-1.211
N10065 G03 X16.22 Y-1.523 I0.299 J-0.024
N10070 G01 X22.833 Y-3.436
N10075 G03 X23.214 Y-3.182 I0.083 J0.288
N10080 X23.355 Y-0.411 I-21.224 J2.47
N10085 X21.08 Y9.787 I-25.61 J-0.362
N10090 X14.74 Y18.092 I-21.142 J-9.567
N10095 X-23.356 Y-0.687 I-14.842 J-17.921
N10100 X-10.722 Y-20.695 I23.626 J0.925
N10105 X12.911 Y-19.478 I10.789 J20.548
N10110 X20.563 Y-11.276 I-13.408 J20.181
N10115 X23.214 Y-3.182 I-18.573 J10.564
N10120 G02 X24.656 Y-1.441 I2.062 J-0.24
N10125 G03 X25.972 Y0.397 I-0.561 J1.792
N10130 X20.88 Y15.49 I-26.891 J-0.667
N10135 X1.622 Y25.986 I-20.612 J-14.902
N10140 X-18.129 Y18.707 I-1.417 J-26.59
N10145 X-26.056 Y-0.793 I17.566 J-18.502
N10150 X-25.825 Y-3.401 I26.63 J1.043
N10155 X-25.367 Y-5.979 I33.938 J4.693
N10160 X-11.166 Y-23.524 I24.518 J5.325
N10165 X11.292 Y-23.479 I11.18 J24.639
N10170 X25.367 Y-5.979 I-10.47 J22.831
N10175 X25.972 Y0.397 I-26.286 J5.709
N10180 G02 X27.295 Y2.572 I2.353 J0.058
N10185 G03 X28.499 Y4.816 I-0.951 J1.955
N10190 G01 X28.427 Y5.35
N10195 X27.806 Y7.899
N10200 X27.651 Y8.473
N10205 X26.646 Y11.257
N10210 X25.373 Y13.876
N10215 X25.252 Y14.101
N10220 X23.667 Y16.632
N10225 X22.168 Y18.542
N10230 X21.686 Y19.134
N10235 X19.743 Y21.13
N10240 X19.149 Y21.647
N10245 X17.241 Y23.226
N10250 X14.735 Y24.889
N10255 X12.204 Y26.212
N10260 X11.625 Y26.47
N10265 X9.091 Y27.461
N10270 X6.544 Y28.156
N10275 X5.969 Y28.297
N10280 X3.416 Y28.708
N10285 X2.843 Y28.775
N10290 X0.286 Y28.912
N10295 X-0.286
N10300 X-2.843 Y28.775
N10305 X-3.416 Y28.708
N10310 X-5.969 Y28.297
N10315 X-6.544 Y28.156
N10320 X-9.091 Y27.461
N10325 X-11.625 Y26.47
N10330 X-12.204 Y26.212
N10335 X-14.735 Y24.889
N10340 X-17.241 Y23.226
N10345 X-19.176 Y21.624
N10350 X-19.742 Y21.131
N10355 X-21.685 Y19.135
N10360 X-22.237 Y18.453
N10365 X-23.667 Y16.632
N10370 X-25.252 Y14.101
N10375 X-25.373 Y13.876
N10380 X-26.646 Y11.257
N10385 X-27.651 Y8.473
N10390 X-27.806 Y7.899
N10395 X-28.427 Y5.35
N10400 X-28.769 Y2.797
N10405 X-28.837 Y2.225
N10410 X-28.905 Y-0.333
N10415 X-28.906 Y-0.904
N10420 X-28.701 Y-3.46
N10425 X-28.635 Y-4.032
N10430 X-28.154 Y-6.584
N10435 X-28.012 Y-7.158
N10440 X-27.245 Y-9.701
N10445 X-27.015 Y-10.279
N10450 X-26.019 Y-12.638
N10455 X-24.528 Y-15.333
N10460 X-22.769 Y-17.839
N10465 X-20.981 Y-19.888
N10470 X-20.559 Y-20.333
N10475 X-18.497 Y-22.237
N10480 X-15.986 Y-24.108
N10485 X-13.474 Y-25.588
N10490 X-12.662 Y-25.975
N10495 X-10.938 Y-26.757
N10500 X-10.359 Y-26.999
N10505 X-7.718 Y-27.872
N10510 X-7.255 Y-27.985
N10515 X-4.693 Y-28.539
N10520 X-4.121 Y-28.61
N10525 X-1.569 Y-28.883
N10530 X1.569
N10535 X4.121 Y-28.61
N10540 X4.693 Y-28.539
N10545 X7.255 Y-27.985
N10550 X7.718 Y-27.872
N10555 X10.359 Y-26.999
N10560 X10.938 Y-26.757
N10565 X12.888 Y-25.872
N10570 X13.469 Y-25.591
N10575 X15.986 Y-24.108
N10580 X18.497 Y-22.237
N10585 X20.559 Y-20.333
N10590 X20.981 Y-19.888
N10595 X22.769 Y-17.839
N10600 X24.528 Y-15.333
N10605 X26.019 Y-12.638
N10610 X27.015 Y-10.279
N10615 X27.245 Y-9.701
N10620 X28.012 Y-7.158
N10625 X28.154 Y-6.584
N10630 X28.635 Y-4.032
N10635 X28.701 Y-3.46
N10640 X28.906 Y-0.904
N10645 X28.905 Y-0.333
N10650 X28.837 Y2.225
N10655 X28.769 Y2.797
N10660 X28.499 Y4.816
N10665 G03 X28.148 Y5.071 I-0.297 J-0.04
N10670 G01 X22.898 Y4.124
N10675 X22.852 Y4.122
N10680 X22.806 Y4.128
N10685 X17.841 Y5.109
N10690 G03 X17.508 Y4.935 I-0.058 J-0.294
N10695 X22.733 Y2.656 Z-7.313 I2.612 J-1.139
N10700 X17.508 Y4.935 Z-7.625 I-2.612 J1.139
N10705 X22.733 Y2.656 Z-7.938 I2.612 J-1.139
N10710 X22.907 Y4.395 Z-8. I-2.612 J1.139
N10715 X22.773 Y4.979 I-21.079 J-4.533
N10720 X18.847 Y13.62 I-24.825 J-6.065
N10725 X11.888 Y20.074 I-18.627 J-13.107
N10730 X2.447 Y23.245 I-12.026 J-20.161
N10735 X-7.447 Y22.11 I-2.462 J-22.223
N10740 X-21.02 Y10.136 I8.028 J-22.781
N10745 X-21.943 Y-7.941 I20.172 J-10.092
N10750 X0.326 Y-23.303 I22.242 J8.419
N10755 X10.388 Y-20.934 I-0.021 J22.631
N10760 X18.379 Y-14.377 I-10.306 J20.71
N10765 X22.786 Y-5.201 I-19.25 J14.891
N10770 X22.907 Y4.395 I-20.959 J5.062
N10775 G02 X23.569 Y6.08 I1.599 J0.344
N10780 G03 X24.146 Y7.797 I-0.871 J1.248
N10785 X22.222 Y12.21 I-23.416 J-7.581
N10790 X12.913 Y21.792 I-22.522 J-12.569
N10795 X2.646 Y25.236 I-13.053 J-21.884
N10800 X-8.112 Y23.998 I-2.663 J-24.208
N10805 X-19.272 Y16.528 I8.985 J-25.495
N10810 X-24.947 Y4.356 I17.288 J-15.468
N10815 X-24.49 Y-6.125 I28.05 J-4.027
N10820 X-19.97 Y-15.593 I23.876 J5.584
N10825 X-7.57 Y-24.241 I20.138 J15.66
N10830 X7.548 Y-24.156 I7.427 J23.334
N10835 X20.084 Y-15.245 I-8.214 J24.829
N10840 X25.322 Y-0.785 I-20.199 J15.496
N10845 X24.146 Y7.797 I-24.592 J1.001
N10850 G02 X24.762 Y10.146 I2.142 J0.694
N10855 G03 X25.213 Y12.532 I-1.38 J1.496
N10860 G01 X24.723 Y13.538
N10865 X24.407 Y14.07
N10870 X23.199 Y16.001
N10875 X22.87 Y16.462
N10880 X21.273 Y18.497
N10885 X21.008 Y18.782
N10890 X19.093 Y20.742
N10895 X17.194 Y22.317
N10900 X16.602 Y22.772
N10905 X14.548 Y24.135
N10910 X14.109 Y24.397
N10915 X12.168 Y25.405
N10920 X11.587 Y25.699
N10925 X9.06 Y26.687
N10930 X8.484 Y26.869
N10935 X5.947 Y27.559
N10940 X3.405 Y27.969
N10945 X2.833 Y28.043
N10950 X0.286 Y28.179
N10955 X-0.286
N10960 X-2.833 Y28.043
N10965 X-3.405 Y27.969
N10970 X-5.947 Y27.559
N10975 X-8.484 Y26.869
N10980 X-9.06 Y26.687
N10985 X-11.582 Y25.701
N10990 X-12.829 Y25.062
N10995 X-14.109 Y24.397
N11000 X-14.548 Y24.135
N11005 X-16.6 Y22.774
N11010 X-17.266 Y22.257
N11015 X-19.093 Y20.742
N11020 X-21.008 Y18.782
N11025 X-21.273 Y18.497
N11030 X-22.87 Y16.462
N11035 X-23.199 Y16.001
N11040 X-24.405 Y14.075
N11045 X-24.746 Y13.491
N11050 X-25.981 Y10.948
N11055 X-26.883 Y8.445
N11060 X-27.06 Y7.869
N11065 X-27.679 Y5.332
N11070 X-27.768 Y4.761
N11075 X-28.105 Y2.213
N11080 X-28.173 Y-0.33
N11085 X-28.172 Y-0.901
N11090 X-27.968 Y-3.447
N11095 X-27.892 Y-4.019
N11100 X-27.414 Y-6.559
N11105 X-27.244 Y-7.17
N11110 X-26.593 Y-9.33
N11115 X-26.482 Y-9.659
N11120 X-25.354 Y-12.331
N11125 X-24.042 Y-14.701
N11130 X-23.668 Y-15.287
N11135 X-22.223 Y-17.344
N11140 X-21.619 Y-18.047
N11145 X-20.176 Y-19.691
N11150 X-18.117 Y-21.592
N11155 X-17.869 Y-21.798
N11160 X-15.639 Y-23.455
N11165 X-15.385 Y-23.613
N11170 X-13.428 Y-24.766
N11175 X-12.845 Y-25.088
N11180 X-10.329 Y-26.23
N11185 X-9.088 Y-26.648
N11190 X-7.419 Y-27.201
N11195 X-4.526 Y-27.826
N11200 X-1.565 Y-28.147
N11205 X0.331 Y-28.154
N11210 X1.563 Y-28.147
N11215 X4.526 Y-27.826
N11220 X7.419 Y-27.201
N11225 X9.748 Y-26.43
N11230 X10.325 Y-26.232
N11235 X12.842 Y-25.09
N11240 X13.516 Y-24.714
N11245 X15.385 Y-23.613
N11250 X15.639 Y-23.455
N11255 X17.869 Y-21.798
N11260 X18.117 Y-21.592
N11265 X20.176 Y-19.691
N11270 X21.856 Y-17.777
N11275 X22.22 Y-17.348
N11280 X23.668 Y-15.287
N11285 X24.042 Y-14.701
N11290 X25.354 Y-12.331
N11295 X26.482 Y-9.659
N11300 X26.593 Y-9.33
N11305 X27.255 Y-7.135
N11310 X27.413 Y-6.56
N11315 X27.892 Y-4.019
N11320 X27.968 Y-3.447
N11325 X28.172 Y-0.901
N11330 X28.173 Y-0.33
N11335 X28.105 Y2.213
N11340 X27.768 Y4.761
N11345 X27.679 Y5.332
N11350 X27.06 Y7.869
N11355 X26.884 Y8.445
N11360 X25.969 Y10.975
N11365 X25.213 Y12.532
N11370 G03 X24.851 Y12.686 I-0.27 J-0.131
N11375 G01 X19.084 Y10.841
N11380 G03 X18.912 Y10.411 I0.091 J-0.286
N11385 G02 X20.079 Y-8.054 I-19.065 J-10.474
N11390 X12.295 Y-17.882 I-20.17 J7.98
N11395 X0.332 Y-21.633 I-11.963 J17.199
N11400 X-20.023 Y-8.192 J22.134
N11405 X-15.745 Y15.012 I19.783 J8.349
N11410 X7.226 Y20.4 I15.63 J-14.973
N11415 X18.912 Y10.411 I-7.379 J-20.463
N11420 X18.738 Y8.65 I-1.371 J-0.753
N11425 G03 X18.433 Y6.908 I1.347 J-1.134
N11430 G02 X19.411 Y2.962 I-17.41 J-6.408
N11435 X14.963 Y-12.54 I-19.933 J-2.669
N11440 X0.478 Y-19.63 I-15.104 J12.516
N11445 X-10.502 Y-16.704 I-0.622 J19.729
N11450 X-17.899 Y-8.079 I9.787 J15.878
N11455 X-19.249 Y3.184 I18.9 J7.978
N11460 X-14.339 Y13.41 I19.794 J-3.212
N11465 X4.867 Y19.022 I14.157 J-12.782
N11470 X14.56 Y13.184 I-5.466 J-20.042
N11475 X18.433 Y6.908 I-13.537 J-12.685
N11480 X17.737 Y4.239 I-2.266 J-0.834
N11485 G03 X16.705 Y1.681 I1.944 J-2.272
N11490 G01 X16.752 Y1.189
N11495 X16.76 Y1.068
N11500 X16.795 Y-0.261
N11505 Y-0.348
N11510 X16.791 Y-0.435
N11515 X16.694 Y-1.764
N11520 G02 X16.581 Y-2.635 I-12.13 J1.135
N11525 G01 X16.323 Y-3.964
N11530 X16.304 Y-4.051
N11535 X16.281 Y-4.137
N11540 X15.88 Y-5.466
N11545 X15.832 Y-5.605
N11550 G02 X15.244 Y-7.041 I-32.709 J12.555
N11555 G01 X15.194 Y-7.149
N11560 G02 X12.29 Y-11.443 I-15.586 J7.411
N11565 G01 X12.2 Y-11.535
N11570 G02 X10.761 Y-12.9 I-19.759 J19.397
N11575 G01 X10.693 Y-12.959
N11580 X10.622 Y-13.014
N11585 X9.354 Y-13.954
N11590 X9.279 Y-14.006
N11595 X9.202 Y-14.055
N11600 X7.872 Y-14.84
N11605 X7.792 Y-14.884
N11610 X7.711 Y-14.924
N11615 X6.381 Y-15.533
N11620 X6.248 Y-15.588
N11625 G02 X4.018 Y-16.303 I-7.174 J18.541
N11630 G01 X2.688 Y-16.581
N11635 X2.601 Y-16.597
N11640 X2.513 Y-16.609
N11645 X1.184 Y-16.751
N11650 X1.053 Y-16.76
N11655 G02 X-1.053 I-1.053 J22.744
N11660 G01 X-1.184 Y-16.751
N11665 X-2.513 Y-16.609
N11670 X-2.601 Y-16.597
N11675 X-2.688 Y-16.581
N11680 X-4.018 Y-16.301
N11685 G02 X-6.247 Y-15.585 I4.536 J17.96
N11690 G01 X-6.381 Y-15.533
N11695 X-7.711 Y-14.924
N11700 X-7.792 Y-14.884
N11705 X-7.872 Y-14.84
N11710 X-9.202 Y-14.055
N11715 X-9.281 Y-14.005
N11720 X-9.358 Y-13.951
N11725 X-10.688 Y-12.96
N11730 X-10.759 Y-12.903
N11735 X-10.828 Y-12.843
N11740 G02 X-12.209 Y-11.525 I19.313 J21.613
N11745 G01 X-12.297 Y-11.431
N11750 G02 X-15.826 Y-5.603 I12.391 J11.485
N11755 G01 X-15.88 Y-5.466
N11760 X-16.281 Y-4.137
N11765 X-16.304 Y-4.051
N11770 X-16.323 Y-3.964
N11775 X-16.581 Y-2.635
N11780 G02 X-16.707 Y-1.609 I10.62 J1.826
N11785 G01 X-16.791 Y-0.433
N11790 X-16.795 Y-0.347
N11795 Y-0.261
N11800 X-16.76 Y1.068
N11805 X-16.751 Y1.204
N11810 G02 X-16.463 Y3.312 I22.499 J-1.998
N11815 G01 X-16.437 Y3.434
N11820 X-16.11 Y4.763
N11825 X-16.086 Y4.85
N11830 X-16.057 Y4.936
N11835 X-15.58 Y6.266
N11840 X-15.528 Y6.396
N11845 G02 X-14.415 Y8.603 I16.743 J-7.056
N11850 G01 X-13.782 Y9.605
N11855 X-13.732 Y9.679
N11860 X-13.679 Y9.751
N11865 X-12.902 Y10.742
N11870 X-12.824 Y10.836
N11875 G02 X-11.531 Y12.213 I19.439 J-16.943
N11880 G01 X-11.471 Y12.272
N11885 X-11.408 Y12.329
N11890 X-10.622 Y12.993
N11895 X-10.604 Y13.008
N11900 X-10.089 Y13.432
N11905 X-10.017 Y13.488
N11910 X-9.942 Y13.541
N11915 X-8.572 Y14.446
N11920 X-8.495 Y14.495
N11925 X-8.415 Y14.539
N11930 X-7.125 Y15.21
N11935 X-6.981 Y15.277
N11940 G02 X-5.232 Y15.964 I14.021 J-33.123
N11945 G01 X-5.099 Y16.004
N11950 G02 X-3.402 Y16.445 I8.414 J-28.907
N11955 G01 X-3.27 Y16.472
N11960 X-1.941 Y16.686
N11965 X-1.857 Y16.697
N11970 X-1.774 Y16.704
N11975 G02 X1.795 Y16.701 I1.767 J-18.851
N11980 G01 X1.941 Y16.686
N11985 X3.27 Y16.472
N11990 X3.402 Y16.445
N11995 G02 X5.099 Y16.004 I-6.716 J-29.342
N12000 G01 X5.232 Y15.962
N12005 G02 X6.995 Y15.269 I-10.316 J-28.82
N12010 G01 X7.139 Y15.203
N12015 X8.457 Y14.515
N12020 X8.537 Y14.471
N12025 X8.615 Y14.422
N12030 X9.945 Y13.539
N12035 X10.019 Y13.487
N12040 X10.09 Y13.431
N12045 X10.755 Y12.883
N12050 X10.781 Y12.861
N12055 X11.446 Y12.291
N12060 X11.561 Y12.183
N12065 G02 X12.827 Y10.832 I-16.47 J-16.708
N12070 G01 X12.902 Y10.742
N12075 X13.679 Y9.751
N12080 X13.733 Y9.679
N12085 X13.782 Y9.605
N12090 G02 X14.884 Y7.77 I-16.802 J-11.333
N12095 X15.528 Y6.396 I-26.11 J-13.079
N12100 G01 X15.58 Y6.266
N12105 X16.057 Y4.936
N12110 X16.086 Y4.85
N12115 X16.11 Y4.763
N12120 X16.437 Y3.434
N12125 X16.462 Y3.312
N12130 G02 X16.705 Y1.681 I-21.724 J-4.07
N12135 G03 X17.029 Y1.411 I0.298 J0.029
N12140 G01 X21.355 Y1.775
N12145 X21.421 Y1.773
N12150 X21.485 Y1.757
N12155 X25.398 Y0.299
N12160 G03 X25.76 Y0.424 I0.105 J0.281
N12165 X20.885 Y3.379 Z-8.313 I-2.437 J1.477
N12170 X25.76 Y0.424 Z-8.625 I2.437 J-1.477
N12175 X20.885 Y3.379 Z-8.938 I-2.437 J1.477
N12180 X20.481 Y1.679 Z-9. I2.437 J-1.477
N12185 G02 X20.147 Y-4.495 I-23.371 J-1.83
N12190 X17.112 Y-11.539 I-17.234 J3.25
N12195 X11.72 Y-16.994 I-20.469 J14.838
N12200 X0.19 Y-20.663 I-11.105 J14.947
N12205 X-11.406 Y-17.208 I0.524 J22.948
N12210 X-19.099 Y-8.048 I10.164 J16.346
N12215 X-20.288 Y3.855 I19.867 J7.995
N12220 X-16.389 Y12.479 I19.489 J-3.617
N12225 X-9.103 Y18.52 I17.609 J-13.826
N12230 X5.812 Y19.906 I9.161 J-17.629
N12235 X17.636 Y10.708 I-6.042 J-19.964
N12240 X20.291 Y3.338 I-17.184 J-10.356
N12245 X20.481 Y1.679 I-23.181 J-3.489
N12250 X19.18 Y-0.591 I-2.315 J-0.181
N12255 G03 X17.59 Y-2.67 I1.271 J-2.618
N12260 G01 X17.346 Y-3.967
N12265 X17.315 Y-4.103
N12270 G02 X16.686 Y-6.18 I-25.541 J6.6
N12275 G01 X16.638 Y-6.306
N12280 X16.077 Y-7.636
N12285 X16.042 Y-7.713
N12290 X16.004 Y-7.788
N12295 X15.644 Y-8.453
N12300 X15.635 Y-8.469
N12305 X15.162 Y-9.322
N12310 X15.117 Y-9.399
N12315 X15.067 Y-9.474
N12320 X14.273 Y-10.614
N12325 X14.205 Y-10.706
N12330 G02 X12.954 Y-12.197 I-17.606 J13.497
N12335 G01 X12.854 Y-12.303
N12340 G02 X11.494 Y-13.588 I-28.456 J28.736
N12345 G01 X11.427 Y-13.647
N12350 X11.358 Y-13.702
N12355 X10.028 Y-14.701
N12360 X9.891 Y-14.793
N12365 G02 X8.233 Y-15.78 I-22.761 J36.388
N12370 G01 X8.155 Y-15.822
N12375 X8.075 Y-15.861
N12380 X6.61 Y-16.526
N12385 X6.527 Y-16.561
N12390 X6.442 Y-16.592
N12395 X4.877 Y-17.115
N12400 X4.72 Y-17.159
N12405 G02 X2.636 Y-17.597 I-6.896 J27.643
N12410 G01 X2.513 Y-17.613
N12415 X1.183 Y-17.755
N12420 X1.038 Y-17.765
N12425 G02 X-1.038 I-1.038 J30.587
N12430 G01 X-1.183 Y-17.755
N12435 X-2.513 Y-17.613
N12440 X-2.636 Y-17.596
N12445 G02 X-4.722 Y-17.157 I4.271 J25.505
N12450 G01 X-4.877 Y-17.115
N12455 X-6.442 Y-16.592
N12460 X-6.527 Y-16.561
N12465 X-6.61 Y-16.526
N12470 X-8.075 Y-15.861
N12475 X-8.156 Y-15.822
N12480 X-8.234 Y-15.779
N12485 G02 X-9.901 Y-14.788 I17.062 J30.582
N12490 G01 X-10.028 Y-14.701
N12495 X-11.358 Y-13.702
N12500 X-11.427 Y-13.647
N12505 X-11.494 Y-13.588
N12510 G02 X-12.858 Y-12.298 I23.696 J26.427
N12515 G01 X-12.954 Y-12.197
N12520 G02 X-14.205 Y-10.705 I16.205 J14.864
N12525 G01 X-14.273 Y-10.614
N12530 X-15.067 Y-9.474
N12535 X-15.117 Y-9.399
N12540 X-15.162 Y-9.322
N12545 X-15.827 Y-8.123
N12550 X-15.845 Y-8.09
N12555 X-16.013 Y-7.771
N12560 X-16.077 Y-7.636
N12565 X-16.638 Y-6.306
N12570 X-16.685 Y-6.18
N12575 G02 X-17.314 Y-4.103 I24.619 J8.589
N12580 G01 X-17.346 Y-3.967
N12585 X-17.599 Y-2.626
N12590 X-17.619 Y-2.49
N12595 G02 X-17.791 Y-0.414 I29.071 J3.449
N12600 G01 X-17.794 Y-0.261
N12605 X-17.759 Y1.068
N12610 X-17.752 Y1.182
N12615 G02 X-17.498 Y3.255 I23.845 J-1.863
N12620 G01 X-17.484 Y3.343
N12625 X-17.465 Y3.43
N12630 X-17.141 Y4.76
N12635 G02 X-16.375 Y6.963 I20.191 J-5.786
N12640 G01 X-16.317 Y7.105
N12645 X-15.67 Y8.434
N12650 X-15.593 Y8.576
N12655 G02 X-14.345 Y10.526 I19.413 J-11.047
N12660 G01 X-13.649 Y11.408
N12665 X-13.568 Y11.504
N12670 G02 X-12.225 Y12.932 I21.701 J-19.065
N12675 G01 X-12.106 Y13.043
N12680 X-11.389 Y13.654
N12685 X-11.371 Y13.669
N12690 X-10.759 Y14.177
N12695 X-10.659 Y14.254
N12700 G02 X-9.279 Y15.182 I14.733 J-20.419
N12705 G01 X-9.161 Y15.254
N12710 G02 X-6.948 Y16.377 I10.602 J-18.147
N12715 G01 X-5.617 Y16.888
N12720 X-5.533 Y16.918
N12725 X-5.448 Y16.944
N12730 X-4.019 Y17.334
N12735 X-3.891 Y17.364
N12740 G02 X-1.934 Y17.693 I5.769 J-28.304
N12745 G01 X-1.845 Y17.705
N12750 X-1.756 Y17.712
N12755 G02 X-0.332 Y17.786 I1.978 J-24.286
N12760 X0.426 Y17.783 I0.336 J-13.292
N12765 G01 X1.756 Y17.712
N12770 X1.845 Y17.705
N12775 X1.934 Y17.693
N12780 G02 X3.891 Y17.364 I-3.815 J-28.654
N12785 G01 X4.019 Y17.334
N12790 X5.448 Y16.944
N12795 X5.533 Y16.918
N12800 X5.617 Y16.888
N12805 X6.947 Y16.375
N12810 G02 X9.159 Y15.251 I-7.722 J-17.934
N12815 G01 X9.279 Y15.182
N12820 G02 X10.659 Y14.254 I-13.423 J-21.452
N12825 G01 X10.759 Y14.177
N12830 X11.424 Y13.626
N12835 X11.443 Y13.61
N12840 X12.108 Y13.042
N12845 X12.225 Y12.932
N12850 G02 X13.603 Y11.46 I-18.135 J-18.363
N12855 G01 X13.678 Y11.371
N12860 G02 X15.589 Y8.569 I-13.449 J-11.223
N12865 G01 X15.67 Y8.434
N12870 X16.317 Y7.105
N12875 X16.379 Y6.96
N12880 G02 X17.143 Y4.76 I-21.653 J-8.747
N12885 G01 X17.465 Y3.43
N12890 X17.484 Y3.343
N12895 X17.498 Y3.255
N12900 G02 X17.752 Y1.182 I-23.61 J-3.938
N12905 G01 X17.759 Y1.068
N12910 X17.794 Y-0.261
N12915 X17.791 Y-0.414
N12920 G02 X17.62 Y-2.49 I-30.48 J1.476
N12925 G01 X17.599 Y-2.626
N12930 X17.59 Y-2.67
N12935 G03 X17.866 Y-3.025 I0.295 J-0.056
N12940 G01 X23.76 Y-3.402
N12945 G03 X24.077 Y-3.145 I0.019 J0.299
N12950 X23.309 Y7.006 I-23.412 J3.334
N12955 X11.252 Y21.545 I-23.226 J-6.992
N12960 X-7.57 Y23.129 I-11.313 J-21.809
N12965 X-23.628 Y-5.831 I7.392 J-23.031
N12970 X-19.879 Y-14.079 I24.53 J6.175
N12975 X-13.34 Y-20.351 I18.777 J13.033
N12980 X2.945 Y-24.186 I13.674 J21.569
N12985 X17.825 Y-16.539 I-2.351 J22.874
N12990 X23.624 Y-5.479 I-19.615 J17.334
N12995 X24.077 Y-3.145 I-22.959 J5.667
N13000 G02 X25.693 Y-1.244 I2.314 J-0.329
N13005 G03 X27.142 Y0.787 I-0.617 J1.973
N13010 G01 X27.102 Y2.21
N13015 X26.764 Y4.734
N13020 X26.658 Y5.307
N13025 X26.042 Y7.828
N13030 X25.136 Y10.346
N13035 X24.884 Y10.924
N13040 X23.948 Y12.848
N13045 X23.629 Y13.431
N13050 X22.421 Y15.362
N13055 X22.186 Y15.716
N13060 X20.52 Y17.839
N13065 X20.337 Y18.04
N13070 X18.428 Y19.997
N13075 X16.514 Y21.583
N13080 X15.947 Y22.008
N13085 X13.782 Y23.442
N13090 X11.361 Y24.7
N13095 X10.971 Y24.868
N13100 X9.019 Y25.631
N13105 X8.441 Y25.845
N13110 X5.808 Y26.563
N13115 X4.046 Y26.854
N13120 X2.812 Y27.044
N13125 X0.074 Y27.19
N13130 X-0.074
N13135 X-2.812 Y27.044
N13140 X-4.046 Y26.854
N13145 X-5.808 Y26.563
N13150 X-8.441 Y25.845
N13155 X-9.019 Y25.631
N13160 X-10.971 Y24.868
N13165 X-11.361 Y24.7
N13170 X-13.782 Y23.442
N13175 X-15.946 Y22.009
N13180 X-16.536 Y21.565
N13185 X-18.428 Y19.997
N13190 X-20.337 Y18.04
N13195 X-20.52 Y17.839
N13200 X-22.186 Y15.716
N13205 X-22.421 Y15.362
N13210 X-23.629 Y13.431
N13215 X-23.948 Y12.848
N13220 X-24.884 Y10.924
N13225 X-25.137 Y10.346
N13230 X-26.042 Y7.828
N13235 X-26.658 Y5.307
N13240 X-26.764 Y4.734
N13245 X-27.102 Y2.21
N13250 X-27.175 Y-0.382
N13255 Y-0.838
N13260 X-26.968 Y-3.428
N13265 X-26.88 Y-4.001
N13270 X-26.511 Y-5.954
N13275 X-26.395 Y-6.528
N13280 X-25.635 Y-9.047
N13285 X-25.413 Y-9.624
N13290 X-24.598 Y-11.555
N13295 X-24.321 Y-12.136
N13300 X-23.259 Y-14.053
N13305 X-22.903 Y-14.638
N13310 X-21.542 Y-16.576
N13315 X-21.095 Y-17.129
N13320 X-19.642 Y-18.791
N13325 X-19.437 Y-19.014
N13330 X-17.396 Y-20.898
N13335 X-16.574 Y-21.517
N13340 X-15.277 Y-22.48
N13345 X-14.866 Y-22.759
N13350 X-12.711 Y-24.03
N13355 X-12.213 Y-24.279
N13360 X-10.007 Y-25.28
N13365 X-9.724 Y-25.386
N13370 X-7.185 Y-26.226
N13375 X-4.654 Y-26.777
N13380 X-4.082 Y-26.874
N13385 X-1.552 Y-27.144
N13390 X-0.98 Y-27.156
N13395 X0.979
N13400 X1.563 Y-27.143
N13405 X4.082 Y-26.874
N13410 X4.654 Y-26.777
N13415 X7.185 Y-26.226
N13420 X9.724 Y-25.386
N13425 X10.007 Y-25.28
N13430 X12.213 Y-24.279
N13435 X12.711 Y-24.03
N13440 X14.866 Y-22.759
N13445 X15.277 Y-22.48
N13450 X17.227 Y-21.031
N13455 X17.386 Y-20.908
N13460 X19.429 Y-19.021
N13465 X19.961 Y-18.426
N13470 X21.093 Y-17.132
N13475 X21.567 Y-16.54
N13480 X22.903 Y-14.638
N13485 X23.259 Y-14.053
N13490 X24.321 Y-12.136
N13495 X24.598 Y-11.555
N13500 X25.413 Y-9.624
N13505 X25.635 Y-9.047
N13510 X26.393 Y-6.533
N13515 X26.636 Y-5.295
N13520 X26.88 Y-4.001
N13525 X26.968 Y-3.428
N13530 X27.175 Y-0.84
N13535 X27.174 Y-0.335
N13540 X27.142 Y0.787
N13545 G03 X26.66 Y1.017 I-0.3 J-0.008
N13550 G01 X24.754 Y-0.443
N13555 G02 X24.316 Y-0.047 I-0.182 J0.238
N13560 G03 X19.468 Y2.951 Z-9.313 I-2.424 J1.499
N13565 X24.316 Y-0.047 Z-9.625 I2.424 J-1.499
N13570 X19.468 Y2.951 Z-9.938 I-2.424 J1.499
N13575 X19.049 Y1.255 Z-10. I2.424 J-1.499
N13580 X22.973 Y1.527 I1.962 J0.136
N13585 X18.05 Y14.389 I-23.528 J-1.632
N13590 X4.773 Y22.539 I-17.516 J-13.647
N13595 X-16.544 Y15.873 I-4.487 J-23.069
N13600 X-22.314 Y-5.704 I16.345 J-15.93
N13605 X-13.614 Y-18.634 I22.495 J5.744
N13610 X1.347 Y-22.998 I13.414 J18.158
N13615 X7.171 Y-21.837 I-1.592 J23.174
N13620 X12.548 Y-19.315 I-8.357 J24.809
N13625 X20.225 Y-11.192 I-11.346 J18.411
N13630 X23.028 Y-0.372 I-20.494 J11.084
N13635 X22.973 Y1.527 I-23.583 J0.267
N13640 G02 X24.165 Y3.692 I2.276 J0.158
N13645 G03 X25.168 Y5.951 I-0.961 J1.779
N13650 G01 X24.862 Y7.205
N13655 X24.686 Y7.781
N13660 X23.968 Y9.772
N13665 X23.76 Y10.276
N13670 X22.722 Y12.411
N13675 X22.526 Y12.754
N13680 X21.33 Y14.665
N13685 X20.88 Y15.284
N13690 X19.591 Y16.925
N13695 X19.421 Y17.125
N13700 X17.584 Y19.012
N13705 X15.859 Y20.445
N13710 X15.268 Y20.906
N13715 X13.375 Y22.161
N13720 X12.791 Y22.498
N13725 X10.885 Y23.488
N13730 X10.306 Y23.738
N13735 X8.363 Y24.498
N13740 X8.048 Y24.611
N13745 X5.712 Y25.248
N13750 X5.318 Y25.338
N13755 X2.804 Y25.743
N13760 X0.284 Y25.883
N13765 X-0.284
N13770 X-2.804 Y25.743
N13775 X-5.318 Y25.338
N13780 X-5.712 Y25.248
N13785 X-8.048 Y24.611
N13790 X-8.363 Y24.498
N13795 X-10.306 Y23.738
N13800 X-10.885 Y23.488
N13805 X-12.788 Y22.499
N13810 X-13.415 Y22.135
N13815 X-15.311 Y20.878
N13820 X-16.068 Y20.272
N13825 X-17.584 Y19.012
N13830 X-19.421 Y17.125
N13835 X-19.591 Y16.925
N13840 X-20.902 Y15.256
N13845 X-21.33 Y14.666
N13850 X-22.526 Y12.754
N13855 X-22.722 Y12.411
N13860 X-23.758 Y10.28
N13865 X-23.993 Y9.701
N13870 X-24.686 Y7.781
N13875 X-24.862 Y7.205
N13880 X-25.333 Y5.274
N13885 X-25.463 Y4.701
N13890 X-25.799 Y2.191
N13895 X-25.827 Y1.619
N13900 X-25.879 Y-0.321
N13905 X-25.872 Y-0.893
N13910 X-25.672 Y-3.4
N13915 X-25.202 Y-5.913
N13920 X-25.056 Y-6.486
N13925 X-24.475 Y-8.412
N13930 X-24.277 Y-8.989
N13935 X-23.343 Y-11.201
N13940 X-23.214 Y-11.463
N13945 X-22.097 Y-13.48
N13950 X-21.794 Y-13.965
N13955 X-20.45 Y-15.879
N13960 X-20.265 Y-16.112
N13965 X-18.838 Y-17.743
N13970 X-18.385 Y-18.224
N13975 X-16.504 Y-19.956
N13980 X-14.467 Y-21.469
N13985 X-14.043 Y-21.742
N13990 X-12.131 Y-22.869
N13995 X-11.55 Y-23.158
N14000 X-9.637 Y-24.026
N14005 X-9.06 Y-24.243
N14010 X-7.136 Y-24.879
N14015 X-6.56 Y-25.04
N14020 X-4.627 Y-25.458
N14025 X-4.054 Y-25.575
N14030 X-1.542 Y-25.844
N14035 X-0.971 Y-25.861
N14040 X0.971
N14045 X1.542 Y-25.844
N14050 X4.049 Y-25.576
N14055 X5.287 Y-25.316
N14060 X6.56 Y-25.04
N14065 X7.136 Y-24.879
N14070 X9.06 Y-24.243
N14075 X9.637 Y-24.026
N14080 X11.55 Y-23.158
N14085 X12.131 Y-22.869
N14090 X14.043 Y-21.742
N14095 X14.467 Y-21.469
N14100 X16.504 Y-19.956
N14105 X18.385 Y-18.224
N14110 X18.838 Y-17.743
N14115 X20.265 Y-16.112
N14120 X20.45 Y-15.879
N14125 X21.794 Y-13.965
N14130 X22.097 Y-13.48
N14135 X23.214 Y-11.463
N14140 X23.343 Y-11.201
N14145 X24.277 Y-8.989
N14150 X24.475 Y-8.412
N14155 X25.056 Y-6.486
N14160 X25.202 Y-5.913
N14165 X25.672 Y-3.4
N14170 X25.872 Y-0.893
N14175 X25.879 Y-0.321
N14180 X25.827 Y1.619
N14185 X25.799 Y2.191
N14190 X25.463 Y4.695
N14195 X25.228 Y5.704
N14200 X25.168 Y5.951
N14205 G03 X24.721 Y6.136 I-0.291 J-0.071
N14210 G01 X21.691 Y4.296
N14215 G03 X21.552 Y3.983 I0.156 J-0.256
N14220 G02 X21.439 Y-4.615 I-21.003 J-4.025
N14225 X16.108 Y-14.904 I-21.808 J4.775
N14230 X6.264 Y-21.018 I-15.78 J14.426
N14235 X2.432 Y-21.831 I-7.541 J26.089
N14240 X-1.486 Y-21.891 I-2.203 J15.984
N14245 X-9.652 Y-19.614 I2.735 J25.593
N14250 X-16.428 Y-14.52 I8.723 J18.656
N14255 X-21.619 Y-3.781 I16.915 J14.801
N14260 X-20.388 Y8.082 I20.85 J3.831
N14265 X-13.145 Y17.641 I21.6 J-8.843
N14270 X-1.917 Y21.854 I12.339 J-15.815
N14275 X5.996 Y21.082 I1.448 J-26.108
N14280 X13.135 Y17.581 I-4.802 J-18.818
N14285 X20.491 Y7.681 I-14.236 J-18.261
N14290 X21.552 Y3.983 I-19.943 J-7.723
N14295 X20.455 Y1.528 I-2.306 J-0.442
N14300 G03 X19.066 Y-0.774 I1.478 J-2.461
N14305 G02 X18.938 Y-2.445 I-33.155 J1.702
N14310 G01 X18.928 Y-2.534
N14315 X18.914 Y-2.624
N14320 G02 X18.509 Y-4.671 I-34.24 J5.706
N14325 G01 X18.475 Y-4.802
N14330 G02 X17.955 Y-6.499 I-37.918 J10.703
N14335 G01 X17.902 Y-6.64
N14340 X17.194 Y-8.305
N14345 X17.157 Y-8.387
N14350 X17.115 Y-8.467
N14355 X16.379 Y-9.797
N14360 X16.318 Y-9.899
N14365 G02 X15.061 Y-11.738 I-23.475 J14.693
N14370 G01 X15.007 Y-11.811
N14375 X14.95 Y-11.88
N14380 G02 X13.592 Y-13.404 I-33.819 J28.752
N14385 G01 X13.489 Y-13.508
N14390 X12.714 Y-14.224
N14395 X12.69 Y-14.245
N14400 X12.135 Y-14.739
N14405 X12.015 Y-14.837
N14410 X10.685 Y-15.824
N14415 X10.612 Y-15.876
N14420 X10.537 Y-15.923
N14425 X9.207 Y-16.715
N14430 X9.107 Y-16.77
N14435 G02 X7.038 Y-17.751 I-11.769 J22.156
N14440 G01 X6.954 Y-17.786
N14445 X6.869 Y-17.817
N14450 G02 X4.808 Y-18.472 I-9.538 J26.442
N14455 G01 X4.692 Y-18.501
N14460 X3.362 Y-18.789
N14465 X3.244 Y-18.81
N14470 G02 X1.183 Y-19.057 I-4.403 J28.025
N14475 G01 X1.096 Y-19.064
N14480 X1.008 Y-19.067
N14485 X-0.322 Y-19.075
N14490 X-0.353
N14495 X-1.018 Y-19.067
N14500 X-1.183 Y-19.057
N14505 G02 X-3.244 Y-18.81 I2.345 J28.286
N14510 G01 X-3.362 Y-18.789
N14515 X-4.692 Y-18.501
N14520 X-4.808 Y-18.472
N14525 G02 X-6.869 Y-17.817 I7.472 J27.082
N14530 G01 X-6.954 Y-17.786
N14535 X-7.038 Y-17.751
N14540 X-8.368 Y-17.15
N14545 G02 X-9.207 Y-16.715 I6.072 J12.753
N14550 G01 X-10.537 Y-15.923
N14555 X-10.612 Y-15.876
N14560 X-10.685 Y-15.824
N14565 X-12.015 Y-14.837
N14570 X-12.139 Y-14.735
N14575 X-12.804 Y-14.14
N14580 X-12.824 Y-14.122
N14585 X-13.489 Y-13.508
N14590 X-13.597 Y-13.399
N14595 X-14.262 Y-12.668
N14600 X-14.285 Y-12.642
N14605 X-14.95 Y-11.88
N14610 X-15.007 Y-11.811
N14615 X-15.061 Y-11.738
N14620 G02 X-16.318 Y-9.899 I22.227 J16.539
N14625 G01 X-16.379 Y-9.797
N14630 X-17.115 Y-8.467
N14635 X-17.157 Y-8.387
N14640 X-17.194 Y-8.305
N14645 X-17.902 Y-6.64
N14650 X-17.955 Y-6.499
N14655 G02 X-18.475 Y-4.802 I37.345 J12.385
N14660 G01 X-18.51 Y-4.667
N14665 G02 X-18.914 Y-2.623 I36.301 J8.237
N14670 G01 X-18.928 Y-2.534
N14675 X-18.938 Y-2.445
N14680 G02 X-19.087 Y-0.405 I39.665 J3.913
N14685 G01 X-19.089 Y-0.261
N14690 G02 X-19.049 Y1.153 I26.091 J-0.023
N14695 X-18.989 Y1.919 I12.67 J-0.616
N14700 G01 X-18.81 Y3.248
N14705 X-18.788 Y3.377
N14710 G02 X-18.308 Y5.428 I32.028 J-6.423
N14715 G01 X-18.284 Y5.515
N14720 X-18.255 Y5.601
N14725 G02 X-17.449 Y7.736 I24.498 J-8.035
N14730 G01 X-17.433 Y7.769
N14735 X-16.786 Y9.099
N14740 X-16.706 Y9.245
N14745 X-16.3 Y9.91
N14750 X-16.29 Y9.927
N14755 X-15.78 Y10.742
N14760 X-15.706 Y10.851
N14765 G02 X-14.32 Y12.625 I24.089 J-17.389
N14770 G01 X-14.22 Y12.738
N14775 G02 X-12.861 Y14.108 I29.998 J-28.422
N14780 G01 X-12.749 Y14.208
N14785 X-11.419 Y15.304
N14790 X-11.348 Y15.359
N14795 X-11.274 Y15.411
N14800 G02 X-9.67 Y16.466 I20.316 J-29.156
N14805 G01 X-9.551 Y16.534
N14810 X-8.271 Y17.198
N14815 X-8.24 Y17.214
N14820 X-8.209 Y17.23
N14825 X-7.726 Y17.456
N14830 X-7.619 Y17.502
N14835 X-6.289 Y18.022
N14840 X-6.168 Y18.064
N14845 G02 X-4.114 Y18.647 I9.5 J-29.595
N14850 G01 X-4.027 Y18.668
N14855 X-3.938 Y18.685
N14860 G02 X-1.891 Y18.996 I6.316 J-34.66
N14865 G01 X-1.756 Y19.008
N14870 G02 X-0.332 Y19.082 I1.974 J-24.404
N14875 X0.426 Y19.08 I0.336 J-13.172
N14880 G01 X1.756 Y19.008
N14885 X1.891 Y18.996
N14890 G02 X3.938 Y18.685 I-4.267 J-34.959
N14895 G01 X4.027 Y18.668
N14900 X4.114 Y18.647
N14905 G02 X6.168 Y18.064 I-7.449 J-30.188
N14910 G01 X6.289 Y18.022
N14915 X7.619 Y17.502
N14920 X7.726 Y17.456
N14925 X8.209 Y17.23
N14930 X8.24 Y17.214
N14935 X8.271 Y17.198
N14940 X9.551 Y16.534
N14945 X9.67 Y16.466
N14950 G02 X11.274 Y15.411 I-18.638 J-30.1
N14955 G01 X11.348 Y15.359
N14960 X11.419 Y15.304
N14965 X12.749 Y14.208
N14970 X12.866 Y14.102
N14975 X13.531 Y13.445
N14980 X13.555 Y13.421
N14985 X14.22 Y12.738
N14990 X14.329 Y12.616
N14995 G02 X15.707 Y10.852 I-25.903 J-21.659
N15000 G01 X15.78 Y10.742
N15005 X16.445 Y9.679
N15010 X16.461 Y9.653
N15015 X16.712 Y9.235
N15020 X16.786 Y9.099
N15025 X17.433 Y7.769
N15030 G02 X17.777 Y6.933 I-11.107 J-5.062
N15035 G01 X18.255 Y5.601
N15040 X18.284 Y5.515
N15045 X18.308 Y5.428
N15050 G02 X18.79 Y3.369 I-27.971 J-7.637
N15055 G01 X18.81 Y3.248
N15060 G02 X18.999 Y1.818 I-22.888 J-3.749
N15065 X19.053 Y1.068 I-14.01 J-1.392
N15070 G01 X19.089 Y-0.261
N15075 X19.087 Y-0.405
N15080 X19.066 Y-0.774
N15085 G03 X19.158 Y-1.007 I0.3 J-0.017
N15090 G01 X19.699 Y-1.526
N15095 G02 X19.774 Y-1.845 I-0.208 J-0.217
N15100 G01 X15.05 Y-14.902
N15105 X15.027 Y-14.945
N15110 X14.992 Y-14.98
N15115 X14.949 Y-15.003
N15120 X14.901 Y-15.012
N15125 X14.852 Y-15.007
N15130 X14.697 Y-14.966
N15135 X14.655 Y-14.961
N15140 X14.614 Y-14.966
N15145 X14.575 Y-14.981
N15150 X14.542 Y-15.005
N15155 X13.489 Y-15.977 Z-10.05
N15160 X13.381 Y-16.069 Z-10.055
N15165 X13.073 Y-16.31 Z-10.069
N15170 X13.056 Y-16.323
N15175 X13.038 Y-16.337 Z-10.07
N15180 X12.015 Y-17.096 Z-10.115
N15185 X11.994 Y-17.112 Z-10.116
N15190 X11.973 Y-17.127
N15195 X11.952 Y-17.141 Z-10.117
N15200 X11.287 Y-17.591 Z-10.145
N15205 X11.257 Y-17.611 Z-10.147
N15210 X11.226 Y-17.63 Z-10.148
N15215 X11.195 Y-17.649 Z-10.149
N15220 X9.863 Y-18.434 Z-10.203
N15225 X9.734 Y-18.503 Z-10.208
N15230 X9.072 Y-18.822 Z-10.234
N15235 X9.052 Y-18.831 Z-10.235
N15240 X9.033 Y-18.84
N15245 X7.703 Y-19.441 Z-10.286
N15250 X7.617 Y-19.478 Z-10.29
N15255 X7.529 Y-19.509 Z-10.293
N15260 X5.534 Y-20.165 Z-10.366
N15265 X5.443 Y-20.192 Z-10.37
N15270 X5.352 Y-20.214 Z-10.373
N15275 X3.357 Y-20.64 Z-10.444
N15280 X3.267 Y-20.656 Z-10.447
N15285 X3.175 Y-20.668 Z-10.451
N15290 X1.181 Y-20.878 Z-10.521
N15295 X1.089 Y-20.886 Z-10.524
N15300 X0.997 Y-20.888 Z-10.527
N15305 X-0.997 Z-10.597
N15310 X-1.09 Y-20.885 Z-10.6
N15315 X-1.182 Y-20.878 Z-10.603
N15320 X-3.231 Y-20.661 Z-10.675
N15325 X-3.323 Y-20.648 Z-10.678
N15330 X-3.415 Y-20.631 Z-10.682
N15335 X-5.355 Y-20.214 Z-10.751
N15340 X-5.445 Y-20.192 Z-10.754
N15345 X-5.534 Y-20.165 Z-10.757
N15350 X-7.529 Y-19.509 Z-10.831
N15355 X-7.617 Y-19.478 Z-10.834
N15360 X-7.703 Y-19.441 Z-10.837
N15365 X-9.033 Y-18.84 Z-10.888
N15370 X-9.052 Y-18.831 Z-10.889
N15375 X-9.072 Y-18.822 Z-10.89
N15380 X-9.737 Y-18.501 Z-10.915
N15385 X-9.865 Y-18.433 Z-10.921
N15390 X-11.195 Y-17.649 Z-10.974
N15395 X-11.226 Y-17.63 Z-10.976
N15400 X-11.257 Y-17.611 Z-10.977
N15405 X-11.287 Y-17.591 Z-10.978
N15410 X-11.803 Y-17.242 Z-11.
N15415 G02 X-13.379 Y-16.067 I13.828 J20.198
N15420 G01 X-13.489 Y-15.977
N15425 X-14.819 Y-14.749
N15430 X-14.932 Y-14.635
N15435 X-15.596 Y-13.897
N15440 X-15.613 Y-13.878
N15445 X-16.278 Y-13.118
N15450 X-16.351 Y-13.029
N15455 X-16.625 Y-12.672
N15460 G02 X-17.642 Y-11.224 I31.065 J22.902
N15465 G01 X-17.764 Y-11.032
N15470 X-17.822 Y-10.936
N15475 X-18.487 Y-9.735
N15480 X-18.501 Y-9.71
N15485 X-18.822 Y-9.107
N15490 X-18.889 Y-8.965
N15495 G02 X-19.727 Y-6.917 I31.396 J14.039
N15500 G01 X-19.769 Y-6.796
N15505 G02 X-20.36 Y-4.734 I26.415 J8.697
N15510 G01 X-20.386 Y-4.621
N15515 X-20.671 Y-3.109
N15520 G02 X-20.76 Y-2.444 I9.944 J1.676
N15525 X-20.902 Y-0.391 I32.588 J3.281
N15530 G01 X-20.903 Y-0.261
N15535 G02 X-20.832 Y1.777 I41.126 J-0.426
N15540 G01 X-20.819 Y1.919
N15545 X-20.64 Y3.248
N15550 X-20.635 Y3.284
N15555 X-20.532 Y3.949
N15560 X-20.503 Y4.096
N15565 G02 X-19.974 Y6.172 I38.679 J-8.741
N15570 G01 X-19.932 Y6.304
N15575 X-19.466 Y7.598
N15580 X-19.456 Y7.624
N15585 X-19.258 Y8.148
N15590 X-19.195 Y8.293
N15595 X-18.48 Y9.764
N15600 G02 X-18.013 Y10.592 I11.992 J-6.208
N15605 G01 X-17.181 Y11.922
N15610 X-17.131 Y11.997
N15615 X-17.077 Y12.07
N15620 X-16.038 Y13.4
N15625 X-16.018 Y13.425
N15630 X-15.997 Y13.449
N15635 X-15.635 Y13.88
N15640 X-15.547 Y13.976
N15645 X-14.217 Y15.335
N15650 X-14.152 Y15.398
N15655 X-14.084 Y15.457
N15660 X-12.754 Y16.561
N15665 X-12.654 Y16.637
N15670 G02 X-10.575 Y18.038 I18.261 J-24.87
N15675 G01 X-10.449 Y18.111
N15680 X-9.119 Y18.802
N15685 G02 X-8.284 Y19.19 I6.661 J-13.237
N15690 G01 X-6.954 Y19.71
N15695 G02 X-6.083 Y19.993 I4.489 J-12.339
N15700 G01 X-4.783 Y20.348
N15705 G02 X-2.606 Y20.738 I5.228 J-22.856
N15710 X-1.756 Y20.825 I1.63 J-11.804
N15715 X-0.332 Y20.899 I1.972 J-24.327
N15720 X0.426 Y20.896 I0.336 J-13.363
N15725 X2.606 Y20.739 I-0.542 J-22.792
N15730 X4.783 Y20.349 I-3.26 J-24.415
N15735 X6.194 Y19.961 I-6.55 J-26.582
N15740 X6.954 Y19.71 I-3.711 J-12.541
N15745 G01 X8.284 Y19.19
N15750 G02 X9.119 Y18.802 I-4.814 J-11.455
N15755 G01 X10.449 Y18.111
N15760 X10.59 Y18.03
N15765 G02 X12.661 Y16.636 I-18.454 J-29.662
N15770 G01 X12.754 Y16.561
N15775 X14.084 Y15.457
N15780 X14.152 Y15.398
N15785 X14.217 Y15.335
N15790 X15.547 Y13.976
N15795 X15.635 Y13.88
N15800 X15.997 Y13.449
N15805 X16.018 Y13.425
N15810 X16.038 Y13.4
N15815 X17.077 Y12.07
N15820 X17.131 Y11.997
N15825 X17.181 Y11.922
N15830 G02 X18.054 Y10.524 I-26.751 J-17.691
N15835 X18.48 Y9.764 I-11.375 J-6.874
N15840 G01 X19.195 Y8.293
N15845 X19.231 Y8.214
N15850 X19.263 Y8.133
N15855 X19.701 Y6.945
N15860 X19.706 Y6.933
N15865 X19.945 Y6.268
N15870 X19.989 Y6.129
N15875 G02 X20.503 Y4.096 I-44.291 J-12.271
N15880 G01 X20.534 Y3.937
N15885 X20.682 Y2.935
N15890 X20.686 Y2.911
N15895 X20.819 Y1.919
N15900 X20.832 Y1.777
N15905 G02 X20.903 Y-0.261 I-41.044 J-2.464
N15910 G01 X20.902 Y-0.391
N15915 G02 X20.674 Y-3.11 I-24.817 J0.714
N15920 G01 X20.386 Y-4.621
N15925 X20.36 Y-4.734
N15930 G02 X19.769 Y-6.796 I-26.992 J6.631
N15935 G01 X19.727 Y-6.917
N15940 G02 X18.889 Y-8.965 I-32.222 J11.986
N15945 G01 X18.82 Y-9.11
N15950 X18.465 Y-9.775
N15955 X18.453 Y-9.797
N15960 X17.822 Y-10.936
N15965 X17.764 Y-11.032
N15970 X17.642 Y-11.224
N15975 G02 X16.625 Y-12.672 I-31.661 J21.154
N15980 G01 X16.351 Y-13.029
N15985 X16.278 Y-13.118
N15990 X15.428 Y-14.09
N15995 X15.404 Y-14.117
N16000 X14.925 Y-14.642
N16005 X14.819 Y-14.749
N16010 X13.489 Y-15.977
N16015 X13.381 Y-16.069
N16020 G02 X11.196 Y-17.65 I-16.927 J21.084
N16025 G01 X9.863 Y-18.434
N16030 X9.734 Y-18.503
N16035 G02 X7.703 Y-19.441 I-20.645 J42.005
N16040 G01 X7.617 Y-19.478
N16045 X7.529 Y-19.509
N16050 X5.534 Y-20.165
N16055 X5.443 Y-20.192
N16060 X5.352 Y-20.214
N16065 X3.357 Y-20.64
N16070 X3.267 Y-20.656
N16075 X3.175 Y-20.668
N16080 X1.181 Y-20.878
N16085 X1.089 Y-20.886
N16090 X0.997 Y-20.888
N16095 X-0.997
N16100 X-1.09 Y-20.885
N16105 X-1.182 Y-20.878
N16110 X-3.231 Y-20.661
N16115 X-3.323 Y-20.648
N16120 X-3.415 Y-20.631
N16125 X-5.355 Y-20.214
N16130 X-5.445 Y-20.192
N16135 X-5.534 Y-20.165
N16140 X-7.529 Y-19.509
N16145 X-7.617 Y-19.478
N16150 X-7.703 Y-19.441
N16155 G02 X-9.737 Y-18.501 I18.429 J42.536
N16160 G01 X-9.865 Y-18.433
N16165 X-11.195 Y-17.649
N16170 G02 X-11.803 Y-17.242 I5.4 J8.722
N16175 G03 X-12.233 Y-17.346 I-0.168 J-0.249
N16180 G01 X-13.486 Y-19.614
N16185 G03 X-13.403 Y-20. I0.263 J-0.145
N16190 G01 X-13.327 Y-20.056
N16195 X-11.128 Y-21.354
N16200 X-8.976 Y-22.334
N16205 X-8.292 Y-22.586
N16210 X-6.396 Y-23.213
N16215 X-4.614 Y-23.605
N16220 X-4.019 Y-23.734
N16225 X-3.312 Y-23.83
N16230 X-1.529 Y-24.021
N16235 X-0.957 Y-24.047
N16240 X0.957
N16245 X1.529 Y-24.021
N16250 X3.441 Y-23.816
N16255 X4.014 Y-23.735
N16260 X5.936 Y-23.319
N16265 X6.388 Y-23.216
N16270 X8.395 Y-22.552
N16275 X8.972 Y-22.336
N16280 X11.128 Y-21.354
N16285 X13.327 Y-20.056
N16290 X15.199 Y-18.665
N16295 X15.653 Y-18.277
N16300 X17.052 Y-16.986
N16305 X17.653 Y-16.343
N16310 X18.904 Y-14.913
N16315 X20.17 Y-13.121
N16320 X20.462 Y-12.688
N16325 X21.506 Y-10.803
N16330 X21.787 Y-10.222
N16335 X22.624 Y-8.238
N16340 X22.973 Y-7.109
N16345 X23.352 Y-5.853
N16350 X23.476 Y-5.279
N16355 X23.864 Y-3.22
N16360 X24.053 Y-0.885
N16365 X24.064 Y-0.315
N16370 X24.013 Y1.599
N16375 X23.971 Y2.171
N16380 X23.715 Y4.082
N16385 X23.617 Y4.654
N16390 X23.152 Y6.559
N16395 X22.99 Y7.134
N16400 X22.306 Y9.031
N16405 X22.067 Y9.61
N16410 X21.15 Y11.495
N16415 X20.779 Y12.126
N16420 X20. Y13.371
N16425 X19.614 Y13.958
N16430 X18.151 Y15.822
N16435 X16.345 Y17.683
N16440 X14.556 Y19.169
N16445 X13.967 Y19.592
N16450 X12.673 Y20.451
N16455 X12.166 Y20.778
N16460 X10.201 Y21.799
N16465 X9.741 Y22.011
N16470 X7.735 Y22.796
N16475 X7.159 Y22.973
N16480 X5.255 Y23.492
N16485 X4.682 Y23.603
N16490 X2.772 Y23.911
N16495 X2.199 Y23.964
N16500 X0.286 Y24.066
N16505 X-0.286
N16510 X-2.199 Y23.964
N16515 X-2.772 Y23.911
N16520 X-4.682 Y23.603
N16525 X-5.255 Y23.492
N16530 X-7.159 Y22.973
N16535 X-7.735 Y22.796
N16540 X-9.741 Y22.011
N16545 X-10.201 Y21.799
N16550 X-12.161 Y20.781
N16555 X-13.333 Y20.013
N16560 X-14.066 Y19.526
N16565 X-14.551 Y19.173
N16570 X-16.345 Y17.683
N16575 X-18.151 Y15.822
N16580 X-19.611 Y13.962
N16585 X-20.135 Y13.156
N16590 X-20.808 Y12.081
N16595 X-21.149 Y11.496
N16600 X-22.067 Y9.61
N16605 X-22.306 Y9.031
N16610 X-22.99 Y7.134
N16615 X-23.152 Y6.559
N16620 X-23.617 Y4.654
N16625 X-23.715 Y4.082
N16630 X-23.971 Y2.171
N16635 X-24.013 Y1.599
N16640 X-24.064 Y-0.315
N16645 X-24.053 Y-0.885
N16650 X-23.864 Y-3.22
N16655 X-23.476 Y-5.279
N16660 X-23.352 Y-5.853
N16665 X-22.775 Y-7.767
N16670 X-22.627 Y-8.231
N16675 X-21.787 Y-10.222
N16680 X-21.506 Y-10.803
N16685 X-20.464 Y-12.685
N16690 X-20.066 Y-13.27
N16695 X-18.904 Y-14.913
N16700 X-17.593 Y-16.412
N16705 X-17.026 Y-17.009
N16710 X-15.653 Y-18.277
N16715 X-15.199 Y-18.665
N16720 X-13.403 Y-20.
N16725 X-13.347 Y-20.037 Z-10.992
N16730 X-13.287 Y-20.067 Z-10.985
N16735 X-13.228 Y-20.09 Z-10.963
N16740 X-13.167 Y-20.106 Z-10.941
N16745 X-13.111 Y-20.115 Z-10.905
N16750 X-13.054 Y-20.119 Z-10.869
N16755 X-12.959 Y-20.112 Z-10.774
N16760 X-12.889 Y-20.098 Z-10.66
N16765 X-12.847 Y-20.085 Z-10.534
N16770 X-12.833 Y-20.08 Z-10.4
N16775 G00 Z15.

N16780 G28 G91 Z0.
N16785 G90
N16790 G49
N16795 G5.1 Q0
N16800 G28 G91 X0. Y0.
N16805 G90
N16810 M30
%
