%
O1001 (MH2E1)
(T1 D=50. CR=0. - ZMIN=-0.5 - FACE MILL)
(T5 D=3. CR=0. TAPER=118DEG - ZMIN=-17.276 - DRILL)
N10 G90 G94 G17 G49 G40 G80
N15 G21
N20 G28 G91 Z0.
N25 G90

(FACE2)
N30 T1 
N35 M06
N40 S1000 M03
N45 G54
N50 G5.1 Q1
N55 G00 X79.094 Y-48.612
N60 G43 Z15. H01
N65 G00 Z5.
N70 G01 Z4.5 F150.
N75 G18 G03 X74.094 Z-0.5 I-5.
N80 G01 X53.1
N85 X-53.1
N90 G17 G02 Y-24.375 J12.119
N95 G01 X53.1
N100 G03 Y-0.138 J12.119
N105 G01 X-53.1
N110 G02 Y24.1 J12.119
N115 G01 X53.1
N120 G18 G02 X58.1 Z4.5 K5.
N125 G00 Z15.
N130 G17
N135 M05
N140 G28 G91 Z0.
N145 G90
N150 G49
N155 G5.1 Q0

(DRILL2)
N160 M01
N165 T2 
N170 M06
N175 S3500 M03
N180 G54
N185 G00 X31.1 Y-31.1
N190 G43 Z15. H02
N195 G00 Z5.
N200 G98 G73 X31.1 Y-31.1 Z-6.401 R4.5 Q0.75 F5.
N205 G80
N210 X0. Y0. Z5.
N215 Z4.5
N220 Z1.5
N225 G01 Z-1.25 F5.
N230 G00 Z-1.15
N235 G01 Z-2. F5.
N240 G00 Z-1.9
N245 G01 Z-2.75 F5.
N250 G00 Z-2.65
N255 G01 Z-3.5 F5.
N260 G00 Z-3.4
N265 G01 Z-4.25 F5.
N270 G00 Z-4.15
N275 G01 Z-5. F5.
N280 G00 Z-4.9
N285 G01 Z-5.75 F5.
N290 G00 Z-5.65
N295 G01 Z-6.5 F5.
N300 G00 Z-6.4
N305 G01 Z-7.25 F5.
N310 G00 Z-7.15
N315 G01 Z-8. F5.
N320 G00 Z-7.9
N325 G01 Z-8.75 F5.
N330 G00 Z5.
N335 Z-6.75
N340 G01 Z-9.5 F5.
N345 G00 Z-9.4
N350 G01 Z-10.25 F5.
N355 G00 Z-10.15
N360 G01 Z-11. F5.
N365 G00 Z-10.9
N370 G01 Z-11.75 F5.
N375 G00 Z-11.65
N380 G01 Z-12.5 F5.
N385 G00 Z-12.4
N390 G01 Z-13.25 F5.
N395 G00 Z-13.15
N400 G01 Z-14. F5.
N405 G00 Z-13.9
N410 G01 Z-14.75 F5.
N415 G00 Z-14.65
N420 G01 Z-15.5 F5.
N425 G00 Z-15.4
N430 G01 Z-16.25 F5.
N435 G00 Z-16.15
N440 G01 Z-17. F5.
N445 G00 Z5.
N450 Z-15.
N455 G01 Z-17.276 F5.
N460 G00 Z5.
N465 X-31.1 Y31.1
N470 G73 X-31.1 Y31.1 Z-6.401 R4.5 Q0.75 F5.
N475 G80
N480 Z15.

N485 G28 G91 Z0.
N490 G90
N495 G49
N500 G28 G91 X0. Y0.
N505 G90
N510 M30
%
