%
O1001 (MH2E2)
(T2 D=6. CR=0. - ZMIN=-5.5 - FLAT END MILL)
N10 G90 G94 G17 G49 G40 G80
N15 G21
N20 G28 G91 Z0.
N25 G90

(BORE1)
N30 T3 
N32 M06
N35 S6000 M03
N40 G54
N45 G5.1 Q1
N50 G00 X31.1 Y-31.1
N55 G43 Z15. H03
N60 G00 Z1.5
N65 G01 Z-0.5 F125.
N70 G41 X31.35 Y-34.35 D03
N75 G03 X34.6 Y-31.1 J3.25
N80 X27.6 Z-1. I-3.5
N85 X34.6 Z-1.5 I3.5
N90 X27.6 Z-2. I-3.5
N95 X34.6 Z-2.5 I3.5
N100 X27.6 Z-3. I-3.5
N105 X34.6 Z-3.5 I3.5
N110 X27.6 Z-4. I-3.5
N115 X34.6 Z-4.5 I3.5
N120 X27.6 Z-5. I-3.5
N125 X34.6 Z-5.5 I3.5
N130 X27.6 I-3.5
N135 X34.6 I3.5
N140 X31.35 Y-27.85 I-3.25
N145 G01 G40 X31.1 Y-31.1
N150 G00 Z5.
N155 Z15.
N160 Z-3.5
N165 G01 Z-5.5 F125.
N170 G41 X31.6 Y-34.6 D02
N175 G03 X35.1 Y-31.1 J3.5
N180 X27.1 I-4.
N185 X35.1 I4.
N190 X31.6 Y-27.6 I-3.5
N195 G01 G40 X31.1 Y-31.1
N200 G00 Z5.
N205 X-31.1 Y31.1
N210 Z1.5
N215 G01 Z-0.5 F125.
N220 G41 X-30.85 Y27.85 D02
N225 G03 X-27.6 Y31.1 J3.25
N230 X-34.6 Z-1. I-3.5
N235 X-27.6 Z-1.5 I3.5
N240 X-34.6 Z-2. I-3.5
N245 X-27.6 Z-2.5 I3.5
N250 X-34.6 Z-3. I-3.5
N255 X-27.6 Z-3.5 I3.5
N260 X-34.6 Z-4. I-3.5
N265 X-27.6 Z-4.5 I3.5
N270 X-34.6 Z-5. I-3.5
N275 X-27.6 Z-5.5 I3.5
N280 X-34.6 I-3.5
N285 X-27.6 I3.5
N290 X-30.85 Y34.35 I-3.25
N295 G01 G40 X-31.1 Y31.1
N300 G00 Z5.
N305 Z-3.5
N310 G01 Z-5.5 F125.
N315 G41 X-30.6 Y27.6 D02
N320 G03 X-27.1 Y31.1 J3.5
N325 X-35.1 I-4.
N330 X-27.1 I4.
N335 X-30.6 Y34.6 I-3.5
N340 G01 G40 X-31.1 Y31.1
N345 G00 Z15.

N350 G28 G91 Z0.
N355 G90
N360 G49
N365 G5.1 Q0
N370 G28 G91 X0. Y0.
N375 G90
N380 M30
%
