%
O1001 (MH2E1)
(T1 D=50. CR=0. - ZMIN=-0.5 - FACE MILL)
(T2 D=6. CR=0. - ZMIN=-5.5 - FLAT END MILL)
(T5 D=3. CR=0. TAPER=118DEG - ZMIN=-17.276 - DRILL)
N10 G90 G94 G17 G49 G40 G80
N15 G21
N20 G28 G91 Z0.
N25 G90

(FACE2 2)
N30 T1 
N35 M06
N40 S1000 M03
N45 G54
N50 G5.1 Q1
N55 G00 X79.094 Y-48.612
N60 G43 Z15. H01
N65 G00 Z5.
N70 G01 Z4.5 F300.
N75 G18 G03 X74.094 Z-0.5 I-5.
N80 G01 X53.1
N85 X-53.1
N90 G17 G02 Y-24.375 J12.119
N95 G01 X53.1
N100 G03 Y-0.138 J12.119
N105 G01 X-53.1
N110 G02 Y24.1 J12.119
N115 G01 X53.1
N120 G18 G02 X58.1 Z4.5 K5.
N125 G00 Z15.
N130 G17
N135 M05
N140 G28 G91 Z0.
N145 G90
N150 G49
N155 G5.1 Q0

(DRILL2 2)
N160 M01
N165 T2 
N170 M06
N175 S3500 M03
N180 G54
N185 G00 X31.1 Y31.1
N190 G43 Z8. H02
N195 G00 Z3.
N200 G98 G73 X31.1 Y31.1 Z-6.401 R2. Q0.75 F10.
N205 G80
N210 X0. Y22.5 Z3.
N215 Z2.
N220 G01 Z-0.75 F10.
N225 G00 Z-0.65
N230 G01 Z-1.5 F10.
N235 G00 Z-1.4
N240 G01 Z-2.25 F10.
N245 G00 Z-2.15
N250 G01 Z-3. F10.
N255 G00 Z-2.9
N260 G01 Z-3.75 F10.
N265 G00 Z-3.65
N270 G01 Z-4.5 F10.
N275 G00 Z-4.4
N280 G01 Z-5.25 F10.
N285 G00 Z-5.15
N290 G01 Z-6. F10.
N295 G00 Z-5.9
N300 G01 Z-6.75 F10.
N305 G00 Z-6.65
N310 G01 Z-7.5 F10.
N315 G00 Z-7.4
N320 G01 Z-8.25 F10.
N325 G00 Z3.
N330 Z-6.25
N335 G01 Z-9. F10.
N340 G00 Z-8.9
N345 G01 Z-9.75 F10.
N350 G00 Z-9.65
N355 G01 Z-10.5 F10.
N360 G00 Z-10.4
N365 G01 Z-11.25 F10.
N370 G00 Z-11.15
N375 G01 Z-12. F10.
N380 G00 Z-11.9
N385 G01 Z-12.75 F10.
N390 G00 Z-12.65
N395 G01 Z-13.5 F10.
N400 G00 Z-13.4
N405 G01 Z-14.25 F10.
N410 G00 Z-14.15
N415 G01 Z-15. F10.
N420 G00 Z-14.9
N425 G01 Z-15.75 F10.
N430 G00 Z-15.65
N435 G01 Z-16.5 F10.
N440 G00 Z3.
N445 Z-14.5
N450 G01 Z-17.25 F10.
N455 G00 Z-17.15
N460 G01 Z-17.276 F10.
N465 G00 Z3.
N470 Y0.
N475 Z2.
N480 G01 Z-0.75 F10.
N485 G00 Z-0.65
N490 G01 Z-1.5 F10.
N495 G00 Z-1.4
N500 G01 Z-2.25 F10.
N505 G00 Z-2.15
N510 G01 Z-3. F10.
N515 G00 Z-2.9
N520 G01 Z-3.75 F10.
N525 G00 Z-3.65
N530 G01 Z-4.5 F10.
N535 G00 Z-4.4
N540 G01 Z-5.25 F10.
N545 G00 Z-5.15
N550 G01 Z-6. F10.
N555 G00 Z-5.9
N560 G01 Z-6.75 F10.
N565 G00 Z-6.65
N570 G01 Z-7.5 F10.
N575 G00 Z-7.4
N580 G01 Z-8.25 F10.
N585 G00 Z3.
N590 Z-6.25
N595 G01 Z-9. F10.
N600 G00 Z-8.9
N605 G01 Z-9.75 F10.
N610 G00 Z-9.65
N615 G01 Z-10.5 F10.
N620 G00 Z-10.4
N625 G01 Z-11.25 F10.
N630 G00 Z-11.15
N635 G01 Z-12. F10.
N640 G00 Z-11.9
N645 G01 Z-12.75 F10.
N650 G00 Z-12.65
N655 G01 Z-13.5 F10.
N660 G00 Z-13.4
N665 G01 Z-14.25 F10.
N670 G00 Z-14.15
N675 G01 Z-15. F10.
N680 G00 Z-14.9
N685 G01 Z-15.75 F10.
N690 G00 Z-15.65
N695 G01 Z-16.5 F10.
N700 G00 Z3.
N705 Z-14.5
N710 G01 Z-17.25 F10.
N715 G00 Z-17.15
N720 G01 Z-17.276 F10.
N725 G00 Z3.
N730 Y-22.5
N735 Z2.
N740 G01 Z-0.75 F10.
N745 G00 Z-0.65
N750 G01 Z-1.5 F10.
N755 G00 Z-1.4
N760 G01 Z-2.25 F10.
N765 G00 Z-2.15
N770 G01 Z-3. F10.
N775 G00 Z-2.9
N780 G01 Z-3.75 F10.
N785 G00 Z-3.65
N790 G01 Z-4.5 F10.
N795 G00 Z-4.4
N800 G01 Z-5.25 F10.
N805 G00 Z-5.15
N810 G01 Z-6. F10.
N815 G00 Z-5.9
N820 G01 Z-6.75 F10.
N825 G00 Z-6.65
N830 G01 Z-7.5 F10.
N835 G00 Z-7.4
N840 G01 Z-8.25 F10.
N845 G00 Z3.
N850 Z-6.25
N855 G01 Z-9. F10.
N860 G00 Z-8.9
N865 G01 Z-9.75 F10.
N870 G00 Z-9.65
N875 G01 Z-10.5 F10.
N880 G00 Z-10.4
N885 G01 Z-11.25 F10.
N890 G00 Z-11.15
N895 G01 Z-12. F10.
N900 G00 Z-11.9
N905 G01 Z-12.75 F10.
N910 G00 Z-12.65
N915 G01 Z-13.5 F10.
N920 G00 Z-13.4
N925 G01 Z-14.25 F10.
N930 G00 Z-14.15
N935 G01 Z-15. F10.
N940 G00 Z-14.9
N945 G01 Z-15.75 F10.
N950 G00 Z-15.65
N955 G01 Z-16.5 F10.
N960 G00 Z3.
N965 Z-14.5
N970 G01 Z-17.25 F10.
N975 G00 Z-17.15
N980 G01 Z-17.276 F10.
N985 G00 Z3.
N990 X-31.1 Y-31.1
N995 G73 X-31.1 Y-31.1 Z-6.401 R2. Q0.75 F10.
N1000 G80
N1005 Z8.
N1010 M05
N1015 G28 G91 Z0.
N1020 G90
N1025 G49

(BORE1 2)
N1030 M01
N1035 T3 
N1040 M06
N1045 S6000 M03
N1050 G54
N1055 G5.1 Q1
N1060 G00 X31.1 Y31.1
N1065 G43 Z15. H03
N1070 G00 Z1.5
N1075 G01 Z-0.5 F125.
N1080 G41 X31.388 Y27.813 D03
N1085 G03 X34.675 Y31.1 J3.288
N1090 X27.525 Z-1. I-3.575
N1095 X34.675 Z-1.5 I3.575
N1100 X27.525 Z-2. I-3.575
N1105 X34.675 Z-2.5 I3.575
N1110 X27.525 Z-3. I-3.575
N1115 X34.675 Z-3.5 I3.575
N1120 X27.525 Z-4. I-3.575
N1125 X34.675 Z-4.5 I3.575
N1130 X27.525 Z-5. I-3.575
N1135 X34.675 Z-5.5 I3.575
N1140 X27.525 I-3.575
N1145 X34.675 I3.575
N1150 X31.388 Y34.388 I-3.287
N1155 G01 G40 X31.1 Y31.1
N1160 G00 Z5.
N1165 Z15.
N1170 Z-3.5
N1175 G01 Z-5.5 F125.
N1180 G41 X31.638 Y27.563 D03
N1185 G03 X35.175 Y31.1 J3.538
N1190 X27.025 I-4.075
N1195 X35.175 I4.075
N1200 X31.638 Y34.638 I-3.537
N1205 G01 G40 X31.1 Y31.1
N1210 G00 Z5.
N1215 X-31.1 Y-31.1
N1220 Z1.5
N1225 G01 Z-0.5 F125.
N1230 G41 X-30.813 Y-34.388 D03
N1235 G03 X-27.525 Y-31.1 J3.288
N1240 X-34.675 Z-1. I-3.575
N1245 X-27.525 Z-1.5 I3.575
N1250 X-34.675 Z-2. I-3.575
N1255 X-27.525 Z-2.5 I3.575
N1260 X-34.675 Z-3. I-3.575
N1265 X-27.525 Z-3.5 I3.575
N1270 X-34.675 Z-4. I-3.575
N1275 X-27.525 Z-4.5 I3.575
N1280 X-34.675 Z-5. I-3.575
N1285 X-27.525 Z-5.5 I3.575
N1290 X-34.675 I-3.575
N1295 X-27.525 I3.575
N1300 X-30.813 Y-27.813 I-3.288
N1305 G01 G40 X-31.1 Y-31.1
N1310 G00 Z5.
N1315 Z-3.5
N1320 G01 Z-5.5 F125.
N1325 G41 X-30.563 Y-34.638 D03
N1330 G03 X-27.025 Y-31.1 J3.538
N1335 X-35.175 I-4.075
N1340 X-27.025 I4.075
N1345 X-30.563 Y-27.563 I-3.538
N1350 G01 G40 X-31.1 Y-31.1
N1355 G00 Z15.

(2D POCKET1)
N1360 G00 X-41.492 Y39.805
N1365 Z15.
N1370 Z5.
N1375 G01 Z-0.9 F150.
N1380 G18 G02 X-40.892 Z-1.5 I0.6
N1385 G01 X-40.348
N1390 X-40.124
N1395 G17 G03 X-39.805 Y40.124 J0.319
N1400 G01 Y40.352
N1405 G03 X-40.382 Y40.467 I-0.3
N1410 G01 X-41.272 Y38.32
N1415 G03 X-40.995 Y37.905 I0.277 J-0.115
N1420 G01 X-38.224
N1425 G03 X-37.905 Y38.224 J0.319
N1430 G01 Y40.997
N1435 G03 X-38.855 I-0.475
N1440 X-38.828 Y40.838 I0.475
N1445 G01 X-38.282 Y39.299
N1450 G02 X-38.671 Y38.669 I-0.448 J-0.159
N1455 G01 X-40.995 Y38.38
N1460 G03 X-41.411 Y37.929 I0.059 J-0.471
N1465 G01 X-41.473 Y36.501
N1470 G03 X-40.999 Y36.005 I0.475 J-0.021
N1475 G01 X-36.324
N1480 G03 X-36.005 Y36.324 J0.319
N1485 G01 Y40.993
N1490 G03 X-36.52 Y41.466 I-0.475
N1495 X-36.948 Y40.912 I0.04 J-0.473
N1500 G01 X-36.331 Y37.329
N1505 G02 X-36.766 Y36.774 I-0.468 J-0.081
N1510 G01 X-40.999 Y36.48
N1515 G03 X-41.441 Y36.014 I0.033 J-0.474
N1520 G01 X-41.466 Y34.583
N1525 G03 X-40.991 Y34.1 I0.475 J-0.008
N1530 G01 X-34.1
N1535 Y38.1
N1540 Y40.992
N1545 X-34.107 Y41.086
N1550 X-34.159 Y41.41
N1555 X-34.173 Y41.503 Z-1.493
N1560 X-34.188 Y41.594 Z-1.471
N1565 X-34.201 Y41.679 Z-1.435
N1570 X-34.214 Y41.759 Z-1.385
N1575 X-34.225 Y41.829 Z-1.324
N1580 X-34.235 Y41.89 Z-1.253
N1585 X-34.242 Y41.938 Z-1.172
N1590 X-34.248 Y41.974 Z-1.085
N1595 X-34.251 Y41.996 Z-0.994
N1600 X-34.253 Y42.003 Z-0.9
N1605 G00 Z15.
N1610 X41.508 Y-39.805
N1615 Z5.
N1620 G01 Z-0.9 F150.
N1625 G18 G03 X40.908 Z-1.5 I-0.6
N1630 G01 X40.348
N1635 X40.124
N1640 G17 G03 X39.805 Y-40.124 J-0.319
N1645 G01 Y-40.352
N1650 G03 X40.382 Y-40.467 I0.3
N1655 G01 X41.272 Y-38.32
N1660 G03 X40.995 Y-37.905 I-0.277 J0.115
N1665 G01 X38.224
N1670 G03 X37.905 Y-38.224 J-0.319
N1675 G01 Y-40.997
N1680 G03 X38.855 I0.475
N1685 X38.828 Y-40.838 I-0.475
N1690 G01 X38.282 Y-39.299
N1695 G02 X38.671 Y-38.669 I0.448 J0.159
N1700 G01 X40.995 Y-38.38
N1705 G03 X41.411 Y-37.929 I-0.059 J0.471
N1710 G01 X41.473 Y-36.501
N1715 G03 X40.999 Y-36.005 I-0.475 J0.021
N1720 G01 X36.324
N1725 G03 X36.005 Y-36.324 J-0.319
N1730 G01 Y-40.993
N1735 G03 X36.52 Y-41.466 I0.475
N1740 X36.948 Y-40.912 I-0.04 J0.473
N1745 G01 X36.331 Y-37.329
N1750 G02 X36.766 Y-36.774 I0.468 J0.081
N1755 G01 X40.999 Y-36.48
N1760 G03 X41.441 Y-36.014 I-0.033 J0.474
N1765 G01 X41.466 Y-34.583
N1770 G03 X40.991 Y-34.1 I-0.475 J0.008
N1775 G01 X34.1
N1780 Y-38.1
N1785 Y-40.992
N1790 X34.107 Y-41.086
N1795 X34.159 Y-41.41
N1800 X34.173 Y-41.503 Z-1.493
N1805 X34.188 Y-41.594 Z-1.471
N1810 X34.201 Y-41.679 Z-1.435
N1815 X34.214 Y-41.759 Z-1.385
N1820 X34.225 Y-41.829 Z-1.324
N1825 X34.235 Y-41.89 Z-1.253
N1830 X34.242 Y-41.938 Z-1.172
N1835 X34.248 Y-41.974 Z-1.085
N1840 X34.251 Y-41.996 Z-0.994
N1845 X34.253 Y-42.003 Z-0.9
N1850 G00 Z15.

N1855 G28 G91 Z0.
N1860 G90
N1865 G49
N1870 G5.1 Q0
N1875 G28 G91 X0. Y0.
N1880 G90
N1885 M30
%
