%
O1001 (MH2E2)
(T2 D=6. CR=0. - ZMIN=-11. - FLAT END MILL)
N10 G90 G94 G17 G49 G40 G80
N15 G21
N20 G28 G91 Z0.
N25 G90

(POCKET3 2)
N30 T3 
N32 M06
N35 S6000 M03
N40 G54
N45 G5.1 Q1
N50 G00 X-5.391 Y25.726
N55 G43 Z15. H03
N60 G00 Z2.
N65 G01 Z1.65 F50.
N70 X-5.396 Y25.707 Z1.498 F200.
N75 X-5.412 Y25.652 Z1.356
N80 X-5.433 Y25.563 Z1.233
N85 X-5.457 Y25.446 Z1.137
N90 X-5.479 Y25.307 Z1.075
N95 X-5.495 Y25.157 Z1.05
N100 G03 X0.186 Y24.702 Z0.737 I2.841 J-0.228
N105 X-5.495 Y25.157 Z0.425 I-2.841 J0.228
N110 X0.186 Y24.702 Z0.112 I2.841 J-0.228
N115 X-5.495 Y25.157 Z-0.201 I-2.841 J0.228
N120 X0.186 Y24.702 Z-0.513 I2.841 J-0.228
N125 X-5.495 Y25.157 Z-0.826 I-2.841 J0.228
N130 X-2.377 Y22.093 Z-1. I2.841 J-0.228
N135 G02 X21.709 Y5.057 I2.198 J-22.437
N140 X22.324 Y0.696 I-21.544 J-5.263
N145 X21.977 Y-3.694 I-18.427 J-0.751
N150 X14.329 Y-17.066 I-23.939 J4.818
N155 X5.168 Y-21.712 I-13.226 J14.726
N160 X-5.103 Y-21.681 I-5.065 J24.137
N165 X-16.078 Y-15.477 I4.476 J20.726
N170 X-21.86 Y-4.275 I16.742 J15.735
N175 X-21.805 Y4.284 I20.61 J4.148
N180 X-18.625 Y12.231 I24.835 J-5.33
N185 X-14.188 Y17.284 I16.886 J-10.352
N190 X-8.372 Y20.659 I13.789 J-17.064
N195 X-2.377 Y22.093 I8.193 J-21.003
N200 X-0.209 Y20.89 I0.213 J-2.171
N205 G03 X1.834 Y19.487 I2.278 J1.129
N210 G02 X5.742 Y18.731 I-1.866 J-20.124
N215 X13.413 Y14.281 I-5.418 J-18.173
N220 X17.859 Y8.026 I-13.941 J-14.617
N225 X19.582 Y0.547 I-17.55 J-7.981
N230 X12.283 Y-15.114 I-19.368 J-0.505
N235 X-4.542 Y-19.04 I-12.548 J15.757
N240 X-14.302 Y-13.303 I3.851 J17.72
N245 X-19.33 Y-3.161 I16.423 J14.46
N250 X-19.154 Y4.146 I16.222 J3.265
N255 X-16.292 Y10.87 I22.849 J-5.755
N260 X-10.623 Y16.544 I15.129 J-9.447
N265 X-3.105 Y19.339 I10.539 J-16.845
N270 X1.834 Y19.487 I3.073 J-19.976
N275 X3.858 Y17.755 I-0.213 J-2.297
N280 G03 X5.645 Y15.781 I2.751 J0.695
N285 G02 X16.463 Y3.775 I-5.824 J-16.125
N290 X12.925 Y-10.873 I-15.954 J-3.898
N295 X3.852 Y-16.319 I-12.791 J11.029
N300 X-6.697 Y-15.479 I-3.924 J17.388
N305 X-14.301 Y-9.096 I5.91 J14.762
N310 X-16.882 Y0.49 I14.654 J9.086
N315 X-13.925 Y9.636 I17.161 J-0.499
N320 X-6.409 Y15.628 I13.403 J-9.1
N325 X5.645 Y15.781 I6.231 J-15.972
N330 X7.161 Y13.641 I-0.78 J-2.159
N335 G03 X8.311 Y11.284 I3.043 J0.025
N340 G01 X9.463 Y10.369
N345 X9.582 Y10.265
N350 G02 X10.016 Y9.829 I-5.132 J-5.549
N355 X11.36 Y8.254 I-22.639 J-20.664
N360 G01 X11.452 Y8.128
N365 X11.551 Y7.981
N370 X11.614 Y7.881
N375 X12.376 Y6.566
N380 X12.541 Y6.292
N385 X12.619 Y6.15
N390 X12.801 Y5.774
N395 X12.842 Y5.683
N400 X12.878 Y5.59
N405 X13.52 Y3.762
N410 X13.566 Y3.61
N415 X13.692 Y3.111
N420 X13.712 Y3.023
N425 X13.727 Y2.934
N430 G02 X14.012 Y0.895 I-40.879 J-6.762
N435 G01 X14.024 Y0.74
N440 X14.033 Y0.408
N445 X14.032 Y0.281
N450 G02 X13.919 Y-1.844 I-39.912 J1.058
N455 G01 X13.908 Y-1.955
N460 X13.889 Y-2.066
N465 G02 X13.405 Y-4.152 I-26.154 J4.967
N470 G01 X13.25 Y-4.649
N475 X13.215 Y-4.751
N480 X13.174 Y-4.85
N485 X12.501 Y-6.337
N490 X12.397 Y-6.575
N495 X12.361 Y-6.651
N500 X12.322 Y-6.726
N505 X12.091 Y-7.142
N510 X12.042 Y-7.224
N515 X11.989 Y-7.303
N520 X10.869 Y-8.882
N525 X10.767 Y-9.012
N530 X10.48 Y-9.344
N535 X10.366 Y-9.465
N540 G02 X8.816 Y-10.928 I-24.058 J23.92
N545 G01 X8.752 Y-10.983
N550 X8.685 Y-11.035
N555 X8.353 Y-11.28
N560 X8.26 Y-11.344
N565 X6.93 Y-12.198
N570 G02 X6.471 Y-12.463 I-4.724 J7.651
N575 G01 X6.384 Y-12.509
N580 X6.295 Y-12.551
N585 G02 X4.176 Y-13.404 I-13.167 J29.625
N590 G01 X3.843 Y-13.506
N595 X3.754 Y-13.531
N600 X3.664 Y-13.551
N605 X1.835 Y-13.912
N610 X1.694 Y-13.934
N615 X1.195 Y-13.991
N620 X1.096 Y-13.999
N625 X0.997 Y-14.002
N630 X-0.997
N635 X-1.096 Y-13.999
N640 X-1.195 Y-13.991
N645 X-1.694 Y-13.934
N650 X-1.828 Y-13.914
N655 G02 X-3.696 Y-13.545 I7.185 J41.301
N660 G01 X-3.843 Y-13.506
N665 X-4.176 Y-13.403
N670 X-4.287 Y-13.364
N675 G02 X-6.353 Y-12.524 I12.261 J33.097
N680 G01 X-6.465 Y-12.469
N685 X-6.572 Y-12.407
N690 X-6.905 Y-12.202
N695 X-6.931 Y-12.185
N700 X-7.907 Y-11.558
N705 X-8.219 Y-11.37
N710 X-8.355 Y-11.279
N715 X-8.703 Y-11.021
N720 X-8.778 Y-10.963
N725 X-8.85 Y-10.9
N730 X-9.174 Y-10.6
N735 X-9.194 Y-10.581
N740 X-10.362 Y-9.468
N745 X-10.423 Y-9.408
N750 X-10.48 Y-9.344
N755 X-10.767 Y-9.012
N760 X-10.869 Y-8.882
N765 X-11.989 Y-7.303
N770 X-12.039 Y-7.228
N775 X-12.086 Y-7.15
N780 X-12.273 Y-6.818
N785 X-12.337 Y-6.694
N790 X-12.799 Y-5.697
N795 X-12.811 Y-5.669
N800 X-13.18 Y-4.837
N805 X-13.236 Y-4.694
N810 G02 X-13.435 Y-4.044 I7.726 J2.725
N815 X-13.889 Y-2.066 I25.746 J6.957
N820 G01 X-13.909 Y-1.944
N825 X-13.921 Y-1.822
N830 X-13.964 Y-1.074
N835 X-13.965 Y-1.061
N840 X-14.032 Y0.269
N845 X-14.033 Y0.408
N850 X-14.024 Y0.74
N855 X-14.018 Y0.834
N860 X-14.008 Y0.927
N865 X-13.871 Y1.924
N870 X-13.87 Y1.934
N875 X-13.727 Y2.931
N880 X-13.712 Y3.022
N885 X-13.692 Y3.111
N890 X-13.566 Y3.61
N895 X-13.523 Y3.754
N900 X-13.121 Y4.917
N905 X-13.113 Y4.939
N910 X-12.873 Y5.604
N915 X-12.841 Y5.687
N920 X-12.804 Y5.767
N925 G02 X-11.452 Y8.131 I20.473 J-10.141
N930 G01 X-11.354 Y8.26
N935 G02 X-9.709 Y10.155 I22.688 J-18.039
N940 G01 X-9.596 Y10.253
N945 X-9.453 Y10.376
N950 X-9.426 Y10.398
N955 X-9.399 Y10.42
N960 X-7.99 Y11.537
N965 X-7.869 Y11.625
N970 X-7.457 Y11.898
N975 X-7.376 Y11.949
N980 X-7.292 Y11.995
N985 X-5.54 Y12.898
N990 X-5.458 Y12.938
N995 X-5.374 Y12.973
N1000 X-4.958 Y13.135
N1005 X-4.814 Y13.184
N1010 X-3.151 Y13.671
N1015 X-2.743 Y13.772
N1020 X-2.593 Y13.802
N1025 X-2.158 Y13.866
N1030 X-0.496 Y14.022
N1035 X-0.08 Y14.043
N1040 X0.08
N1045 G02 X2.644 Y13.788 I-1.044 J-23.534
N1050 G01 X2.77 Y13.767
N1055 X2.895 Y13.737
N1060 X4.807 Y13.186
N1065 X4.958 Y13.135
N1070 X5.374 Y12.973
N1075 X5.458 Y12.938
N1080 X5.54 Y12.898
N1085 X7.292 Y11.995
N1090 X7.436 Y11.912
N1095 G02 X8.311 Y11.284 I-4.328 J-6.958
N1100 G03 X8.736 Y11.337 I0.186 J0.235
N1105 G01 X13.613 Y17.743
N1110 G03 X13.554 Y18.165 I-0.239 J0.182
N1115 X-22.679 Y-0.614 I-13.572 J-18.158
N1120 X-15.091 Y-17.008 I22.864 J0.629
N1125 X2.099 Y-22.561 I14.83 J16.527
N1130 X9.018 Y-20.8 I-2.668 J24.954
N1135 X15.034 Y-16.955 I-7.756 J18.765
N1140 X22.147 Y-4.4 I-16.045 J17.383
N1145 X20.369 Y9.921 I-21.858 J4.556
N1150 X13.554 Y18.165 I-20.387 J-9.914
N1155 G02 X12.728 Y20.381 I1.308 J1.749
N1160 G03 X11.726 Y22.523 I-1.901 J0.416
N1165 X-23.881 Y-8.628 I-11.727 J-22.521
N1170 X11.68 Y-22.544 I23.876 J8.617
N1175 X20.774 Y14.6 I-11.689 J22.547
N1180 X11.726 Y22.523 I-20.775 J-14.598
N1185 G02 X10.561 Y24.573 I1.002 J1.925
N1190 G03 X9.252 Y26.535 I-1.955 J0.113
N1195 X-25.282 Y-12.253 I-9.261 J-26.522
N1200 X15.495 Y-23.434 I25.294 J12.301
N1205 X21.118 Y18.529 I-15.503 J23.435
N1210 X9.252 Y26.535 I-21.127 J-18.516
N1215 G02 X7.76 Y28.498 I0.736 J2.108
N1220 G03 X6.102 Y30.322 I-1.973 J-0.128
N1225 G01 X3.304 Y30.773
N1230 X0. Y30.95
N1235 X-3.304 Y30.773
N1240 X-6.528 Y30.253
N1245 X-9.755 Y29.371
N1250 X-12.823 Y28.167
N1255 X-15.723 Y26.658
N1260 X-18.491 Y24.817
N1265 X-20.985 Y22.749
N1270 X-23.318 Y20.348
N1275 X-25.322 Y17.796
N1280 X-27.09 Y14.964
N1285 X-28.528 Y11.997
N1290 X-29.639 Y8.909
N1295 X-30.407 Y5.765
N1300 X-30.852 Y2.46
N1305 X-30.938 Y-0.841
N1310 X-30.669 Y-4.146
N1315 X-30.531 Y-4.882
N1320 X-30.059 Y-7.369
N1325 X-29.108 Y-10.515
N1330 X-27.848 Y-13.501
N1335 X-26.216 Y-16.448
N1340 X-24.364 Y-19.084
N1345 X-22.147 Y-21.617
N1350 X-19.753 Y-23.827
N1355 X-17.07 Y-25.814
N1360 X-14.238 Y-27.478
N1365 X-11.248 Y-28.833
N1370 X-8.144 Y-29.859
N1375 X-4.913 Y-30.557
N1380 X-1.652 Y-30.906
N1385 X1.652
N1390 X4.913 Y-30.557
N1395 X8.144 Y-29.859
N1400 X11.248 Y-28.833
N1405 X14.238 Y-27.478
N1410 X17.07 Y-25.814
N1415 X19.753 Y-23.827
N1420 X22.147 Y-21.617
N1425 X24.364 Y-19.084
N1430 X26.216 Y-16.448
N1435 X27.848 Y-13.501
N1440 X29.108 Y-10.515
N1445 X30.058 Y-7.37
N1450 X30.68 Y-4.064
N1455 X30.938 Y-0.842
N1460 X30.852 Y2.46
N1465 X30.407 Y5.765
N1470 X29.639 Y8.907
N1475 X28.496 Y12.072
N1480 X27.09 Y14.963
N1485 X25.322 Y17.795
N1490 X23.264 Y20.41
N1495 X20.986 Y22.748
N1500 X18.491 Y24.817
N1505 X15.723 Y26.658
N1510 X12.823 Y28.167
N1515 X9.755 Y29.371
N1520 X6.528 Y30.253
N1525 X6.102 Y30.322
N1530 G03 X5.764 Y30.104 I-0.048 J-0.296
N1535 G01 X4.086 Y23.913
N1540 X4.067 Y23.862
N1545 X4.039 Y23.815
N1550 X0.25 Y18.63
N1555 G03 X0.292 Y18.23 I0.242 J-0.177
N1560 X4.095 Y22.476 Z-1.313 I1.902 J2.123
N1565 X0.292 Y18.23 Z-1.625 I-1.902 J-2.123
N1570 X4.095 Y22.476 Z-1.938 I1.902 J2.123
N1575 X2.5 Y23.186 Z-2. I-1.902 J-2.123
N1580 X-21.946 Y-7.879 I-2.5 J-23.184
N1585 X10.757 Y-20.69 I21.956 J7.902
N1590 X19.085 Y13.4 I-10.745 J20.687
N1595 X2.5 Y23.186 I-19.085 J-13.398
N1600 G02 X1.153 Y24.285 I0.171 J1.584
N1605 G03 X-0.256 Y25.302 I-1.394 J-0.447
N1610 X-22.138 Y12.254 I0.256 J-25.303
N1615 X-23.956 Y-7.996 I22.029 J-12.184
N1620 X-10.31 Y-23.068 I24.179 J8.179
N1625 X15.096 Y20.307 I10.428 J23.02
N1630 X-0.256 Y25.302 I-15.095 J-20.309
N1635 G02 X-2.247 Y26.56 I-0.022 J2.169
N1640 G03 X-4.323 Y27.672 I-1.775 J-0.82
N1645 X-27.756 Y-3.738 I4.323 J-27.671
N1650 X-20.43 Y-19.065 I27.387 J3.677
N1655 X-5.626 Y-27.398 I20.885 J19.785
N1660 X16.26 Y-22.854 I5.824 J26.928
N1665 X27.762 Y-3.687 I-16.427 J22.893
N1670 X0. Y28.008 I-27.747 J3.702
N1675 X-4.323 Y27.672 J-28.007
N1680 G02 X-6.568 Y28.662 I-0.351 J2.245
N1685 G03 X-8.865 Y29.526 I-1.746 J-1.156
N1690 G01 X-9.674 Y29.305
N1695 X-12.742 Y28.108
N1700 X-15.651 Y26.597
N1705 X-18.411 Y24.768
N1710 X-20.951 Y22.659
N1715 X-23.234 Y20.312
N1720 X-25.258 Y17.734
N1725 X-27.001 Y14.944
N1730 X-28.443 Y11.974
N1735 X-29.548 Y8.909
N1740 X-30.332 Y5.683
N1745 X-30.763 Y2.461
N1750 X-30.849 Y-0.842
N1755 X-30.585 Y-4.117
N1760 X-29.982 Y-7.315
N1765 X-29.043 Y-10.433
N1770 X-27.752 Y-13.501
N1775 X-26.15 Y-16.389
N1780 X-24.286 Y-19.041
N1785 X-22.113 Y-21.528
N1790 X-19.662 Y-23.785
N1795 X-17.068 Y-25.712
N1800 X-14.234 Y-27.383
N1805 X-11.217 Y-28.75
N1810 X-8.101 Y-29.779
N1815 X-4.914 Y-30.468
N1820 X-1.652 Y-30.817
N1825 X1.652
N1830 X4.914 Y-30.468
N1835 X8.101 Y-29.779
N1840 X11.217 Y-28.75
N1845 X14.234 Y-27.383
N1850 X17.068 Y-25.712
N1855 X19.662 Y-23.785
N1860 X22.113 Y-21.528
N1865 X24.285 Y-19.042
N1870 X26.183 Y-16.334
N1875 X27.751 Y-13.502
N1880 X29.043 Y-10.433
N1885 X29.982 Y-7.316
N1890 X30.591 Y-4.065
N1895 X30.849 Y-0.842
N1900 X30.763 Y2.461
N1905 X30.332 Y5.683
N1910 X29.548 Y8.909
N1915 X28.443 Y11.974
N1920 X27.001 Y14.944
N1925 X25.258 Y17.734
N1930 X23.234 Y20.312
N1935 X20.951 Y22.659
N1940 X18.411 Y24.768
N1945 X15.651 Y26.597
N1950 X12.742 Y28.108
N1955 X9.674 Y29.305
N1960 X6.528 Y30.163
N1965 X3.304 Y30.683
N1970 X0. Y30.862
N1975 X-3.304 Y30.683
N1980 X-6.528 Y30.163
N1985 X-8.865 Y29.526
N1990 G03 X-9.078 Y29.171 I0.079 J-0.289
N1995 G01 X-7.209 Y20.841
N2000 G03 X-6.827 Y20.621 I0.293 J0.066
N2005 G02 X-3.719 Y21.339 I6.236 J-19.909
N2010 X5.452 Y20.93 I3.551 J-23.415
N2015 X13.651 Y16.801 I-4.841 J-19.82
N2020 X20.988 Y5.565 I-14.563 J-17.523
N2025 X20.191 Y-7.83 I-19.397 J-5.568
N2030 X15.063 Y-15.528 I-22.64 J9.528
N2035 X7.211 Y-20.418 I-14.064 J13.834
N2040 X-8.671 Y-19.795 I-7.113 J21.437
N2045 X-19.893 Y-8.538 I8.152 J19.349
N2050 X-19.096 Y10.346 I20.568 J8.591
N2055 X-6.827 Y20.621 I18.505 J-9.635
N2060 X-5.053 Y20.086 I0.493 J-1.574
N2065 G03 X-3.321 Y19.429 I1.432 J1.162
N2070 G02 X1.862 Y19.582 I3.155 J-19.081
N2075 X15.875 Y11.393 I-2.069 J-19.623
N2080 X19.146 Y-4.504 I-16.398 J-11.659
N2085 X8.856 Y-17.587 I-18.54 J3.994
N2090 X-7.782 Y-18.063 I-8.85 J18.319
N2095 X-10.458 Y-16.708 I7.566 J18.26
N2100 X-12.85 Y-14.896 I7.534 J12.434
N2105 X-17.003 Y-9.774 I16.371 J17.519
N2110 X-19.336 Y-3.607 I15.605 J9.426
N2115 X-14.537 Y13.29 I19.607 J3.562
N2120 X-3.321 Y19.429 I14.372 J-12.942
N2125 X-1.05 Y18.315 I0.355 J-2.147
N2130 G03 X1.058 Y16.916 I2.364 J1.274
N2135 G02 X7.485 Y15.156 I-1.862 J-19.412
N2140 X13.323 Y10.509 I-6.863 J-14.615
N2145 X16.683 Y-3.103 I-13.422 J-10.533
N2150 X8.652 Y-14.596 I-16.597 J3.045
N2155 X2.119 Y-16.901 I-9.158 J15.541
N2160 X-4.782 Y-16.291 I-2.172 J14.768
N2165 X-9.558 Y-14.044 I7.14 J21.373
N2170 X-13.397 Y-10.423 I7.059 J11.331
N2175 X-16.517 Y-3.797 I17.108 J12.102
N2180 X-16.607 Y3.526 I14.173 J3.837
N2185 X-10.606 Y13.292 I18.177 J-4.443
N2190 X0.248 Y16.976 I10.023 J-11.697
N2195 X1.058 Y16.916 I-1.052 J-19.472
N2200 X3.124 Y15.207 I-0.228 J-2.379
N2205 G03 X4.936 Y13.23 I2.912 J0.851
N2210 G01 X5.622 Y12.963
N2215 X5.706 Y12.928
N2220 X5.789 Y12.888
N2225 X7.119 Y12.202
N2230 X7.247 Y12.129
N2235 G02 X9.524 Y10.434 I-8.603 J-13.934
N2240 G01 X9.593 Y10.376
N2245 X9.659 Y10.314
N2250 X10.399 Y9.557
N2255 X10.489 Y9.457
N2260 G02 X11.539 Y8.156 I-16.224 J-14.163
N2265 G01 X11.6 Y8.072
N2270 X11.655 Y7.985
N2275 X12.096 Y7.249
N2280 X12.421 Y6.723
N2285 X12.467 Y6.644
N2290 X12.509 Y6.563
N2295 X12.971 Y5.604
N2300 X13.01 Y5.517
N2305 X13.044 Y5.428
N2310 X13.545 Y4.015
N2315 X13.572 Y3.932
N2320 X13.595 Y3.847
N2325 X13.839 Y2.85
N2330 X13.858 Y2.763
N2335 X13.872 Y2.676
N2340 X14.069 Y1.263
N2345 X14.073 Y1.23
N2350 X14.077 Y1.197
N2355 X14.093 Y1.031
N2360 X14.102 Y0.904
N2365 G02 X14.119 Y-0.302 I-25.387 J-0.96
N2370 G01 X14.115 Y-0.425
N2375 X14.048 Y-1.423
N2380 X14.046 Y-1.451
N2385 X14.018 Y-1.783
N2390 X14.009 Y-1.867
N2395 X13.996 Y-1.95
N2400 G02 X13.721 Y-3.335 I-22.145 J3.677
N2405 G01 X13.693 Y-3.448
N2410 G02 X13.3 Y-4.774 I-18.779 J4.838
N2415 G01 X13.272 Y-4.854
N2420 X13.24 Y-4.932
N2425 X12.629 Y-6.328
N2430 X12.555 Y-6.477
N2435 X12.072 Y-7.344
N2440 X12.024 Y-7.425
N2445 X11.972 Y-7.503
N2450 X11.07 Y-8.777
N2455 X11.016 Y-8.85
N2460 X10.957 Y-8.921
N2465 X10.292 Y-9.679
N2470 X10.179 Y-9.797
N2475 X9.514 Y-10.425
N2480 X9.496 Y-10.442
N2485 X9.05 Y-10.851
N2490 X8.981 Y-10.912
N2495 X8.908 Y-10.969
N2500 X8.023 Y-11.624
N2505 X7.909 Y-11.702
N2510 G02 X6.48 Y-12.562 I-13.822 J21.352
N2515 G01 X6.376 Y-12.61
N2520 G02 X4.957 Y-13.225 I-9.944 J20.995
N2525 G01 X4.84 Y-13.269
N2530 X3.876 Y-13.589
N2535 X3.781 Y-13.618
N2540 X3.684 Y-13.641
N2545 X2.188 Y-13.955
N2550 X2.035 Y-13.98
N2555 X1.204 Y-14.079
N2560 X1.046 Y-14.09
N2565 G02 X-0.75 Y-14.108 I-1.212 J31.568
N2570 G01 X-0.843 Y-14.106
N2575 X-0.935 Y-14.098
N2580 X-2.016 Y-13.982
N2585 X-2.159 Y-13.961
N2590 G02 X-3.699 Y-13.638 I5.792 J31.428
N2595 G01 X-3.79 Y-13.615
N2600 X-3.879 Y-13.588
N2605 X-4.877 Y-13.255
N2610 X-4.992 Y-13.212
N2615 G02 X-6.451 Y-12.573 I8.014 J20.287
N2620 G01 X-6.551 Y-12.523
N2625 X-6.648 Y-12.467
N2630 X-7.226 Y-12.106
N2635 X-7.872 Y-11.724
N2640 X-7.949 Y-11.676
N2645 X-8.023 Y-11.624
N2650 X-8.908 Y-10.969
N2655 X-8.986 Y-10.907
N2660 X-9.061 Y-10.841
N2665 X-10.172 Y-9.803
N2670 X-10.234 Y-9.742
N2675 X-10.292 Y-9.679
N2680 X-10.957 Y-8.921
N2685 X-11.016 Y-8.85
N2690 X-11.07 Y-8.777
N2695 X-11.971 Y-7.504
N2700 X-12.023 Y-7.426
N2705 X-12.071 Y-7.345
N2710 X-12.555 Y-6.477
N2715 X-12.618 Y-6.351
N2720 G02 X-13.28 Y-4.83 I24.334 J11.485
N2725 G01 X-13.311 Y-4.749
N2730 X-13.339 Y-4.666
N2735 G02 X-13.995 Y-1.95 I16.408 J5.401
N2740 G01 X-14.011 Y-1.843
N2745 X-14.021 Y-1.734
N2750 X-14.048 Y-1.254
N2755 X-14.121 Y-0.272
N2760 X-14.126 Y-0.182
N2765 Y-0.092
N2770 X-14.095 Y0.988
N2775 X-14.09 Y1.083
N2780 X-14.079 Y1.178
N2785 X-13.872 Y2.674
N2790 X-13.858 Y2.762
N2795 X-13.839 Y2.85
N2800 X-13.595 Y3.847
N2805 X-13.572 Y3.932
N2810 X-13.545 Y4.015
N2815 X-13.044 Y5.428
N2820 X-13.011 Y5.515
N2825 X-12.973 Y5.6
N2830 X-12.55 Y6.483
N2835 X-12.492 Y6.594
N2840 G02 X-11.574 Y8.107 I17.388 J-9.514
N2845 G01 X-11.525 Y8.18
N2850 X-11.473 Y8.25
N2855 G02 X-10.485 Y9.463 I17.535 J-13.274
N2860 G01 X-10.399 Y9.557
N2865 X-9.659 Y10.314
N2870 X-9.587 Y10.383
N2875 X-9.511 Y10.448
N2880 X-8.335 Y11.405
N2885 X-8.202 Y11.502
N2890 G02 X-7.149 Y12.187 I7.135 J-9.823
N2895 G01 X-7.119 Y12.202
N2900 X-5.789 Y12.888
N2905 X-5.706 Y12.928
N2910 X-5.622 Y12.963
N2915 X-4.669 Y13.334
N2920 X-4.514 Y13.386
N2925 G02 X-2.743 Y13.862 I7.422 J-24.088
N2930 G01 X-2.59 Y13.892
N2935 G02 X-0.091 Y14.13 I2.84 J-16.602
N2940 G01 X0.003 Y14.133
N2945 X0.097 Y14.13
N2950 G02 X1.948 Y13.99 I-0.463 J-18.325
N2955 G01 X2.862 Y13.838
N2960 X2.956 Y13.82
N2965 X3.049 Y13.797
N2970 X4.507 Y13.388
N2975 X4.589 Y13.363
N2980 X4.669 Y13.334
N2985 X4.936 Y13.23
N2990 G03 X5.337 Y13.446 I0.109 J0.28
N2995 G01 X6.507 Y18.776
N3000 X6.524 Y18.835
N3005 X6.553 Y18.89
N3010 X9.342 Y23.027
N3015 G03 X9.332 Y23.377 I-0.249 J0.168
N3020 X4.795 Y19.926 Z-2.313 I-2.268 J-1.725
N3025 X9.332 Y23.377 Z-2.625 I2.268 J1.725
N3030 X4.795 Y19.926 Z-2.938 I-2.268 J-1.725
N3035 X6.228 Y18.926 Z-3. I2.268 J1.725
N3040 G02 X15.206 Y12.768 I-5.333 J-17.397
N3045 X19.708 Y-2.069 I-16.812 J-13.203
N3050 X12.22 Y-15.645 I-18.644 J1.429
N3055 X6.608 Y-18.709 I-13.703 J18.432
N3060 X0.316 Y-19.846 I-6.251 J16.608
N3065 X-9.284 Y-17.398 I0.046 J20.228
N3070 X-16.666 Y-10.791 I10.23 J18.857
N3075 X-19.424 Y4.11 I15.096 J10.5
N3080 X-14.177 Y13.784 I21.278 J-5.282
N3085 X-4.652 Y19.297 I13.823 J-12.896
N3090 X6.228 Y18.926 I4.753 J-20.357
N3095 X7.808 Y16.896 I-0.656 J-2.141
N3100 G03 X9.117 Y14.68 I2.76 J0.136
N3105 G02 X14.207 Y9.618 I-8.292 J-13.428
N3110 X17.162 Y0.218 I-16.613 J-10.387
N3115 X14.447 Y-9.253 I-15.204 J-0.767
N3120 X8.818 Y-14.581 I-15.684 J10.932
N3125 X1.486 Y-17.094 I-9.189 J14.858
N3130 X-10.377 Y-13.79 I-1.773 J16.585
N3135 X-16.826 Y-3.299 I10.304 J13.562
N3140 X-16.022 Y6.308 I18.114 J3.32
N3145 X-10.069 Y13.891 I14.528 J-5.276
N3150 X2.972 Y16.887 I10.473 J-15.705
N3155 X9.117 Y14.68 I-2.147 J-15.635
N3160 X10.261 Y12.039 I-1.322 J-2.142
N3165 G03 X10.921 Y9.237 I3.375 J-0.684
N3170 G01 X11.686 Y8.256
N3175 X11.74 Y8.183
N3180 X11.791 Y8.107
N3185 X12.456 Y7.044
N3190 X12.502 Y6.964
N3195 X12.545 Y6.882
N3200 X13.155 Y5.629
N3205 X13.194 Y5.544
N3210 X13.228 Y5.457
N3215 X13.655 Y4.275
N3220 X13.684 Y4.189
N3225 X13.708 Y4.102
N3230 X14.038 Y2.773
N3235 X14.058 Y2.68
N3240 X14.073 Y2.586
N3245 X14.254 Y1.257
N3250 X14.264 Y1.164
N3255 X14.269 Y1.071
N3260 X14.307 Y-0.258
N3265 Y-0.351
N3270 X14.302 Y-0.444
N3275 X14.199 Y-1.773
N3280 X14.189 Y-1.866
N3285 X14.174 Y-1.958
N3290 X13.926 Y-3.288
N3295 X13.906 Y-3.381
N3300 X13.881 Y-3.474
N3305 X13.478 Y-4.803
N3310 X13.449 Y-4.891
N3315 X13.416 Y-4.977
N3320 X12.925 Y-6.14
N3325 X12.888 Y-6.222
N3330 X12.846 Y-6.303
N3335 X12.207 Y-7.466
N3340 X12.16 Y-7.546
N3345 X12.109 Y-7.624
N3350 X11.342 Y-8.724
N3355 X11.288 Y-8.797
N3360 X11.231 Y-8.866
N3365 X10.747 Y-9.428
N3370 X10.731 Y-9.446
N3375 X10.286 Y-9.948
N3380 X10.227 Y-10.011
N3385 X10.165 Y-10.071
N3390 X9.27 Y-10.899
N3395 X9.171 Y-10.984
N3400 G02 X8.025 Y-11.847 I-14.194 J17.653
N3405 G01 X7.95 Y-11.9
N3410 X7.872 Y-11.948
N3415 X6.665 Y-12.662
N3420 X6.581 Y-12.709
N3425 X6.495 Y-12.75
N3430 X5.271 Y-13.303
N3435 X5.187 Y-13.338
N3440 X5.101 Y-13.369
N3445 X3.874 Y-13.775
N3450 X3.788 Y-13.801
N3455 X3.701 Y-13.822
N3460 G02 X1.194 Y-14.261 I-4.167 J16.42
N3465 G01 X1.066 Y-14.269
N3470 G02 X-0.669 Y-14.294 I-1.181 J21.664
N3475 G01 X-0.76 Y-14.291
N3480 X-0.85 Y-14.284
N3485 X-2.18 Y-14.142
N3490 X-2.274 Y-14.13
N3495 X-2.366 Y-14.112
N3500 X-3.696 Y-13.824
N3505 X-3.786 Y-13.802
N3510 X-3.874 Y-13.775
N3515 X-5.101 Y-13.369
N3520 X-5.187 Y-13.338
N3525 X-5.271 Y-13.303
N3530 X-6.495 Y-12.75
N3535 X-6.581 Y-12.709
N3540 X-6.665 Y-12.662
N3545 X-7.872 Y-11.948
N3550 X-7.95 Y-11.899
N3555 X-8.025 Y-11.847
N3560 X-9.016 Y-11.111
N3565 X-9.142 Y-11.008
N3570 X-9.481 Y-10.704
N3575 X-9.5 Y-10.686
N3580 X-10.165 Y-10.071
N3585 X-10.229 Y-10.009
N3590 X-10.29 Y-9.943
N3595 X-11.136 Y-8.984
N3600 X-11.216 Y-8.885
N3605 G02 X-12.11 Y-7.622 I15.732 J12.077
N3610 G01 X-12.16 Y-7.545
N3615 X-12.207 Y-7.466
N3620 X-12.846 Y-6.303
N3625 X-12.888 Y-6.222
N3630 X-12.925 Y-6.14
N3635 X-13.416 Y-4.977
N3640 X-13.449 Y-4.891
N3645 X-13.478 Y-4.803
N3650 X-13.881 Y-3.474
N3655 X-13.905 Y-3.386
N3660 X-13.925 Y-3.297
N3665 X-14.02 Y-2.8
N3670 X-14.023 Y-2.785
N3675 X-14.175 Y-1.953
N3680 X-14.189 Y-1.863
N3685 X-14.199 Y-1.773
N3690 X-14.302 Y-0.444
N3695 X-14.307 Y-0.351
N3700 Y-0.258
N3705 X-14.269 Y1.071
N3710 X-14.264 Y1.164
N3715 X-14.254 Y1.257
N3720 X-14.073 Y2.586
N3725 X-14.058 Y2.68
N3730 X-14.038 Y2.773
N3735 X-13.708 Y4.102
N3740 X-13.684 Y4.189
N3745 X-13.655 Y4.275
N3750 X-13.228 Y5.457
N3755 X-13.194 Y5.544
N3760 X-13.155 Y5.629
N3765 X-12.545 Y6.882
N3770 X-12.502 Y6.964
N3775 X-12.456 Y7.044
N3780 X-11.791 Y8.107
N3785 X-11.74 Y8.183
N3790 X-11.686 Y8.256
N3795 X-10.844 Y9.336
N3800 X-10.784 Y9.409
N3805 X-10.72 Y9.478
N3810 X-9.786 Y10.44
N3815 X-9.72 Y10.505
N3820 X-9.65 Y10.566
N3825 X-8.636 Y11.409
N3830 X-8.563 Y11.466
N3835 X-8.488 Y11.52
N3840 X-7.371 Y12.264
N3845 X-7.29 Y12.315
N3850 X-7.206 Y12.362
N3855 X-5.959 Y13.009
N3860 X-5.876 Y13.049
N3865 X-5.791 Y13.085
N3870 X-4.627 Y13.54
N3875 X-4.544 Y13.57
N3880 X-4.459 Y13.596
N3885 G02 X-2.725 Y14.048 I6.397 J-21.018
N3890 G01 X-2.583 Y14.075
N3895 X-1.586 Y14.222
N3900 X-1.423 Y14.238
N3905 X-0.093 Y14.309
N3910 X0. Y14.311
N3915 X0.093 Y14.309
N3920 X1.423 Y14.238
N3925 X1.517 Y14.231
N3930 X1.611 Y14.218
N3935 X2.975 Y13.996
N3940 X3.068 Y13.978
N3945 X3.16 Y13.955
N3950 X4.456 Y13.597
N3955 X4.542 Y13.571
N3960 X4.627 Y13.54
N3965 X5.791 Y13.085
N3970 X5.876 Y13.049
N3975 X5.959 Y13.009
N3980 X7.206 Y12.362
N3985 X7.29 Y12.315
N3990 X7.371 Y12.264
N3995 X8.488 Y11.52
N4000 X8.563 Y11.466
N4005 X8.636 Y11.409
N4010 X9.65 Y10.566
N4015 X9.72 Y10.505
N4020 X9.786 Y10.44
N4025 X10.72 Y9.478
N4030 X10.784 Y9.409
N4035 X10.844 Y9.336
N4040 X10.921 Y9.237
N4045 G03 X11.361 Y9.201 I0.237 J0.185
N4050 G01 X18.887 Y16.124
N4055 G03 X18.909 Y16.542 I-0.203 J0.221
N4060 X12.745 Y21.652 I-18.912 J-16.542
N4065 X-23.16 Y9.737 I-12.751 J-21.634
N4070 X-24.467 Y-5.442 I22.857 J-9.614
N4075 X-16.821 Y-18.619 I25.159 J5.793
N4080 X2.168 Y-25.073 I16.764 J18.159
N4085 X19.783 Y-15.485 I-2.274 J25.154
N4090 X18.909 Y16.542 I-19.786 J15.486
N4095 G02 X18.569 Y18.877 I1.636 J1.431
N4100 G03 X18.058 Y21.18 I-1.78 J0.813
N4105 X11.481 Y25.349 I-18.032 J-21.172
N4110 X-26.652 Y8.003 I-11.477 J-25.359
N4115 X23.611 Y-14.727 I26.645 J-8.018
N4120 X18.058 Y21.18 I-23.585 J14.736
N4125 G02 X17.346 Y23.525 I1.471 J1.727
N4130 G03 X16.496 Y25.823 I-2.001 J0.566
N4135 G01 X15.568 Y26.44
N4140 X12.658 Y27.949
N4145 X9.601 Y29.141
N4150 X6.446 Y29.997
N4155 X3.258 Y30.51
N4160 X0. Y30.684
N4165 X-3.257 Y30.51
N4170 X-6.526 Y29.979
N4175 X-9.675 Y29.116
N4180 X-12.706 Y27.927
N4185 X-15.567 Y26.441
N4190 X-18.33 Y24.604
N4195 X-20.795 Y22.56
N4200 X-23.084 Y20.214
N4205 X-25.113 Y17.63
N4210 X-26.844 Y14.861
N4215 X-28.283 Y11.892
N4220 X-29.385 Y8.826
N4225 X-30.153 Y5.682
N4230 X-30.584 Y2.461
N4235 X-30.671 Y-0.843
N4240 X-30.413 Y-4.064
N4245 X-29.806 Y-7.287
N4250 X-28.855 Y-10.432
N4255 X-27.595 Y-13.417
N4260 X-25.988 Y-16.308
N4265 X-24.161 Y-18.91
N4270 X-22.012 Y-21.373
N4275 X-21.906 Y-21.477
N4280 X-19.595 Y-23.611
N4285 X-16.957 Y-25.572
N4290 X-14.154 Y-27.224
N4295 X-11.139 Y-28.588
N4300 X-8.1 Y-29.594
N4305 X-4.874 Y-30.294
N4310 X-1.652 Y-30.638
N4315 X1.652
N4320 X4.874 Y-30.294
N4325 X8.099 Y-29.594
N4330 X11.203 Y-28.564
N4335 X14.153 Y-27.224
N4340 X16.957 Y-25.572
N4345 X19.595 Y-23.611
N4350 X21.951 Y-21.436
N4355 X22.293 Y-21.052
N4360 X24.16 Y-18.911
N4365 X26.031 Y-16.24
N4370 X27.594 Y-13.418
N4375 X28.855 Y-10.432
N4380 X29.806 Y-7.287
N4385 X30.413 Y-4.064
N4390 X30.671 Y-0.843
N4395 X30.584 Y2.461
N4400 X30.153 Y5.682
N4405 X29.385 Y8.824
N4410 X28.249 Y11.973
N4415 X26.845 Y14.86
N4420 X25.113 Y17.63
N4425 X23.084 Y20.214
N4430 X20.795 Y22.56
N4435 X18.33 Y24.604
N4440 X16.496 Y25.823
N4445 G03 X16.051 Y25.682 I-0.166 J-0.25
N4450 G01 X14.056 Y20.555
N4455 X14.052 Y20.542
N4460 X14.048 Y20.529
N4465 X14.028 Y20.48
N4470 X14.001 Y20.434
N4475 X13.966 Y20.395
N4480 X10.5 Y17.107
N4485 G03 X10.42 Y16.799 I0.206 J-0.218
N4490 X15.852 Y18.526 Z-3.313 I2.716 J0.864
N4495 X10.42 Y16.799 Z-3.625 I-2.716 J-0.864
N4500 X15.852 Y18.526 Z-3.938 I2.716 J0.864
N4505 X14.838 Y19.949 Z-4. I-2.716 J-0.864
N4510 X-12.627 Y21.411 I-14.832 J-19.931
N4515 X-24.412 Y-4.499 I12.599 J-21.365
N4520 X-17.169 Y-18.054 I25.193 J4.75
N4525 X-3.271 Y-24.614 I16.385 J16.708
N4530 X12.122 Y-21.629 I2.838 J26.546
N4535 X22.699 Y-10.054 I-11.031 J20.701
N4540 X24.794 Y-0.203 I-24.56 J10.372
N4545 X22.891 Y9.688 I-24.191 J0.473
N4550 X14.838 Y19.949 I-22.886 J-9.67
N4555 G02 X14.018 Y22.145 I1.289 J1.732
N4560 G03 X13.039 Y24.274 I-1.899 J0.417
N4565 X-16.442 Y22.119 I-13.044 J-24.295
N4570 X-27.469 Y2.233 I16.451 J-22.122
N4575 X-20.081 Y-18.729 I27.243 J-2.181
N4580 X0.332 Y-27.519 I20.414 J19.309
N4585 X11.801 Y-24.827 J25.776
N4590 X21.132 Y-17.638 I-13.5 J27.175
N4595 X27.521 Y-2.622 I-19.712 J17.254
N4600 X24.118 Y13.337 I-27.903 J2.393
N4605 X13.039 Y24.274 I-24.123 J-13.358
N4610 G02 X11.843 Y26.422 I1.077 J2.006
N4615 G03 X10.52 Y28.494 I-2.08 J0.13
N4620 G01 X9.508 Y28.889
N4625 X6.445 Y29.724
N4630 X3.221 Y30.244
N4635 X0. Y30.416
N4640 X-3.221 Y30.244
N4645 X-6.444 Y29.724
N4650 X-9.589 Y28.862
N4655 X-12.574 Y27.694
N4660 X-15.45 Y26.199
N4665 X-18.146 Y24.409
N4670 X-20.644 Y22.335
N4675 X-22.9 Y20.016
N4680 X-24.882 Y17.492
N4685 X-26.615 Y14.721
N4690 X-28.038 Y11.784
N4695 X-29.13 Y8.744
N4700 X-29.894 Y5.596
N4705 X-30.314 Y2.46
N4710 X-30.402 Y-0.842
N4715 X-30.142 Y-4.063
N4720 X-29.549 Y-7.204
N4725 X-28.599 Y-10.348
N4730 X-27.35 Y-13.307
N4735 X-25.772 Y-16.151
N4740 X-23.945 Y-18.752
N4745 X-21.761 Y-21.247
N4750 X-19.377 Y-23.441
N4755 X-16.825 Y-25.338
N4760 X-13.988 Y-27.006
N4765 X-11.081 Y-28.325
N4770 X-8.003 Y-29.344
N4775 X-4.793 Y-30.033
N4780 X-1.652 Y-30.369
N4785 X1.651
N4790 X4.874 Y-30.021
N4795 X8.001 Y-29.344
N4800 X11.081 Y-28.325
N4805 X13.988 Y-27.006
N4810 X16.825 Y-25.338
N4815 X19.377 Y-23.441
N4820 X21.761 Y-21.247
N4825 X23.945 Y-18.752
N4830 X25.772 Y-16.151
N4835 X27.35 Y-13.307
N4840 X28.607 Y-10.331
N4845 X29.549 Y-7.204
N4850 X30.142 Y-4.063
N4855 X30.402 Y-0.842
N4860 X30.314 Y2.46
N4865 X29.887 Y5.642
N4870 X29.105 Y8.823
N4875 X28.01 Y11.851
N4880 X26.615 Y14.72
N4885 X24.882 Y17.492
N4890 X22.9 Y20.016
N4895 X20.644 Y22.335
N4900 X18.146 Y24.409
N4905 X15.402 Y26.225
N4910 X12.576 Y27.694
N4915 X10.52 Y28.494
N4920 G03 X10.139 Y28.34 I-0.109 J-0.28
N4925 G01 X6.05 Y19.432
N4930 G03 X6.227 Y19.023 I0.273 J-0.125
N4935 G02 X13.362 Y15.047 I-7.092 J-21.115
N4940 X20.086 Y1.223 I-11.9 J-14.336
N4945 X20.102 Y-0.932 I-52.872 J-1.462
N4950 X19.886 Y-3.078 I-12.414 J0.163
N4955 X17.389 Y-10.119 I-23.956 J4.533
N4960 X12.5 Y-15.77 I-15.163 J8.178
N4965 X-0.677 Y-20.112 I-13.126 J17.668
N4970 X-14.146 Y-14.294 I0.03 J18.57
N4975 X-20.103 Y-0.885 I16.042 J15.153
N4980 X-17.821 Y9.383 I17.868 J1.417
N4985 X-10.646 Y17.074 I19.71 J-11.193
N4990 X1.693 Y20.035 I10.217 J-15.392
N4995 X6.227 Y19.023 I-2.559 J-22.127
N5000 X7.636 Y17.151 I-0.659 J-1.963
N5005 G03 X8.835 Y15.138 I2.472 J0.109
N5010 G02 X11.992 Y12.642 I-8.065 J-13.443
N5015 X16.748 Y4.803 I-14.542 J-14.185
N5020 X16.869 Y-4.365 I-14.528 J-4.777
N5025 X12.946 Y-11.67 I-19.831 J5.944
N5030 X6.085 Y-16.327 I-11.527 J9.6
N5035 X-0.249 Y-17.421 I-6.903 J21.092
N5040 X-6.55 Y-16.147 I-0.369 J14.394
N5045 X-12.177 Y-12.349 I8.311 J18.382
N5050 X-16.044 Y-6.77 I11.69 J12.233
N5055 X-15.099 Y8.618 I15.791 J6.753
N5060 X-2.336 Y17.265 I15.365 J-8.936
N5065 X5.384 Y16.677 I2.564 J-17.329
N5070 X8.835 Y15.138 I-4.615 J-14.982
N5075 X9.961 Y12.55 I-1.25 J-2.083
N5080 G03 X10.746 Y9.838 I2.926 J-0.623
N5085 G01 X10.894 Y9.685
N5090 X10.957 Y9.617
N5095 X11.017 Y9.546
N5100 X11.862 Y8.473
N5105 X11.917 Y8.4
N5110 X11.968 Y8.323
N5115 G02 X12.757 Y7.057 I-20.387 J-13.581
N5120 G01 X12.82 Y6.937
N5125 X13.385 Y5.774
N5130 X13.423 Y5.69
N5135 X13.457 Y5.604
N5140 X13.936 Y4.274
N5145 X13.966 Y4.184
N5150 X13.991 Y4.092
N5155 X14.313 Y2.763
N5160 X14.332 Y2.673
N5165 X14.347 Y2.582
N5170 X14.523 Y1.252
N5175 X14.533 Y1.161
N5180 X14.538 Y1.07
N5185 X14.575 Y-0.26
N5190 Y-0.353
N5195 X14.57 Y-0.446
N5200 X14.458 Y-1.859
N5205 X14.448 Y-1.953
N5210 X14.433 Y-2.046
N5215 X14.182 Y-3.37
N5220 X14.163 Y-3.459
N5225 X14.139 Y-3.547
N5230 X13.764 Y-4.799
N5235 X13.736 Y-4.884
N5240 X13.704 Y-4.968
N5245 X13.253 Y-6.054
N5250 X13.24 Y-6.084
N5255 X13.133 Y-6.327
N5260 X13.061 Y-6.474
N5265 X12.412 Y-7.645
N5270 X12.364 Y-7.726
N5275 X12.312 Y-7.804
N5280 X11.498 Y-8.96
N5285 X11.442 Y-9.035
N5290 X11.383 Y-9.106
N5295 X10.508 Y-10.103
N5300 X10.447 Y-10.17
N5305 X10.382 Y-10.233
N5310 G02 X9.297 Y-11.229 I-18.175 J18.713
N5315 G01 X9.186 Y-11.318
N5320 X8.105 Y-12.116
N5325 X8.029 Y-12.169
N5330 X7.951 Y-12.218
N5335 X6.787 Y-12.901
N5340 X6.706 Y-12.946
N5345 X6.622 Y-12.986
N5350 X5.376 Y-13.55
N5355 X5.288 Y-13.586
N5360 X5.199 Y-13.618
N5365 X3.869 Y-14.054
N5370 X3.783 Y-14.079
N5375 X3.695 Y-14.101
N5380 G02 X1.192 Y-14.529 I-4.096 J16.391
N5385 G01 X1.062 Y-14.538
N5390 G02 X-0.668 Y-14.562 I-1.189 J23.052
N5395 G01 X-0.758 Y-14.56
N5400 X-0.847 Y-14.553
N5405 X-2.177 Y-14.413
N5410 X-2.268 Y-14.401
N5415 X-2.358 Y-14.385
N5420 X-3.688 Y-14.102
N5425 X-3.779 Y-14.08
N5430 X-3.869 Y-14.054
N5435 X-5.199 Y-13.618
N5440 X-5.288 Y-13.586
N5445 X-5.376 Y-13.55
N5450 X-6.622 Y-12.986
N5455 X-6.706 Y-12.946
N5460 X-6.787 Y-12.901
N5465 X-7.951 Y-12.218
N5470 X-8.029 Y-12.169
N5475 X-8.105 Y-12.116
N5480 X-9.186 Y-11.318
N5485 X-9.258 Y-11.262
N5490 X-9.327 Y-11.202
N5495 X-10.157 Y-10.444
N5500 X-10.175 Y-10.428
N5505 X-10.39 Y-10.225
N5510 X-10.451 Y-10.166
N5515 X-10.508 Y-10.103
N5520 X-11.383 Y-9.106
N5525 X-11.442 Y-9.035
N5530 X-11.498 Y-8.96
N5535 X-12.312 Y-7.804
N5540 X-12.364 Y-7.726
N5545 X-12.412 Y-7.645
N5550 X-13.061 Y-6.474
N5555 X-13.102 Y-6.395
N5560 X-13.139 Y-6.314
N5565 X-13.423 Y-5.649
N5570 X-13.433 Y-5.627
N5575 X-13.706 Y-4.962
N5580 X-13.737 Y-4.883
N5585 X-13.763 Y-4.802
N5590 X-13.977 Y-4.094
N5595 X-13.979 Y-4.086
N5600 X-14.141 Y-3.542
N5605 X-14.164 Y-3.457
N5610 X-14.182 Y-3.37
N5615 X-14.433 Y-2.046
N5620 X-14.448 Y-1.953
N5625 X-14.458 Y-1.859
N5630 X-14.57 Y-0.446
N5635 X-14.575 Y-0.353
N5640 Y-0.26
N5645 X-14.538 Y1.07
N5650 X-14.533 Y1.161
N5655 X-14.523 Y1.252
N5660 X-14.347 Y2.582
N5665 X-14.332 Y2.673
N5670 X-14.313 Y2.763
N5675 X-13.991 Y4.092
N5680 X-13.966 Y4.184
N5685 X-13.936 Y4.274
N5690 X-13.457 Y5.604
N5695 X-13.423 Y5.69
N5700 X-13.385 Y5.774
N5705 X-12.82 Y6.937
N5710 X-12.779 Y7.017
N5715 X-12.733 Y7.095
N5720 X-12.027 Y8.235
N5725 X-11.935 Y8.369
N5730 X-11.666 Y8.725
N5735 X-11.643 Y8.754
N5740 X-11.014 Y9.549
N5745 X-10.956 Y9.619
N5750 X-10.894 Y9.685
N5755 X-9.952 Y10.652
N5760 X-9.884 Y10.718
N5765 X-9.812 Y10.78
N5770 X-8.724 Y11.678
N5775 X-8.652 Y11.734
N5780 X-8.578 Y11.786
N5785 G02 X-7.375 Y12.576 I12.01 J-16.987
N5790 G01 X-7.27 Y12.634
N5795 X-6.162 Y13.21
N5800 X-6.083 Y13.249
N5805 X-6.002 Y13.283
N5810 X-4.969 Y13.694
N5815 X-4.936 Y13.707
N5820 X-4.603 Y13.832
N5825 X-4.451 Y13.881
N5830 G02 X-2.714 Y14.323 I6.028 J-20.056
N5835 G01 X-2.583 Y14.347
N5840 G02 X-0.089 Y14.576 I2.814 J-16.99
N5845 G01 X0.001 Y14.579
N5850 X0.091 Y14.577
N5855 X1.421 Y14.508
N5860 X1.512 Y14.5
N5865 X1.603 Y14.489
N5870 X2.933 Y14.279
N5875 X3.024 Y14.262
N5880 X3.114 Y14.24
N5885 X4.444 Y13.883
N5890 X4.532 Y13.857
N5895 X4.619 Y13.826
N5900 G02 X6.02 Y13.276 I-12.352 J-33.545
N5905 G01 X6.162 Y13.21
N5910 X7.27 Y12.634
N5915 X7.344 Y12.594
N5920 X7.415 Y12.55
N5925 X7.934 Y12.213
N5930 X7.953 Y12.201
N5935 X8.618 Y11.757
N5940 X8.692 Y11.705
N5945 X8.763 Y11.649
N5950 X9.815 Y10.777
N5955 X9.885 Y10.716
N5960 X9.952 Y10.652
N5965 X10.746 Y9.838
N5970 G03 X11.168 Y9.83 I0.215 J0.209
N5975 G01 X15.162 Y13.646
N5980 X15.213 Y13.685
N5985 X15.272 Y13.713
N5990 X20.249 Y15.411
N5995 G03 X20.45 Y15.724 I-0.097 J0.284
N6000 X14.776 Y15.185 Z-4.313 I-2.837 J-0.269
N6005 X20.45 Y15.724 Z-4.625 I2.837 J0.269
N6010 X14.776 Y15.185 Z-4.938 I-2.837 J-0.269
N6015 X15.466 Y13.58 Z-5. I2.837 J0.269
N6020 G02 X18.149 Y9.53 I-13.829 J-12.073
N6025 X20. Y-4.496 I-20.162 J-9.796
N6030 X17.526 Y-10.809 I-18.034 J3.427
N6035 X12.997 Y-15.856 I-16.792 J10.511
N6040 X-13.027 Y-15.832 I-12.997 J16.489
N6045 X-19.806 Y-5.042 I12.006 J15.067
N6050 X-19.007 Y7.675 I21.974 J5.003
N6055 X-12.019 Y16.605 I17.214 J-6.271
N6060 X-6.133 Y19.564 I14.334 J-21.178
N6065 X0.389 Y20.495 I5.617 J-16.047
N6070 X10.764 Y17.435 I-1.244 J-23.338
N6075 X15.466 Y13.58 I-9.127 J-15.927
N6080 X15.795 Y10.943 I-1.79 J-1.562
N6085 G03 X15.839 Y8.287 I2.539 J-1.287
N6090 G02 X17.666 Y2.644 I-13.84 J-7.599
N6095 X16.848 Y-5.738 I-19.02 J-2.374
N6100 X14.57 Y-10.311 I-16.979 J5.604
N6105 X11.013 Y-13.979 I-12.822 J8.876
N6110 X3.419 Y-17.483 I-12.273 J16.617
N6115 X-4.936 Y-17.103 I-3.501 J15.054
N6120 X-10.409 Y-14.326 I6.448 J19.492
N6125 X-14.734 Y-9.972 I10.586 J14.843
N6130 X-17.552 Y-3.485 I14.33 J10.08
N6135 X-17.435 Y3.588 I15.648 J3.278
N6140 X-10.399 Y14.455 I19.126 J-4.673
N6145 X2.141 Y17.671 I9.969 J-12.814
N6150 X14.433 Y10.419 I-3.093 J-19.283
N6155 X15.839 Y8.287 I-12.433 J-9.731
N6160 X15.522 Y5.458 I-2.166 J-1.189
N6165 G03 X14.701 Y2.732 I2.538 J-2.251
N6170 G01 X14.814 Y1.931
N6175 X14.817 Y1.907
N6180 X14.901 Y1.242
N6185 X14.91 Y1.156
N6190 X14.915 Y1.069
N6195 X14.951 Y-0.261
N6200 Y-0.351
N6205 X14.946 Y-0.441
N6210 X14.845 Y-1.77
N6215 X14.842 Y-1.804
N6220 X14.838 Y-1.839
N6225 X14.819 Y-2.005
N6230 X14.8 Y-2.13
N6235 X14.547 Y-3.46
N6240 X14.528 Y-3.548
N6245 X14.505 Y-3.635
N6250 G02 X14.063 Y-5.083 I-27.439 J7.573
N6255 G01 X14.013 Y-5.217
N6260 X13.488 Y-6.455
N6265 X13.451 Y-6.537
N6270 X13.409 Y-6.618
N6275 X12.756 Y-7.801
N6280 X12.711 Y-7.879
N6285 X12.661 Y-7.954
N6290 X11.87 Y-9.091
N6295 X11.788 Y-9.2
N6300 G02 X10.817 Y-10.323 I-18.039 J14.611
N6305 G01 X10.76 Y-10.386
N6310 X10.699 Y-10.446
N6315 X10.175 Y-10.938
N6320 X10.164 Y-10.949
N6325 X9.665 Y-11.409
N6330 X9.561 Y-11.497
N6335 G02 X8.324 Y-12.422 I-16.132 J20.295
N6340 G01 X8.25 Y-12.474
N6345 X8.174 Y-12.521
N6350 X7.012 Y-13.207
N6355 X6.932 Y-13.251
N6360 X6.851 Y-13.291
N6365 X5.599 Y-13.864
N6370 X5.514 Y-13.901
N6375 X5.427 Y-13.932
N6380 X4.047 Y-14.395
N6385 X3.957 Y-14.422
N6390 X3.866 Y-14.445
N6395 G02 X2.594 Y-14.72 I-4.58 J18.066
N6400 X1.188 Y-14.905 I-2.928 J16.803
N6405 G01 X1.058 Y-14.915
N6410 G02 X-0.666 Y-14.938 I-1.201 J24.988
N6415 G01 X-0.756 Y-14.936
N6420 X-0.845 Y-14.929
N6425 G02 X-2.251 Y-14.782 I2.226 J28.136
N6430 G01 X-2.417 Y-14.757
N6435 X-2.535 Y-14.736
N6440 X-3.865 Y-14.445
N6445 X-3.957 Y-14.422
N6450 X-4.047 Y-14.395
N6455 X-5.427 Y-13.932
N6460 X-5.514 Y-13.901
N6465 X-5.599 Y-13.864
N6470 X-6.851 Y-13.291
N6475 X-6.932 Y-13.251
N6480 X-7.012 Y-13.207
N6485 X-8.174 Y-12.521
N6490 X-8.25 Y-12.474
N6495 X-8.324 Y-12.422
N6500 G02 X-9.569 Y-11.491 I13.103 J18.825
N6505 G01 X-9.665 Y-11.409
N6510 G02 X-10.723 Y-10.423 I17.977 J20.348
N6515 G01 X-10.818 Y-10.322
N6520 X-11.692 Y-9.322
N6525 X-11.749 Y-9.253
N6530 X-11.802 Y-9.182
N6535 X-12.4 Y-8.337
N6540 X-12.418 Y-8.311
N6545 X-12.67 Y-7.94
N6550 X-12.756 Y-7.801
N6555 X-13.409 Y-6.618
N6560 X-13.451 Y-6.537
N6565 X-13.488 Y-6.455
N6570 X-14.013 Y-5.217
N6575 X-14.045 Y-5.135
N6580 X-14.074 Y-5.051
N6585 X-14.352 Y-4.148
N6590 X-14.358 Y-4.129
N6595 X-14.506 Y-3.63
N6600 X-14.529 Y-3.547
N6605 X-14.547 Y-3.463
N6610 X-14.685 Y-2.742
N6615 X-14.686 Y-2.735
N6620 X-14.801 Y-2.127
N6625 X-14.815 Y-2.041
N6630 X-14.824 Y-1.956
N6635 X-14.897 Y-1.125
N6640 X-14.899 Y-1.098
N6645 X-14.947 Y-0.434
N6650 X-14.951 Y-0.347
N6655 Y-0.261
N6660 X-14.915 Y1.069
N6665 X-14.91 Y1.159
N6670 X-14.901 Y1.248
N6675 G02 X-14.716 Y2.652 I28.863 J-3.086
N6680 G01 X-14.69 Y2.797
N6685 X-14.665 Y2.917
N6690 X-14.331 Y4.267
N6695 X-14.306 Y4.357
N6700 X-14.277 Y4.446
N6705 X-13.792 Y5.775
N6710 X-13.759 Y5.859
N6715 X-13.722 Y5.941
N6720 X-13.157 Y7.104
N6725 X-13.115 Y7.184
N6730 X-13.07 Y7.262
N6735 X-12.297 Y8.507
N6740 X-12.245 Y8.586
N6745 X-12.188 Y8.663
N6750 X-11.342 Y9.745
N6755 X-11.283 Y9.816
N6760 X-11.22 Y9.883
N6765 X-10.234 Y10.902
N6770 X-10.167 Y10.967
N6775 X-10.098 Y11.029
N6780 X-9.048 Y11.904
N6785 X-8.979 Y11.958
N6790 X-8.908 Y12.009
N6795 X-8.269 Y12.442
N6800 X-8.242 Y12.459
N6805 X-7.604 Y12.875
N6810 X-7.531 Y12.92
N6815 X-7.456 Y12.961
N6820 X-6.292 Y13.565
N6825 X-6.21 Y13.605
N6830 X-6.126 Y13.64
N6835 X-4.796 Y14.163
N6840 X-4.709 Y14.195
N6845 X-4.62 Y14.221
N6850 G02 X-3.362 Y14.565 I6.117 J-19.918
N6855 G01 X-2.697 Y14.709
N6860 X-2.578 Y14.73
N6865 G02 X-0.089 Y14.951 I2.797 J-17.41
N6870 G01 X0.002 Y14.954
N6875 X0.094 Y14.953
N6880 X1.507 Y14.877
N6885 X1.601 Y14.869
N6890 X1.695 Y14.857
N6895 X3.108 Y14.626
N6900 X3.199 Y14.609
N6905 X3.289 Y14.587
N6910 X4.619 Y14.222
N6915 X4.708 Y14.195
N6920 X4.796 Y14.163
N6925 X6.126 Y13.64
N6930 X6.21 Y13.605
N6935 X6.292 Y13.565
N6940 X7.456 Y12.961
N6945 X7.533 Y12.918
N6950 X7.608 Y12.872
N6955 G02 X8.925 Y11.997 I-16.259 J-25.917
N6960 G01 X9.05 Y11.902
N6965 X10.122 Y11.005
N6970 X10.191 Y10.944
N6975 X10.257 Y10.88
N6980 X11.221 Y9.883
N6985 X11.283 Y9.815
N6990 X11.342 Y9.745
N6995 X12.188 Y8.663
N7000 X12.245 Y8.586
N7005 X12.297 Y8.507
N7010 X13.07 Y7.262
N7015 X13.115 Y7.184
N7020 X13.157 Y7.104
N7025 X13.722 Y5.941
N7030 X13.759 Y5.859
N7035 X13.792 Y5.775
N7040 X14.277 Y4.446
N7045 X14.306 Y4.357
N7050 X14.331 Y4.267
N7055 X14.665 Y2.917
N7060 X14.685 Y2.829
N7065 X14.699 Y2.741
N7070 X14.701 Y2.732
N7075 G03 X14.969 Y2.475 I0.297 J0.042
N7080 G01 X24.085 Y1.598
N7085 G03 X24.413 Y1.92 I0.029 J0.299
N7090 X16.607 Y17.988 I-24.394 J-1.92
N7095 X-12.436 Y21.088 I-16.607 J-17.996
N7100 X-20.737 Y-13.01 I12.429 J-21.085
N7105 X15.62 Y-18.851 I20.736 J13.001
N7110 X24.413 Y1.92 I-15.601 J18.851
N7115 G02 X25.538 Y3.996 I2.164 J0.17
N7120 G03 X26.51 Y6.149 I-0.937 J1.719
N7125 X25.444 Y9.709 I-26.803 J-6.085
N7130 X15.363 Y22.386 I-24.609 J-9.222
N7135 X-6.229 Y26.351 I-15.431 J-23.262
N7140 X-23.783 Y13.167 I5.92 J-26.161
N7145 X-26.044 Y-7.661 I23.715 J-13.111
N7150 X-19.996 Y-18.356 I26.728 J8.059
N7155 X-9.878 Y-25.326 I19.882 J18.031
N7160 X26.407 Y-6.46 I9.886 J25.312
N7165 X26.51 Y6.149 I-26.699 J6.524
N7170 G02 X27.33 Y8.43 I2.196 J0.499
N7175 G03 X28.009 Y10.756 I-1.258 J1.629
N7180 G01 X27.69 Y11.642
N7185 X26.282 Y14.547
N7190 X24.559 Y17.296
N7195 X22.581 Y19.809
N7200 X20.404 Y22.044
N7205 X20.294 Y22.141
N7210 X17.906 Y24.119
N7215 X15.258 Y25.876
N7220 X12.387 Y27.366
N7225 X9.438 Y28.519
N7230 X6.363 Y29.358
N7235 X3.158 Y29.872
N7240 X0.001 Y30.04
N7245 X-3.215 Y29.866
N7250 X-6.362 Y29.358
N7255 X-9.437 Y28.519
N7260 X-12.433 Y27.345
N7265 X-15.258 Y25.876
N7270 X-17.906 Y24.119
N7275 X-20.339 Y22.104
N7280 X-20.708 Y21.731
N7285 X-22.63 Y19.753
N7290 X-24.596 Y17.244
N7295 X-26.281 Y14.548
N7300 X-27.69 Y11.642
N7305 X-28.764 Y8.659
N7310 X-29.512 Y5.599
N7315 X-29.944 Y2.378
N7320 X-30.026 Y-0.842
N7325 X-29.775 Y-3.981
N7330 X-29.179 Y-7.137
N7335 X-28.261 Y-10.182
N7340 X-26.998 Y-13.167
N7345 X-25.446 Y-15.962
N7350 X-23.614 Y-18.566
N7355 X-21.52 Y-20.958
N7360 X-19.164 Y-23.132
N7365 X-16.571 Y-25.053
N7370 X-13.818 Y-26.671
N7375 X-10.916 Y-27.985
N7380 X-7.933 Y-28.972
N7385 X-4.791 Y-29.655
N7390 X-1.57 Y-29.997
N7395 X1.57
N7400 X4.791 Y-29.655
N7405 X7.933 Y-28.972
N7410 X10.916 Y-27.985
N7415 X13.818 Y-26.671
N7420 X16.571 Y-25.053
N7425 X19.164 Y-23.132
N7430 X21.52 Y-20.958
N7435 X23.614 Y-18.566
N7440 X25.446 Y-15.962
N7445 X26.998 Y-13.167
N7450 X28.261 Y-10.182
N7455 X29.179 Y-7.137
N7460 X29.774 Y-3.982
N7465 X30.028 Y-0.761
N7470 X29.945 Y2.377
N7475 X29.512 Y5.599
N7480 X28.764 Y8.659
N7485 X28.009 Y10.756
N7490 G03 X27.62 Y10.935 I-0.282 J-0.102
N7495 G01 X22.439 Y8.976
N7500 X22.385 Y8.961
N7505 X22.329 Y8.957
N7510 X17.009 Y9.03
N7515 G03 X16.711 Y8.793 I-0.004 J-0.3
N7520 X22.284 Y7.594 Z-5.313 I2.786 J-0.6
N7525 X16.711 Y8.793 Z-5.625 I-2.786 J0.6
N7530 X22.284 Y7.594 Z-5.938 I2.786 J-0.6
N7535 X22.11 Y9.332 Z-6. I-2.786 J0.6
N7540 X17.046 Y16.87 I-23.176 J-10.101
N7545 X-0.746 Y24.026 I-16.991 J-16.547
N7550 X-18.075 Y15.812 I0.815 J-24.107
N7555 X-23.804 Y-3.178 I18.039 J-15.8
N7560 X-5.177 Y-23.416 I23.69 J3.113
N7565 X5.35 Y-23.285 I4.977 J22.996
N7570 X14.882 Y-18.818 I-6.244 J25.729
N7575 X20.029 Y-13.216 I-12.047 J16.235
N7580 X23.154 Y-6.281 I-24.859 J15.374
N7585 X23.257 Y6.127 I-21.158 J6.38
N7590 X22.11 Y9.332 I-24.323 J-6.897
N7595 G02 X22.505 Y11.676 I1.994 J0.869
N7600 G03 X22.733 Y14.042 I-1.445 J1.333
N7605 X0. Y26.719 I-22.73 J-14.037
N7610 X-26.484 Y-3.53 J-26.719
N7615 X-5.748 Y-26.055 I26.365 J3.464
N7620 X5.919 Y-25.924 I5.547 J25.627
N7625 X16.491 Y-20.986 I-6.808 J28.36
N7630 X22.238 Y-14.769 I-13.62 J18.355
N7635 X25.739 Y-7.06 I-26.952 J16.891
N7640 X26.437 Y-3.906 I-20.613 J6.215
N7645 X26.709 Y-0.687 I-27.396 J3.936
N7650 X22.733 Y14.042 I-26.706 J0.692
N7655 G02 X22.772 Y16.492 I1.934 J1.195
N7660 G03 X22.675 Y18.941 I-1.745 J1.157
N7665 G01 X22.285 Y19.438
N7670 X21.022 Y20.742
N7675 X20.03 Y21.755
N7680 X17.635 Y23.74
N7685 X14.994 Y25.49
N7690 X12.242 Y26.919
N7695 X9.295 Y28.074
N7700 X6.278 Y28.898
N7705 X3.138 Y29.406
N7710 X0. Y29.574
N7715 X-3.138 Y29.406
N7720 X-6.278 Y28.898
N7725 X-9.295 Y28.074
N7730 X-12.242 Y26.919
N7735 X-14.994 Y25.49
N7740 X-17.635 Y23.74
N7745 X-20.029 Y21.756
N7750 X-22.243 Y19.488
N7755 X-22.264 Y19.465
N7760 X-24.205 Y16.991
N7765 X-25.885 Y14.299
N7770 X-27.252 Y11.482
N7775 X-28.325 Y8.495
N7780 X-29.068 Y5.434
N7785 X-29.477 Y2.377
N7790 X-29.562 Y-0.761
N7795 X-29.314 Y-3.902
N7800 X-29.2 Y-4.519
N7805 X-28.723 Y-7.037
N7810 X-27.824 Y-10.017
N7815 X-26.601 Y-12.92
N7820 X-25.082 Y-15.665
N7825 X-23.266 Y-18.255
N7830 X-21.191 Y-20.628
N7835 X-18.88 Y-22.762
N7840 X-16.327 Y-24.656
N7845 X-13.626 Y-26.247
N7850 X-10.75 Y-27.549
N7855 X-7.786 Y-28.53
N7860 X-4.708 Y-29.196
N7865 X-1.569 Y-29.532
N7870 X1.569
N7875 X4.708 Y-29.196
N7880 X7.786 Y-28.53
N7885 X10.75 Y-27.549
N7890 X13.626 Y-26.247
N7895 X16.327 Y-24.656
N7900 X18.88 Y-22.762
N7905 X21.191 Y-20.628
N7910 X23.266 Y-18.255
N7915 X25.082 Y-15.665
N7920 X26.601 Y-12.92
N7925 X27.824 Y-10.017
N7930 X28.723 Y-7.038
N7935 X29.314 Y-3.898
N7940 X29.562 Y-0.761
N7945 X29.477 Y2.376
N7950 X29.053 Y5.514
N7955 X28.301 Y8.574
N7960 X27.253 Y11.481
N7965 X25.885 Y14.299
N7970 X24.205 Y16.991
N7975 X22.675 Y18.941
N7980 G03 X22.259 Y18.997 I-0.236 J-0.185
N7985 G01 X15.791 Y14.177
N7990 G03 X15.745 Y13.738 I0.179 J-0.241
N7995 G02 X18.125 Y10.537 I-18.441 J-16.197
N8000 X20.951 Y-0.169 I-15.899 J-9.923
N8005 X17.951 Y-10.828 I-24.003 J1.004
N8010 X13.667 Y-15.9 I-15.011 J8.336
N8015 X8.01 Y-19.374 I-16.774 J20.967
N8020 X1.838 Y-20.923 I-7.316 J16.085
N8025 X-4.508 Y-20.464 I-1.509 J23.243
N8030 X-13.201 Y-16.413 I4.429 J20.858
N8035 X-19.03 Y-8.797 I11.71 J14.999
N8040 X-20.922 Y-1.258 I23.567 J9.921
N8045 X-19.947 Y6.454 I17.816 J1.667
N8050 X-11.013 Y17.84 I21.605 J-7.755
N8055 X-3.772 Y20.623 I9.902 J-14.951
N8060 X3.985 Y20.583 I3.749 J-24.975
N8065 X12.143 Y17.092 I-2.904 J-18.065
N8070 X15.745 Y13.738 I-14.84 J-19.55
N8075 X16.048 Y11.219 I-1.686 J-1.48
N8080 G03 X16.101 Y8.682 I2.335 J-1.22
N8085 G02 X18.23 Y1.147 I-13.805 J-7.969
N8090 X13.687 Y-12.07 I-19.92 J-0.542
N8095 X1.143 Y-18.231 I-13.081 J10.782
N8100 X-10.909 Y-14.687 I-0.636 J20.097
N8105 X-17.783 Y-4.173 I9.425 J13.667
N8110 X-16.062 Y8.697 I20.024 J3.873
N8115 X-7.324 Y16.734 I14.693 J-7.207
N8120 X1.239 Y18.216 I7.925 J-20.316
N8125 X9.522 Y15.589 I-0.463 J-15.833
N8130 X15.641 Y9.432 I-11.856 J-17.901
N8135 X16.101 Y8.682 I-13.344 J-8.718
N8140 X15.783 Y5.898 I-2.039 J-1.177
N8145 G03 X15.075 Y3.187 I2.151 J-2.009
N8150 G01 X15.137 Y2.935
N8155 X15.158 Y2.839
N8160 X15.173 Y2.743
N8165 X15.368 Y1.247
N8170 X15.377 Y1.158
N8175 X15.381 Y1.068
N8180 X15.417 Y-0.262
N8185 Y-0.352
N8190 X15.412 Y-0.442
N8195 X15.297 Y-1.938
N8200 X15.287 Y-2.031
N8205 X15.273 Y-2.123
N8210 X15.056 Y-3.287
N8215 X15.049 Y-3.323
N8220 X14.98 Y-3.656
N8225 X14.942 Y-3.806
N8230 X14.539 Y-5.136
N8235 X14.51 Y-5.223
N8240 X14.477 Y-5.308
N8245 X13.914 Y-6.644
N8250 X13.875 Y-6.73
N8255 X13.832 Y-6.815
N8260 X13.099 Y-8.134
N8265 X13.051 Y-8.214
N8270 X12.999 Y-8.292
N8275 X12.177 Y-9.459
N8280 X12.122 Y-9.533
N8285 X12.064 Y-9.603
N8290 X11.118 Y-10.684
N8295 X11.055 Y-10.753
N8300 X10.988 Y-10.817
N8305 X9.915 Y-11.809
N8310 X9.844 Y-11.871
N8315 X9.77 Y-11.929
N8320 X8.576 Y-12.814
N8325 X8.501 Y-12.867
N8330 X8.422 Y-12.916
N8335 X7.205 Y-13.633
N8340 X7.124 Y-13.677
N8345 X7.042 Y-13.718
N8350 X5.712 Y-14.322
N8355 X5.627 Y-14.358
N8360 X5.54 Y-14.39
N8365 X4.21 Y-14.833
N8370 X4.124 Y-14.859
N8375 X4.036 Y-14.881
N8380 X2.706 Y-15.176
N8385 X2.564 Y-15.201
N8390 G02 X-0.665 Y-15.398 I-2.529 J14.869
N8395 G01 X-0.752 Y-15.399
N8400 X-0.839 Y-15.396
N8405 X-1.836 Y-15.296
N8410 X-1.854 Y-15.294
N8415 X-2.353 Y-15.239
N8420 X-2.439 Y-15.227
N8425 X-2.525 Y-15.211
N8430 X-3.356 Y-15.035
N8435 X-3.379 Y-15.03
N8440 X-4.044 Y-14.879
N8445 X-4.128 Y-14.858
N8450 X-4.21 Y-14.833
N8455 X-5.54 Y-14.39
N8460 X-5.627 Y-14.358
N8465 X-5.712 Y-14.322
N8470 X-7.042 Y-13.718
N8475 X-7.124 Y-13.677
N8480 X-7.205 Y-13.633
N8485 X-8.422 Y-12.916
N8490 X-8.501 Y-12.867
N8495 X-8.576 Y-12.814
N8500 X-9.77 Y-11.929
N8505 X-9.844 Y-11.871
N8510 X-9.915 Y-11.809
N8515 X-10.988 Y-10.817
N8520 X-11.055 Y-10.753
N8525 X-11.118 Y-10.684
N8530 X-12.064 Y-9.603
N8535 X-12.122 Y-9.533
N8540 X-12.177 Y-9.459
N8545 X-12.999 Y-8.292
N8550 X-13.051 Y-8.214
N8555 X-13.099 Y-8.134
N8560 X-13.832 Y-6.815
N8565 X-13.875 Y-6.73
N8570 X-13.914 Y-6.644
N8575 X-14.477 Y-5.308
N8580 X-14.51 Y-5.223
N8585 X-14.539 Y-5.136
N8590 X-14.942 Y-3.806
N8595 X-14.965 Y-3.719
N8600 X-14.985 Y-3.632
N8605 G02 X-15.277 Y-2.097 I35.687 J7.597
N8610 G01 X-15.296 Y-1.947
N8615 X-15.376 Y-0.977
N8620 X-15.377 Y-0.953
N8625 X-15.413 Y-0.427
N8630 X-15.417 Y-0.261
N8635 X-15.381 Y1.083
N8640 X-15.376 Y1.173
N8645 X-15.367 Y1.263
N8650 X-15.173 Y2.744
N8655 X-15.158 Y2.84
N8660 X-15.137 Y2.935
N8665 X-14.776 Y4.405
N8670 X-14.751 Y4.496
N8675 X-14.721 Y4.585
N8680 X-14.229 Y5.94
N8685 X-14.195 Y6.027
N8690 X-14.156 Y6.113
N8695 X-13.503 Y7.442
N8700 X-13.462 Y7.522
N8705 X-13.416 Y7.599
N8710 G02 X-12.617 Y8.864 I29.379 J-17.67
N8715 G01 X-12.53 Y8.985
N8720 X-11.668 Y10.081
N8725 X-11.61 Y10.15
N8730 X-11.549 Y10.217
N8735 X-10.565 Y11.23
N8740 X-10.5 Y11.294
N8745 X-10.432 Y11.354
N8750 G02 X-9.22 Y12.36 I23.579 J-27.166
N8755 G01 X-9.096 Y12.45
N8760 X-7.95 Y13.212
N8765 X-7.872 Y13.26
N8770 X-7.792 Y13.305
N8775 X-6.463 Y14.
N8780 X-6.376 Y14.042
N8785 X-6.288 Y14.079
N8790 X-4.909 Y14.617
N8795 X-4.822 Y14.648
N8800 X-4.735 Y14.675
N8805 X-3.454 Y15.025
N8810 X-3.34 Y15.052
N8815 G02 X-0.089 Y15.412 I3.318 J-15.127
N8820 G01 X0.004 Y15.418
N8825 X0.096 Y15.419
N8830 X1.593 Y15.336
N8835 X1.684 Y15.329
N8840 X1.774 Y15.317
N8845 X3.104 Y15.103
N8850 X3.216 Y15.081
N8855 X3.382 Y15.043
N8860 G02 X4.788 Y14.657 I-6.646 J-26.941
N8865 G01 X4.875 Y14.63
N8870 X4.961 Y14.599
N8875 X6.291 Y14.078
N8880 X6.378 Y14.041
N8885 X6.463 Y14.
N8890 X7.792 Y13.305
N8895 X7.872 Y13.26
N8900 X7.95 Y13.212
N8905 X9.096 Y12.45
N8910 X9.17 Y12.399
N8915 X9.24 Y12.344
N8920 X10.088 Y11.646
N8925 X10.111 Y11.627
N8930 X10.444 Y11.344
N8935 X10.506 Y11.288
N8940 X10.566 Y11.229
N8945 X11.564 Y10.2
N8950 X11.625 Y10.133
N8955 X11.683 Y10.064
N8960 X12.531 Y8.984
N8965 X12.584 Y8.913
N8970 X12.633 Y8.84
N8975 X13.203 Y7.941
N8980 X13.209 Y7.931
N8985 X13.417 Y7.599
N8990 X13.462 Y7.522
N8995 X13.503 Y7.442
N9000 X14.156 Y6.113
N9005 X14.195 Y6.027
N9010 X14.229 Y5.94
N9015 X14.721 Y4.585
N9020 X14.751 Y4.496
N9025 X14.776 Y4.405
N9030 X15.075 Y3.187
N9035 G03 X15.435 Y2.967 I0.291 J0.072
N9040 G01 X20.904 Y4.248
N9045 X20.967 Y4.256
N9050 X21.031 Y4.25
N9055 X26.293 Y3.217
N9060 G03 X26.625 Y3.388 I0.058 J0.294
N9065 X21.422 Y5.717 Z-6.313 I-2.601 J1.164
N9070 X26.625 Y3.388 Z-6.625 I2.601 J-1.164
N9075 X21.422 Y5.717 Z-6.938 I-2.601 J1.164
N9080 X21.232 Y3.981 Z-7. I2.601 J-1.164
N9085 G01 X21.279 Y3.742
N9090 G02 X17.182 Y-13.131 I-20.449 J-3.969
N9095 X1.983 Y-21.526 I-17.58 J13.874
N9100 X-1.968 Y-21.569 I-2.198 J20.557
N9105 X-5.845 Y-20.805 I1.53 J17.978
N9110 X-19.24 Y-9.841 I6.965 J22.175
N9115 X-21.553 Y-1.893 I16.219 J9.03
N9120 X-20.657 Y6.337 I24.905 J1.452
N9125 X-10.166 Y19.033 I19.636 J-5.543
N9130 X6.219 Y20.693 I10.372 J-20.685
N9135 X16.178 Y14.375 I-5.145 J-19.117
N9140 X21.232 Y3.981 I-17.791 J-15.076
N9145 X20.144 Y1.531 I-2.259 J-0.463
N9150 G03 X18.777 Y-0.774 I1.413 J-2.396
N9155 G02 X17.808 Y-6.367 I-20.471 J0.668
N9160 X13.823 Y-13.029 I-16.325 J5.242
N9165 X7.403 Y-17.393 I-13.627 J13.145
N9170 X-7.87 Y-17.114 I-7.315 J17.771
N9175 X-18.022 Y-5.699 I7.809 J17.166
N9180 X-17.019 Y8.345 I18.025 J5.771
N9185 X-6.531 Y17.738 I16.732 J-8.131
N9190 X0.426 Y18.835 I6.397 J-17.958
N9195 X7.327 Y17.429 I-0.605 J-20.603
N9200 X17.281 Y7.607 I-6.447 J-16.488
N9205 X18.777 Y-0.774 I-18.975 J-7.712
N9210 X17.188 Y-2.858 I-2.258 J0.074
N9215 G03 X15.341 Y-4.718 I0.825 J-2.666
N9220 G01 X15.307 Y-4.832
N9225 X15.298 Y-4.862
N9230 X15.094 Y-5.496
N9235 X15.038 Y-5.646
N9240 X14.472 Y-6.976
N9245 X14.434 Y-7.06
N9250 X14.391 Y-7.142
N9255 X13.651 Y-8.471
N9260 X13.605 Y-8.549
N9265 X13.555 Y-8.624
N9270 X13.07 Y-9.317
N9275 X13.049 Y-9.345
N9280 X12.584 Y-9.982
N9285 X12.488 Y-10.102
N9290 X11.624 Y-11.089
N9295 X11.566 Y-11.153
N9300 X11.504 Y-11.213
N9305 X10.84 Y-11.837
N9310 X10.829 Y-11.847
N9315 X10.415 Y-12.229
N9320 X10.326 Y-12.306
N9325 G02 X8.631 Y-13.538 I-12.33 J15.174
N9330 G01 X8.535 Y-13.6
N9335 G02 X5.653 Y-15.029 I-8.726 J13.982
N9340 G01 X5.537 Y-15.074
N9345 X4.872 Y-15.294
N9350 X4.843 Y-15.303
N9355 X4.178 Y-15.511
N9360 X4.027 Y-15.55
N9365 X2.697 Y-15.838
N9370 X2.544 Y-15.864
N9375 G02 X1.328 Y-16.013 I-3.033 J19.644
N9380 X-1.149 Y-16.016 I-1.262 J19.608
N9385 G01 X-1.265 Y-16.006
N9390 X-2.521 Y-15.866
N9395 X-2.609 Y-15.854
N9400 X-2.697 Y-15.838
N9405 X-4.027 Y-15.55
N9410 X-4.182 Y-15.51
N9415 X-4.937 Y-15.272
N9420 X-4.963 Y-15.264
N9425 X-5.537 Y-15.074
N9430 X-5.653 Y-15.031
N9435 G02 X-8.535 Y-13.6 I5.951 J15.602
N9440 G01 X-8.635 Y-13.536
N9445 G02 X-10.327 Y-12.308 I11.655 J17.82
N9450 G01 X-10.415 Y-12.229
N9455 X-11.135 Y-11.565
N9460 X-11.154 Y-11.546
N9465 X-11.513 Y-11.204
N9470 X-11.624 Y-11.089
N9475 X-12.488 Y-10.102
N9480 X-12.584 Y-9.981
N9485 X-13.07 Y-9.316
N9490 X-13.09 Y-9.289
N9495 X-13.555 Y-8.624
N9500 X-13.605 Y-8.549
N9505 X-13.651 Y-8.471
N9510 X-14.391 Y-7.142
N9515 X-14.434 Y-7.06
N9520 X-14.472 Y-6.976
N9525 X-15.038 Y-5.646
N9530 X-15.095 Y-5.495
N9535 X-15.307 Y-4.83
N9540 X-15.316 Y-4.802
N9545 X-15.517 Y-4.137
N9550 X-15.547 Y-4.021
N9555 G02 X-15.947 Y-1.89 I18.231 J4.522
N9560 G01 X-15.959 Y-1.777
N9565 G02 X-16.061 Y-0.403 I28.223 J2.776
N9570 G01 X-16.063 Y-0.261
N9575 X-16.027 Y1.068
N9580 X-16.017 Y1.22
N9585 G02 X-15.314 Y4.829 I16.988 J-1.433
N9590 G01 X-15.278 Y4.948
N9595 X-15.041 Y5.604
N9600 X-15.03 Y5.633
N9605 X-14.777 Y6.297
N9610 X-14.711 Y6.449
N9615 X-14.056 Y7.778
N9620 X-14.015 Y7.856
N9625 X-13.97 Y7.932
N9630 X-13.554 Y8.597
N9635 X-13.537 Y8.623
N9640 X-13.103 Y9.29
N9645 X-13.013 Y9.416
N9650 G02 X-10.86 Y11.835 I14.008 J-10.304
N9655 G01 X-10.759 Y11.929
N9660 G02 X-9.364 Y13.044 I16.517 J-19.242
N9665 G01 X-9.262 Y13.116
N9670 X-8.258 Y13.781
N9675 X-8.182 Y13.829
N9680 X-8.103 Y13.873
N9685 X-6.833 Y14.537
N9690 X-6.709 Y14.596
N9695 G02 X-4.881 Y15.299 I9.087 J-20.886
N9700 G01 X-4.749 Y15.341
N9705 X-3.447 Y15.692
N9710 X-3.315 Y15.722
N9715 G02 X-0.176 Y16.058 I3.289 J-15.901
N9720 X0.176 Y16.062 I0.2 J-1.742
N9725 X1.795 Y15.962 I-1.337 J-34.582
N9730 G01 X1.942 Y15.944
N9735 X3.272 Y15.729
N9740 X3.36 Y15.713
N9745 X3.447 Y15.692
N9750 X4.777 Y15.334
N9755 X4.915 Y15.29
N9760 G02 X6.71 Y14.597 I-8.165 J-23.807
N9765 G01 X6.833 Y14.537
N9770 X8.103 Y13.873
N9775 X8.182 Y13.829
N9780 X8.258 Y13.781
N9785 X9.278 Y13.106
N9790 X9.381 Y13.032
N9795 G02 X10.759 Y11.929 I-15.655 J-20.965
N9800 G01 X10.862 Y11.837
N9805 G02 X13.016 Y9.415 I-12.273 J-13.083
N9810 G01 X13.111 Y9.278
N9815 X13.775 Y8.244
N9820 X13.785 Y8.227
N9825 X13.97 Y7.932
N9830 X14.015 Y7.856
N9835 X14.056 Y7.778
N9840 X14.711 Y6.449
N9845 X14.777 Y6.297
N9850 X15.03 Y5.633
N9855 X15.041 Y5.604
N9860 X15.281 Y4.939
N9865 X15.319 Y4.819
N9870 G02 X16.014 Y1.22 I-16.177 J-4.988
N9875 G01 X16.027 Y1.068
N9880 X16.063 Y-0.261
N9885 X16.059 Y-0.427
N9890 X16.014 Y-1.092
N9895 X16.013 Y-1.112
N9900 X15.959 Y-1.777
N9905 X15.947 Y-1.889
N9910 G02 X15.547 Y-4.021 I-18.375 J2.343
N9915 G01 X15.517 Y-4.137
N9920 X15.341 Y-4.718
N9925 G03 X15.497 Y-5.074 I0.287 J-0.087
N9930 G01 X21.623 Y-8.058
N9935 G03 X22.038 Y-7.885 I0.131 J0.27
N9940 X22.728 Y-5.405 I-21.222 J7.239
N9945 X16.377 Y16.631 I-23.613 J5.128
N9950 X-5.14 Y22.786 I-16.132 J-15.708
N9955 X-17.63 Y15.26 I5.812 J-23.772
N9960 X-23.296 Y1.824 I16.981 J-15.074
N9965 X-23.271 Y-1.811 I22.96 J-1.66
N9970 X-22.728 Y-5.405 I28.321 J2.439
N9975 X-10.051 Y-21.065 I21.881 J4.752
N9980 X10.08 Y-21.066 I10.066 J22.184
N9985 X22.038 Y-7.885 I-9.264 J20.42
N9990 G02 X23.874 Y-6.43 I2.049 J-0.699
N9995 G03 X25.59 Y-4.834 I-0.19 J1.924
N10000 X23.919 Y10.181 I-26.769 J4.621
N10005 X13.284 Y22.432 I-23.661 J-9.799
N10010 X1.39 Y26. I-13.173 J-22.3
N10015 X-10.815 Y23.711 I-1.318 J-26.647
N10020 X-23.36 Y11.449 I10.336 J-23.123
N10025 X-25.367 Y-5.979 I24.558 J-11.658
N10030 X-11.166 Y-23.524 I24.518 J5.325
N10035 X11.292 Y-23.479 I11.18 J24.639
N10040 X25.367 Y-5.979 I-10.47 J22.831
N10045 X25.59 Y-4.834 I-26.547 J5.765
N10050 G02 X27.284 Y-2.998 I2.266 J-0.391
N10055 G03 X28.891 Y-1.087 I-0.536 J2.083
N10060 G01 X28.906 Y-0.904
N10065 X28.905 Y-0.333
N10070 X28.837 Y2.225
N10075 X28.769 Y2.797
N10080 X28.427 Y5.35
N10085 X27.806 Y7.899
N10090 X27.651 Y8.473
N10095 X26.646 Y11.257
N10100 X25.373 Y13.876
N10105 X25.252 Y14.101
N10110 X23.667 Y16.632
N10115 X22.168 Y18.542
N10120 X21.686 Y19.134
N10125 X19.743 Y21.13
N10130 X19.149 Y21.647
N10135 X17.241 Y23.226
N10140 X14.735 Y24.889
N10145 X12.204 Y26.212
N10150 X11.625 Y26.47
N10155 X9.091 Y27.461
N10160 X6.544 Y28.156
N10165 X5.969 Y28.297
N10170 X3.416 Y28.708
N10175 X2.843 Y28.775
N10180 X0.286 Y28.912
N10185 X-0.286
N10190 X-2.843 Y28.775
N10195 X-3.416 Y28.708
N10200 X-5.969 Y28.297
N10205 X-6.544 Y28.156
N10210 X-9.091 Y27.461
N10215 X-11.625 Y26.47
N10220 X-12.204 Y26.212
N10225 X-14.735 Y24.889
N10230 X-17.241 Y23.226
N10235 X-19.176 Y21.624
N10240 X-19.742 Y21.131
N10245 X-21.685 Y19.135
N10250 X-22.237 Y18.453
N10255 X-23.667 Y16.632
N10260 X-25.252 Y14.101
N10265 X-25.373 Y13.876
N10270 X-26.646 Y11.257
N10275 X-27.651 Y8.473
N10280 X-27.806 Y7.899
N10285 X-28.427 Y5.35
N10290 X-28.769 Y2.797
N10295 X-28.837 Y2.225
N10300 X-28.905 Y-0.333
N10305 X-28.906 Y-0.904
N10310 X-28.701 Y-3.46
N10315 X-28.635 Y-4.032
N10320 X-28.154 Y-6.584
N10325 X-28.012 Y-7.158
N10330 X-27.245 Y-9.701
N10335 X-27.015 Y-10.279
N10340 X-26.019 Y-12.638
N10345 X-24.528 Y-15.333
N10350 X-22.769 Y-17.839
N10355 X-20.981 Y-19.888
N10360 X-20.559 Y-20.333
N10365 X-18.497 Y-22.237
N10370 X-15.986 Y-24.108
N10375 X-13.474 Y-25.588
N10380 X-12.662 Y-25.975
N10385 X-10.938 Y-26.757
N10390 X-10.359 Y-26.999
N10395 X-7.718 Y-27.872
N10400 X-7.255 Y-27.985
N10405 X-4.693 Y-28.539
N10410 X-4.121 Y-28.61
N10415 X-1.569 Y-28.883
N10420 X1.569
N10425 X4.121 Y-28.61
N10430 X4.693 Y-28.539
N10435 X7.255 Y-27.985
N10440 X7.718 Y-27.872
N10445 X10.359 Y-26.999
N10450 X10.938 Y-26.757
N10455 X12.888 Y-25.872
N10460 X13.469 Y-25.591
N10465 X15.986 Y-24.108
N10470 X18.497 Y-22.237
N10475 X20.559 Y-20.333
N10480 X20.981 Y-19.888
N10485 X22.769 Y-17.839
N10490 X24.528 Y-15.333
N10495 X26.019 Y-12.638
N10500 X27.015 Y-10.279
N10505 X27.245 Y-9.701
N10510 X28.012 Y-7.158
N10515 X28.154 Y-6.584
N10520 X28.635 Y-4.032
N10525 X28.701 Y-3.46
N10530 X28.891 Y-1.087
N10535 G03 X28.578 Y-0.764 I-0.299 J0.024
N10540 G01 X25.095 Y-0.931
N10545 X18.798 Y-0.915
N10550 X18.763 Y-0.91
N10555 X18.73 Y-0.896
N10560 X18.278 Y-0.622
N10565 X18.236 Y-0.606
N10570 X18.192 Y-0.605
N10575 X18.149 Y-0.618
N10580 X18.113 Y-0.645
N10585 G03 X22.294 Y-4.52 Z-7.313 I2.09 J-1.937
N10590 X18.113 Y-0.645 Z-7.625 I-2.09 J1.937
N10595 X22.294 Y-4.52 Z-7.938 I2.09 J-1.937
N10600 X23.032 Y-2.936 Z-8. I-2.09 J1.937
N10605 X23.214 Y0.92 I-24.88 J3.109
N10610 X20.449 Y11.236 I-23.202 J-0.691
N10615 X-11.849 Y20.097 I-20.375 J-10.973
N10620 X-23.218 Y-2.353 I12.054 J-20.209
N10625 X-7.551 Y-22.048 I22.976 J2.199
N10630 X-3.663 Y-22.994 I7.611 J22.797
N10635 X0.326 Y-23.304 I3.966 J25.293
N10640 X12.857 Y-19.592 I-0.021 J23.081
N10645 X21.252 Y-9.577 I-12.094 J18.664
N10650 X23.032 Y-2.936 I-23.1 J9.751
N10655 G02 X24.207 Y-1.541 I1.663 J-0.208
N10660 G03 X25.294 Y-0.076 I-0.446 J1.467
N10665 X22.212 Y12.185 I-25.779 J0.037
N10670 X-12.873 Y21.815 I-22.137 J-11.922
N10675 X-16.079 Y19.523 I12.171 J-20.404
N10680 X-18.944 Y16.816 I24.057 J-28.336
N10685 X-24.236 Y7.517 I16.072 J-15.301
N10690 X-25.133 Y-3.146 I27.297 J-7.667
N10695 X-13.432 Y-21.515 I24.325 J2.584
N10700 X8.213 Y-23.936 I13.456 J22.334
N10705 X23.634 Y-9.139 I-7.793 J23.556
N10710 X25.294 Y-0.076 I-24.119 J9.101
N10715 G02 X26.639 Y2.025 I2.318 J-0.003
N10720 G03 X27.841 Y4.21 I-0.883 J1.909
N10725 G01 X27.768 Y4.761
N10730 X27.679 Y5.332
N10735 X27.06 Y7.869
N10740 X26.884 Y8.445
N10745 X25.969 Y10.975
N10750 X24.723 Y13.538
N10755 X24.407 Y14.07
N10760 X23.199 Y16.001
N10765 X22.87 Y16.462
N10770 X21.273 Y18.497
N10775 X21.008 Y18.782
N10780 X19.093 Y20.742
N10785 X17.194 Y22.317
N10790 X16.602 Y22.772
N10795 X14.548 Y24.135
N10800 X14.109 Y24.397
N10805 X12.168 Y25.405
N10810 X11.587 Y25.699
N10815 X9.06 Y26.687
N10820 X8.484 Y26.869
N10825 X5.947 Y27.559
N10830 X3.405 Y27.969
N10835 X2.833 Y28.043
N10840 X0.286 Y28.179
N10845 X-0.286
N10850 X-2.833 Y28.043
N10855 X-3.405 Y27.969
N10860 X-5.947 Y27.559
N10865 X-8.484 Y26.869
N10870 X-9.06 Y26.687
N10875 X-11.582 Y25.701
N10880 X-12.829 Y25.062
N10885 X-14.109 Y24.397
N10890 X-14.548 Y24.135
N10895 X-16.6 Y22.774
N10900 X-17.266 Y22.257
N10905 X-19.093 Y20.742
N10910 X-21.008 Y18.782
N10915 X-21.273 Y18.497
N10920 X-22.87 Y16.462
N10925 X-23.199 Y16.001
N10930 X-24.405 Y14.075
N10935 X-24.746 Y13.491
N10940 X-25.981 Y10.948
N10945 X-26.883 Y8.445
N10950 X-27.06 Y7.869
N10955 X-27.679 Y5.332
N10960 X-27.768 Y4.761
N10965 X-28.105 Y2.213
N10970 X-28.173 Y-0.33
N10975 X-28.172 Y-0.901
N10980 X-27.968 Y-3.447
N10985 X-27.892 Y-4.019
N10990 X-27.414 Y-6.559
N10995 X-27.244 Y-7.17
N11000 X-26.593 Y-9.33
N11005 X-26.482 Y-9.659
N11010 X-25.354 Y-12.331
N11015 X-24.042 Y-14.701
N11020 X-23.668 Y-15.287
N11025 X-22.223 Y-17.344
N11030 X-21.619 Y-18.047
N11035 X-20.176 Y-19.691
N11040 X-18.117 Y-21.592
N11045 X-17.869 Y-21.798
N11050 X-15.639 Y-23.455
N11055 X-15.385 Y-23.613
N11060 X-13.428 Y-24.766
N11065 X-12.845 Y-25.088
N11070 X-10.329 Y-26.23
N11075 X-9.088 Y-26.648
N11080 X-7.419 Y-27.201
N11085 X-4.526 Y-27.826
N11090 X-1.565 Y-28.147
N11095 X0.331 Y-28.154
N11100 X1.563 Y-28.147
N11105 X4.526 Y-27.826
N11110 X7.419 Y-27.201
N11115 X9.748 Y-26.43
N11120 X10.325 Y-26.232
N11125 X12.842 Y-25.09
N11130 X13.516 Y-24.714
N11135 X15.385 Y-23.613
N11140 X15.639 Y-23.455
N11145 X17.869 Y-21.798
N11150 X18.117 Y-21.592
N11155 X20.176 Y-19.691
N11160 X21.856 Y-17.777
N11165 X22.22 Y-17.348
N11170 X23.668 Y-15.287
N11175 X24.042 Y-14.701
N11180 X25.354 Y-12.331
N11185 X26.482 Y-9.659
N11190 X26.593 Y-9.33
N11195 X27.255 Y-7.135
N11200 X27.413 Y-6.56
N11205 X27.892 Y-4.019
N11210 X27.968 Y-3.447
N11215 X28.172 Y-0.901
N11220 X28.173 Y-0.33
N11225 X28.105 Y2.213
N11230 X27.841 Y4.21
N11235 G03 X27.541 Y4.471 I-0.297 J-0.039
N11240 G01 X21.506 Y4.416
N11245 G03 X21.214 Y4.058 I0.003 J-0.3
N11250 G02 X21.586 Y-1.854 I-22.435 J-4.382
N11255 X16.604 Y-13.875 I-20.275 J1.361
N11260 X9.307 Y-19.513 I-17.99 J15.742
N11265 X0.332 Y-21.633 I-8.975 J17.943
N11270 X-20.023 Y-8.192 J22.134
N11275 X-19.979 Y8.399 I19.534 J8.244
N11280 X-8.155 Y20.038 I20.125 J-8.619
N11285 X7.029 Y20.534 I8.259 J-20.157
N11290 X18.726 Y10.84 I-6.704 J-19.992
N11295 X21.214 Y4.058 I-19.947 J-11.163
N11300 X20.468 Y2.382 I-1.567 J-0.306
N11305 G03 X19.585 Y0.775 I0.936 J-1.56
N11310 G02 X15.278 Y-12.339 I-20.492 J-0.534
N11315 X5.852 Y-18.767 I-14.577 J11.25
N11320 X-5.557 Y-18.835 I-5.823 J19.985
N11325 X-7.489 Y-18.188 I5.323 J19.109
N11330 X-9.321 Y-17.294 I4.697 J11.951
N11335 X-14.351 Y-13.377 I12.668 J21.456
N11340 X-17.899 Y-8.079 I11.943 J11.835
N11345 X-19.319 Y3.284 I19.421 J8.196
N11350 X-14.22 Y13.537 I18.518 J-2.813
N11355 X-5.424 Y18.882 I14.749 J-14.362
N11360 X4.867 Y19.022 I5.389 J-17.839
N11365 X14.56 Y13.184 I-5.466 J-20.042
N11370 X19.411 Y2.962 I-13.537 J-12.685
N11375 X19.585 Y0.775 I-20.318 J-2.721
N11380 X18.116 Y-1.447 I-2.323 J-0.061
N11385 G03 X16.414 Y-3.496 I1.017 J-2.576
N11390 G01 X16.323 Y-3.964
N11395 X16.304 Y-4.051
N11400 X16.281 Y-4.137
N11405 X15.88 Y-5.466
N11410 X15.832 Y-5.605
N11415 G02 X15.244 Y-7.041 I-32.709 J12.555
N11420 G01 X15.194 Y-7.149
N11425 G02 X12.29 Y-11.443 I-15.586 J7.411
N11430 G01 X12.2 Y-11.535
N11435 G02 X10.761 Y-12.9 I-19.759 J19.397
N11440 G01 X10.693 Y-12.959
N11445 X10.622 Y-13.014
N11450 X9.354 Y-13.954
N11455 X9.279 Y-14.006
N11460 X9.202 Y-14.055
N11465 X7.872 Y-14.84
N11470 X7.792 Y-14.884
N11475 X7.711 Y-14.924
N11480 X6.381 Y-15.533
N11485 X6.248 Y-15.588
N11490 G02 X4.018 Y-16.303 I-7.174 J18.541
N11495 G01 X2.688 Y-16.581
N11500 X2.539 Y-16.606
N11505 X1.874 Y-16.687
N11510 X1.837 Y-16.691
N11515 X1.173 Y-16.758
N11520 X1.038 Y-16.766
N11525 G02 X-1.053 Y-16.761 I-0.98 J26.489
N11530 G01 X-1.184 Y-16.751
N11535 X-2.513 Y-16.609
N11540 X-2.601 Y-16.597
N11545 X-2.688 Y-16.581
N11550 X-4.018 Y-16.301
N11555 G02 X-6.247 Y-15.585 I4.536 J17.96
N11560 G01 X-6.381 Y-15.533
N11565 X-7.711 Y-14.924
N11570 X-7.792 Y-14.884
N11575 X-7.872 Y-14.84
N11580 X-9.202 Y-14.055
N11585 X-9.281 Y-14.005
N11590 X-9.358 Y-13.951
N11595 X-10.688 Y-12.96
N11600 X-10.759 Y-12.903
N11605 X-10.828 Y-12.843
N11610 G02 X-12.209 Y-11.525 I19.313 J21.613
N11615 G01 X-12.297 Y-11.431
N11620 G02 X-15.826 Y-5.603 I12.391 J11.485
N11625 G01 X-15.88 Y-5.466
N11630 X-16.281 Y-4.137
N11635 X-16.304 Y-4.051
N11640 X-16.323 Y-3.964
N11645 X-16.581 Y-2.635
N11650 G02 X-16.707 Y-1.609 I10.62 J1.826
N11655 G01 X-16.791 Y-0.433
N11660 X-16.795 Y-0.347
N11665 Y-0.261
N11670 X-16.76 Y1.068
N11675 X-16.751 Y1.204
N11680 G02 X-16.463 Y3.312 I22.499 J-1.998
N11685 G01 X-16.437 Y3.434
N11690 X-16.11 Y4.763
N11695 X-16.086 Y4.85
N11700 X-16.057 Y4.936
N11705 X-15.58 Y6.266
N11710 X-15.528 Y6.396
N11715 G02 X-14.415 Y8.603 I16.743 J-7.056
N11720 G01 X-13.782 Y9.605
N11725 X-13.732 Y9.679
N11730 X-13.679 Y9.751
N11735 X-12.902 Y10.742
N11740 X-12.824 Y10.836
N11745 G02 X-11.531 Y12.213 I19.439 J-16.943
N11750 G01 X-11.471 Y12.272
N11755 X-11.408 Y12.329
N11760 X-10.622 Y12.993
N11765 X-10.604 Y13.008
N11770 X-10.089 Y13.432
N11775 X-10.017 Y13.488
N11780 X-9.942 Y13.541
N11785 X-8.572 Y14.446
N11790 X-8.495 Y14.495
N11795 X-8.415 Y14.539
N11800 X-7.125 Y15.21
N11805 X-6.981 Y15.277
N11810 G02 X-5.232 Y15.964 I14.021 J-33.123
N11815 G01 X-5.099 Y16.004
N11820 G02 X-2.565 Y16.604 I5.854 J-19.092
N11825 G01 X-1.899 Y16.692
N11830 X-1.773 Y16.704
N11835 G02 X1.795 Y16.701 I1.766 J-18.862
N11840 G01 X1.941 Y16.686
N11845 X3.27 Y16.472
N11850 X3.402 Y16.445
N11855 G02 X5.099 Y16.004 I-6.716 J-29.342
N11860 G01 X5.232 Y15.962
N11865 G02 X6.995 Y15.269 I-10.316 J-28.82
N11870 G01 X7.139 Y15.203
N11875 X8.457 Y14.515
N11880 X8.537 Y14.471
N11885 X8.615 Y14.422
N11890 X9.945 Y13.539
N11895 X10.019 Y13.487
N11900 X10.09 Y13.431
N11905 X10.755 Y12.883
N11910 X10.781 Y12.861
N11915 X11.446 Y12.291
N11920 X11.561 Y12.183
N11925 G02 X12.827 Y10.832 I-16.47 J-16.708
N11930 G01 X12.902 Y10.742
N11935 X13.679 Y9.751
N11940 X13.733 Y9.679
N11945 X13.782 Y9.605
N11950 G02 X14.884 Y7.77 I-16.802 J-11.333
N11955 X15.528 Y6.396 I-26.11 J-13.079
N11960 G01 X15.58 Y6.266
N11965 X16.057 Y4.936
N11970 X16.086 Y4.85
N11975 X16.11 Y4.763
N11980 X16.437 Y3.434
N11985 X16.462 Y3.312
N11990 G02 X16.753 Y1.189 I-20.963 J-3.951
N11995 G01 X16.76 Y1.068
N12000 X16.795 Y-0.261
N12005 Y-0.348
N12010 X16.791 Y-0.435
N12015 X16.694 Y-1.764
N12020 G02 X16.414 Y-3.496 I-13.873 J1.357
N12025 G03 X16.634 Y-3.844 I0.295 J-0.057
N12030 G01 X20.888 Y-4.936
N12035 X20.95 Y-4.959
N12040 X21.005 Y-4.996
N12045 X24.32 Y-7.747
N12050 G03 X24.712 Y-7.739 I0.192 J0.231
N12055 X20.907 Y-3.495 Z-8.313 I-1.903 J2.122
N12060 X24.712 Y-7.739 Z-8.625 I1.903 J-2.122
N12065 X20.907 Y-3.495 Z-8.938 I-1.903 J2.122
N12070 X20.026 Y-5.004 Z-9. I1.903 J-2.122
N12075 G02 X19.702 Y-6.299 I-22.551 J4.968
N12080 X13.069 Y-15.98 I-17.638 J4.97
N12085 X6.707 Y-19.442 I-14.956 J19.91
N12090 X-0.438 Y-20.629 I-6.699 J18.22
N12095 X-12.056 Y-16.853 I0.489 J21.263
N12100 X-19.388 Y-7.084 I11.006 J15.897
N12105 X-19.067 Y7.777 I20.896 J6.982
N12110 X-8.899 Y18.619 I18.362 J-7.031
N12115 X5.827 Y19.688 I8.794 J-19.184
N12120 X17.595 Y10.774 I-5.836 J-19.93
N12125 X18.966 Y8.197 I-17.67 J-11.056
N12130 X19.91 Y5.435 I-14.851 J-6.614
N12135 X20.026 Y-5.004 I-22.434 J-5.471
N12140 X17.975 Y-6.84 I-2.3 J0.507
N12145 G03 X15.688 Y-8.372 I0.312 J-2.938
N12150 G01 X15.644 Y-8.453
N12155 X15.635 Y-8.469
N12160 X15.162 Y-9.322
N12165 X15.117 Y-9.399
N12170 X15.067 Y-9.474
N12175 X14.273 Y-10.614
N12180 X14.205 Y-10.706
N12185 G02 X12.954 Y-12.197 I-17.606 J13.497
N12190 G01 X12.854 Y-12.303
N12195 G02 X11.494 Y-13.588 I-28.456 J28.736
N12200 G01 X11.427 Y-13.647
N12205 X11.358 Y-13.702
N12210 X10.028 Y-14.701
N12215 X9.891 Y-14.793
N12220 G02 X8.233 Y-15.78 I-22.761 J36.388
N12225 G01 X8.155 Y-15.822
N12230 X8.075 Y-15.861
N12235 X6.61 Y-16.526
N12240 X6.527 Y-16.561
N12245 X6.442 Y-16.592
N12250 X4.877 Y-17.115
N12255 X4.72 Y-17.159
N12260 G02 X1.164 Y-17.763 I-5.14 J19.498
N12265 G01 X1.028 Y-17.769
N12270 G02 X-1.038 Y-17.765 I-0.978 J34.629
N12275 G01 X-1.183 Y-17.755
N12280 X-2.513 Y-17.613
N12285 X-2.636 Y-17.596
N12290 G02 X-4.722 Y-17.157 I4.271 J25.505
N12295 G01 X-4.877 Y-17.115
N12300 X-6.442 Y-16.592
N12305 X-6.527 Y-16.561
N12310 X-6.61 Y-16.526
N12315 X-8.075 Y-15.861
N12320 X-8.156 Y-15.822
N12325 X-8.234 Y-15.779
N12330 G02 X-9.901 Y-14.788 I17.062 J30.582
N12335 G01 X-10.028 Y-14.701
N12340 X-11.358 Y-13.702
N12345 X-11.427 Y-13.647
N12350 X-11.494 Y-13.588
N12355 G02 X-12.858 Y-12.298 I23.696 J26.427
N12360 G01 X-12.954 Y-12.197
N12365 G02 X-14.205 Y-10.705 I16.205 J14.864
N12370 G01 X-14.273 Y-10.614
N12375 X-15.067 Y-9.474
N12380 X-15.117 Y-9.399
N12385 X-15.162 Y-9.322
N12390 X-15.827 Y-8.123
N12395 X-15.845 Y-8.09
N12400 X-16.013 Y-7.771
N12405 X-16.077 Y-7.636
N12410 X-16.638 Y-6.306
N12415 X-16.685 Y-6.18
N12420 G02 X-17.314 Y-4.103 I24.619 J8.589
N12425 G01 X-17.346 Y-3.967
N12430 X-17.599 Y-2.626
N12435 X-17.619 Y-2.49
N12440 G02 X-17.791 Y-0.414 I29.071 J3.449
N12445 G01 X-17.794 Y-0.261
N12450 X-17.759 Y1.068
N12455 X-17.752 Y1.182
N12460 G02 X-17.498 Y3.255 I23.845 J-1.863
N12465 G01 X-17.484 Y3.343
N12470 X-17.465 Y3.43
N12475 X-17.141 Y4.76
N12480 G02 X-16.375 Y6.963 I20.191 J-5.786
N12485 G01 X-16.317 Y7.105
N12490 X-15.67 Y8.434
N12495 X-15.593 Y8.576
N12500 G02 X-14.345 Y10.526 I19.413 J-11.047
N12505 G01 X-13.649 Y11.408
N12510 X-13.568 Y11.504
N12515 G02 X-12.225 Y12.932 I21.701 J-19.065
N12520 G01 X-12.106 Y13.043
N12525 X-11.389 Y13.654
N12530 X-11.371 Y13.669
N12535 X-10.759 Y14.177
N12540 X-10.659 Y14.254
N12545 G02 X-9.279 Y15.182 I14.733 J-20.419
N12550 G01 X-9.161 Y15.254
N12555 G02 X-6.948 Y16.377 I10.602 J-18.147
N12560 G01 X-5.617 Y16.888
N12565 X-5.533 Y16.918
N12570 X-5.448 Y16.944
N12575 X-4.019 Y17.334
N12580 G02 X-1.889 Y17.699 I4.068 J-17.349
N12585 G01 X-1.756 Y17.712
N12590 G02 X-0.332 Y17.786 I1.978 J-24.286
N12595 X0.426 Y17.783 I0.336 J-13.292
N12600 G01 X1.756 Y17.712
N12605 X1.845 Y17.705
N12610 X1.934 Y17.693
N12615 G02 X3.891 Y17.364 I-3.815 J-28.654
N12620 G01 X4.019 Y17.334
N12625 X5.448 Y16.944
N12630 X5.533 Y16.918
N12635 X5.617 Y16.888
N12640 X6.947 Y16.375
N12645 G02 X9.159 Y15.251 I-7.722 J-17.934
N12650 G01 X9.279 Y15.182
N12655 G02 X10.659 Y14.254 I-13.423 J-21.452
N12660 G01 X10.759 Y14.177
N12665 X11.424 Y13.626
N12670 X11.443 Y13.61
N12675 X12.108 Y13.042
N12680 X12.225 Y12.932
N12685 G02 X13.603 Y11.46 I-18.135 J-18.363
N12690 G01 X13.678 Y11.371
N12695 G02 X15.589 Y8.569 I-13.449 J-11.223
N12700 G01 X15.67 Y8.434
N12705 X16.317 Y7.105
N12710 X16.379 Y6.96
N12715 G02 X17.143 Y4.76 I-21.653 J-8.747
N12720 G01 X17.465 Y3.43
N12725 X17.484 Y3.343
N12730 X17.498 Y3.255
N12735 G02 X17.752 Y1.182 I-23.61 J-3.938
N12740 G01 X17.759 Y1.068
N12745 X17.794 Y-0.261
N12750 X17.791 Y-0.414
N12755 G02 X17.62 Y-2.49 I-30.48 J1.476
N12760 G01 X17.599 Y-2.626
N12765 X17.346 Y-3.967
N12770 X17.315 Y-4.103
N12775 G02 X16.686 Y-6.18 I-25.541 J6.6
N12780 G01 X16.638 Y-6.306
N12785 X16.077 Y-7.636
N12790 X16.042 Y-7.713
N12795 X16.004 Y-7.788
N12800 X15.688 Y-8.372
N12805 G03 X15.843 Y-8.795 I0.264 J-0.143
N12810 G01 X21.406 Y-10.949
N12815 G03 X21.784 Y-10.802 I0.108 J0.28
N12820 X24.182 Y-1.619 I-21.293 J10.466
N12825 X18.81 Y15.401 I-25.304 J1.371
N12830 X13.769 Y20.107 I-17.653 J-13.86
N12835 X7.57 Y23.129 I-13.59 J-20.006
N12840 X-16.552 Y17.83 I-7.506 J-23.386
N12845 X-23.628 Y-5.831 I16.325 J-17.771
N12850 X16.585 Y-17.769 I23.645 J5.952
N12855 X21.784 Y-10.802 I-16.093 J17.433
N12860 G02 X23.912 Y-9.522 I2.056 J-1.011
N12865 G03 X25.929 Y-8.073 I0.064 J2.038
N12870 G01 X26.393 Y-6.533
N12875 X26.636 Y-5.295
N12880 X26.88 Y-4.001
N12885 X26.968 Y-3.428
N12890 X27.175 Y-0.84
N12895 X27.174 Y-0.335
N12900 X27.102 Y2.21
N12905 X26.764 Y4.734
N12910 X26.658 Y5.307
N12915 X26.042 Y7.828
N12920 X25.136 Y10.346
N12925 X24.884 Y10.924
N12930 X23.948 Y12.848
N12935 X23.629 Y13.431
N12940 X22.421 Y15.362
N12945 X22.186 Y15.716
N12950 X20.52 Y17.839
N12955 X20.337 Y18.04
N12960 X18.428 Y19.997
N12965 X16.514 Y21.583
N12970 X15.947 Y22.008
N12975 X13.782 Y23.442
N12980 X11.361 Y24.7
N12985 X10.971 Y24.868
N12990 X9.019 Y25.631
N12995 X8.441 Y25.845
N13000 X5.808 Y26.563
N13005 X4.046 Y26.854
N13010 X2.812 Y27.044
N13015 X0.074 Y27.19
N13020 X-0.074
N13025 X-2.812 Y27.044
N13030 X-4.046 Y26.854
N13035 X-5.808 Y26.563
N13040 X-8.441 Y25.845
N13045 X-9.019 Y25.631
N13050 X-10.971 Y24.868
N13055 X-11.361 Y24.7
N13060 X-13.782 Y23.442
N13065 X-15.946 Y22.009
N13070 X-16.536 Y21.565
N13075 X-18.428 Y19.997
N13080 X-20.337 Y18.04
N13085 X-20.52 Y17.839
N13090 X-22.186 Y15.716
N13095 X-22.421 Y15.362
N13100 X-23.629 Y13.431
N13105 X-23.948 Y12.848
N13110 X-24.884 Y10.924
N13115 X-25.137 Y10.346
N13120 X-26.042 Y7.828
N13125 X-26.658 Y5.307
N13130 X-26.764 Y4.734
N13135 X-27.102 Y2.21
N13140 X-27.175 Y-0.382
N13145 Y-0.838
N13150 X-26.968 Y-3.428
N13155 X-26.88 Y-4.001
N13160 X-26.511 Y-5.954
N13165 X-26.395 Y-6.528
N13170 X-25.635 Y-9.047
N13175 X-25.413 Y-9.624
N13180 X-24.598 Y-11.555
N13185 X-24.321 Y-12.136
N13190 X-23.259 Y-14.053
N13195 X-22.903 Y-14.638
N13200 X-21.542 Y-16.576
N13205 X-21.095 Y-17.129
N13210 X-19.642 Y-18.791
N13215 X-19.437 Y-19.014
N13220 X-17.396 Y-20.898
N13225 X-16.574 Y-21.517
N13230 X-15.277 Y-22.48
N13235 X-14.866 Y-22.759
N13240 X-12.711 Y-24.03
N13245 X-12.213 Y-24.279
N13250 X-10.007 Y-25.28
N13255 X-9.724 Y-25.386
N13260 X-7.185 Y-26.226
N13265 X-4.654 Y-26.777
N13270 X-4.082 Y-26.874
N13275 X-1.552 Y-27.144
N13280 X-0.98 Y-27.156
N13285 X0.979
N13290 X1.563 Y-27.143
N13295 X4.082 Y-26.874
N13300 X4.654 Y-26.777
N13305 X7.185 Y-26.226
N13310 X9.724 Y-25.386
N13315 X10.007 Y-25.28
N13320 X12.213 Y-24.279
N13325 X12.711 Y-24.03
N13330 X14.866 Y-22.759
N13335 X15.277 Y-22.48
N13340 X17.227 Y-21.031
N13345 X17.386 Y-20.908
N13350 X19.429 Y-19.021
N13355 X19.961 Y-18.426
N13360 X21.093 Y-17.132
N13365 X21.567 Y-16.54
N13370 X22.903 Y-14.638
N13375 X23.259 Y-14.053
N13380 X24.321 Y-12.136
N13385 X24.598 Y-11.555
N13390 X25.413 Y-9.624
N13395 X25.635 Y-9.047
N13400 X25.929 Y-8.073
N13405 G03 X25.449 Y-7.757 I-0.287 J0.087
N13410 G01 X22.766 Y-10.006
N13415 G02 X22.336 Y-9.959 I-0.193 J0.23
N13420 X22.401 Y-9.531 I0.238 J0.183
N13425 G03 X19.117 Y-4.872 Z-9.313 I-1.642 J2.33
N13430 X22.401 Y-9.531 Z-9.625 I1.642 J-2.33
N13435 X19.117 Y-4.872 Z-9.938 I-1.642 J2.33
N13440 X18.066 Y-6.267 Z-10. I1.642 J-2.33
N13445 X21.723 Y-7.536 I1.828 J-0.634
N13450 X23.024 Y-0.763 I-22.682 J7.867
N13455 X13.82 Y18.437 I-22.487 J1.026
N13460 X-7.191 Y21.891 I-13.919 J-19.045
N13465 X-19.556 Y12.285 I6.769 J-21.476
N13470 X-22.843 Y-3.024 I19.735 J-12.244
N13475 X-14.759 Y-17.538 I22.434 J2.987
N13480 X0.927 Y-23.011 I15.316 J18.678
N13485 X16.386 Y-16.267 I-0.335 J21.859
N13490 X21.723 Y-7.536 I-17.345 J16.599
N13495 G02 X23.675 Y-5.982 I2.202 J-0.764
N13500 G03 X25.506 Y-4.287 I-0.225 J2.079
N13505 G01 X25.672 Y-3.4
N13510 X25.872 Y-0.893
N13515 X25.879 Y-0.321
N13520 X25.827 Y1.619
N13525 X25.799 Y2.191
N13530 X25.463 Y4.695
N13535 X25.228 Y5.704
N13540 X24.862 Y7.205
N13545 X24.686 Y7.781
N13550 X23.968 Y9.772
N13555 X23.76 Y10.276
N13560 X22.722 Y12.411
N13565 X22.526 Y12.754
N13570 X21.33 Y14.665
N13575 X20.88 Y15.284
N13580 X19.591 Y16.925
N13585 X19.421 Y17.125
N13590 X17.584 Y19.012
N13595 X15.859 Y20.445
N13600 X15.268 Y20.906
N13605 X13.375 Y22.161
N13610 X12.791 Y22.498
N13615 X10.885 Y23.488
N13620 X10.306 Y23.738
N13625 X8.363 Y24.498
N13630 X8.048 Y24.611
N13635 X5.712 Y25.248
N13640 X5.318 Y25.338
N13645 X2.804 Y25.743
N13650 X0.284 Y25.883
N13655 X-0.284
N13660 X-2.804 Y25.743
N13665 X-5.318 Y25.338
N13670 X-5.712 Y25.248
N13675 X-8.048 Y24.611
N13680 X-8.363 Y24.498
N13685 X-10.306 Y23.738
N13690 X-10.885 Y23.488
N13695 X-12.788 Y22.499
N13700 X-13.415 Y22.135
N13705 X-15.311 Y20.878
N13710 X-16.068 Y20.272
N13715 X-17.584 Y19.012
N13720 X-19.421 Y17.125
N13725 X-19.591 Y16.925
N13730 X-20.902 Y15.256
N13735 X-21.33 Y14.666
N13740 X-22.526 Y12.754
N13745 X-22.722 Y12.411
N13750 X-23.758 Y10.28
N13755 X-23.993 Y9.701
N13760 X-24.686 Y7.781
N13765 X-24.862 Y7.205
N13770 X-25.333 Y5.274
N13775 X-25.463 Y4.701
N13780 X-25.799 Y2.191
N13785 X-25.827 Y1.619
N13790 X-25.879 Y-0.321
N13795 X-25.872 Y-0.893
N13800 X-25.672 Y-3.4
N13805 X-25.202 Y-5.913
N13810 X-25.056 Y-6.486
N13815 X-24.475 Y-8.412
N13820 X-24.277 Y-8.989
N13825 X-23.343 Y-11.201
N13830 X-23.214 Y-11.463
N13835 X-22.097 Y-13.48
N13840 X-21.794 Y-13.965
N13845 X-20.45 Y-15.879
N13850 X-20.265 Y-16.112
N13855 X-18.838 Y-17.743
N13860 X-18.385 Y-18.224
N13865 X-16.504 Y-19.956
N13870 X-14.467 Y-21.469
N13875 X-14.043 Y-21.742
N13880 X-12.131 Y-22.869
N13885 X-11.55 Y-23.158
N13890 X-9.637 Y-24.026
N13895 X-9.06 Y-24.243
N13900 X-7.136 Y-24.879
N13905 X-6.56 Y-25.04
N13910 X-4.627 Y-25.458
N13915 X-4.054 Y-25.575
N13920 X-1.542 Y-25.844
N13925 X-0.971 Y-25.861
N13930 X0.971
N13935 X1.542 Y-25.844
N13940 X4.049 Y-25.576
N13945 X5.287 Y-25.316
N13950 X6.56 Y-25.04
N13955 X7.136 Y-24.879
N13960 X9.06 Y-24.243
N13965 X9.637 Y-24.026
N13970 X11.55 Y-23.158
N13975 X12.131 Y-22.869
N13980 X14.043 Y-21.742
N13985 X14.467 Y-21.469
N13990 X16.504 Y-19.956
N13995 X18.385 Y-18.224
N14000 X18.838 Y-17.743
N14005 X20.265 Y-16.112
N14010 X20.45 Y-15.879
N14015 X21.794 Y-13.965
N14020 X22.097 Y-13.48
N14025 X23.214 Y-11.463
N14030 X23.343 Y-11.201
N14035 X24.277 Y-8.989
N14040 X24.475 Y-8.412
N14045 X25.056 Y-6.486
N14050 X25.202 Y-5.913
N14055 X25.506 Y-4.287
N14060 G03 X25.326 Y-3.955 I-0.295 J0.055
N14065 G01 X22.13 Y-2.624
N14070 G03 X21.718 Y-2.859 I-0.115 J-0.277
N14075 G02 X19.995 Y-9.083 I-24.998 J3.567
N14080 X15.422 Y-15.602 I-17.317 J7.285
N14085 X5.226 Y-21.264 I-16.738 J18.131
N14090 X-6.432 Y-20.966 I-5.337 J19.407
N14095 X-18.823 Y-11.033 I7.151 J21.615
N14100 X-21.436 Y4.631 I18.678 J11.166
N14105 X-19.754 Y9.486 I20.099 J-4.246
N14110 X-17.014 Y13.833 I22.334 J-11.037
N14115 X3.065 Y21.714 I16.746 J-13.148
N14120 X16.986 Y13.864 I-3.711 J-22.85
N14125 X21.887 Y-1.347 I-15.884 J-13.514
N14130 X21.718 Y-2.859 I-25.168 J2.055
N14135 X19.922 Y-4.8 I-2.303 J0.329
N14140 G03 X17.938 Y-6.549 I0.599 J-2.68
N14145 G01 X17.902 Y-6.64
N14150 X17.194 Y-8.305
N14155 X17.157 Y-8.387
N14160 X17.115 Y-8.467
N14165 X16.379 Y-9.797
N14170 X16.318 Y-9.899
N14175 G02 X15.061 Y-11.738 I-23.475 J14.693
N14180 G01 X15.007 Y-11.811
N14185 X14.95 Y-11.88
N14190 G02 X13.592 Y-13.404 I-33.819 J28.752
N14195 G01 X13.489 Y-13.508
N14200 X12.714 Y-14.224
N14205 X12.69 Y-14.245
N14210 X12.135 Y-14.739
N14215 X12.015 Y-14.837
N14220 X10.685 Y-15.824
N14225 X10.612 Y-15.876
N14230 X10.537 Y-15.923
N14235 X9.207 Y-16.715
N14240 X9.107 Y-16.77
N14245 G02 X7.038 Y-17.751 I-11.769 J22.156
N14250 G01 X6.954 Y-17.786
N14255 X6.869 Y-17.817
N14260 G02 X4.808 Y-18.472 I-9.538 J26.442
N14265 G01 X4.692 Y-18.501
N14270 X3.362 Y-18.789
N14275 G02 X1.153 Y-19.06 I-3.8 J21.79
N14280 G01 X1.007 Y-19.068
N14285 X-0.323 Y-19.075
N14290 X-0.353
N14295 X-1.018 Y-19.067
N14300 X-1.183 Y-19.057
N14305 G02 X-3.244 Y-18.81 I2.345 J28.286
N14310 G01 X-3.362 Y-18.789
N14315 X-4.692 Y-18.501
N14320 X-4.808 Y-18.472
N14325 G02 X-6.869 Y-17.817 I7.472 J27.082
N14330 G01 X-6.954 Y-17.786
N14335 X-7.038 Y-17.751
N14340 X-8.368 Y-17.15
N14345 G02 X-9.207 Y-16.715 I6.072 J12.753
N14350 G01 X-10.537 Y-15.923
N14355 X-10.612 Y-15.876
N14360 X-10.685 Y-15.824
N14365 X-12.015 Y-14.837
N14370 X-12.139 Y-14.735
N14375 X-12.804 Y-14.14
N14380 X-12.824 Y-14.122
N14385 X-13.489 Y-13.508
N14390 X-13.597 Y-13.399
N14395 X-14.262 Y-12.668
N14400 X-14.285 Y-12.642
N14405 X-14.95 Y-11.88
N14410 X-15.007 Y-11.811
N14415 X-15.061 Y-11.738
N14420 G02 X-16.318 Y-9.899 I22.227 J16.539
N14425 G01 X-16.379 Y-9.797
N14430 X-17.115 Y-8.467
N14435 X-17.157 Y-8.387
N14440 X-17.194 Y-8.305
N14445 X-17.902 Y-6.64
N14450 X-17.955 Y-6.499
N14455 G02 X-18.475 Y-4.802 I37.345 J12.385
N14460 G01 X-18.51 Y-4.667
N14465 G02 X-18.914 Y-2.623 I36.301 J8.237
N14470 G01 X-18.928 Y-2.534
N14475 X-18.938 Y-2.445
N14480 G02 X-19.087 Y-0.405 I39.665 J3.913
N14485 G01 X-19.089 Y-0.261
N14490 G02 X-19.049 Y1.153 I26.091 J-0.023
N14495 X-18.989 Y1.919 I12.67 J-0.616
N14500 G01 X-18.81 Y3.248
N14505 X-18.788 Y3.377
N14510 G02 X-18.308 Y5.428 I32.028 J-6.423
N14515 G01 X-18.284 Y5.515
N14520 X-18.255 Y5.601
N14525 G02 X-17.449 Y7.736 I24.498 J-8.035
N14530 G01 X-17.433 Y7.769
N14535 X-16.786 Y9.099
N14540 X-16.706 Y9.245
N14545 X-16.3 Y9.91
N14550 X-16.29 Y9.927
N14555 X-15.78 Y10.742
N14560 X-15.706 Y10.851
N14565 G02 X-14.32 Y12.625 I24.089 J-17.389
N14570 G01 X-14.22 Y12.738
N14575 G02 X-12.861 Y14.108 I29.998 J-28.422
N14580 G01 X-12.749 Y14.208
N14585 X-11.419 Y15.304
N14590 X-11.348 Y15.359
N14595 X-11.274 Y15.411
N14600 G02 X-9.67 Y16.466 I20.316 J-29.156
N14605 G01 X-9.551 Y16.534
N14610 X-8.271 Y17.198
N14615 X-8.24 Y17.214
N14620 X-8.209 Y17.23
N14625 X-7.726 Y17.456
N14630 X-7.619 Y17.502
N14635 X-6.289 Y18.022
N14640 X-6.168 Y18.064
N14645 G02 X-4.114 Y18.647 I9.5 J-29.595
N14650 G01 X-3.979 Y18.678
N14655 G02 X-1.756 Y19.01 I4.11 J-19.907
N14660 X-0.332 Y19.082 I1.986 J-25.072
N14665 X0.426 Y19.08 I0.336 J-13.353
N14670 G01 X1.756 Y19.008
N14675 X1.891 Y18.996
N14680 G02 X3.938 Y18.685 I-4.267 J-34.959
N14685 G01 X4.027 Y18.668
N14690 X4.114 Y18.647
N14695 G02 X6.168 Y18.064 I-7.449 J-30.188
N14700 G01 X6.289 Y18.022
N14705 X7.619 Y17.502
N14710 X7.726 Y17.456
N14715 X8.209 Y17.23
N14720 X8.24 Y17.214
N14725 X8.271 Y17.198
N14730 X9.551 Y16.534
N14735 X9.67 Y16.466
N14740 G02 X11.274 Y15.411 I-18.638 J-30.1
N14745 G01 X11.348 Y15.359
N14750 X11.419 Y15.304
N14755 X12.749 Y14.208
N14760 X12.866 Y14.102
N14765 X13.531 Y13.445
N14770 X13.555 Y13.421
N14775 X14.22 Y12.738
N14780 X14.329 Y12.616
N14785 G02 X15.707 Y10.852 I-25.903 J-21.659
N14790 G01 X15.78 Y10.742
N14795 X16.445 Y9.679
N14800 X16.461 Y9.653
N14805 X16.712 Y9.235
N14810 X16.786 Y9.099
N14815 X17.433 Y7.769
N14820 G02 X17.778 Y6.931 I-11.558 J-5.249
N14825 G01 X18.255 Y5.601
N14830 X18.284 Y5.515
N14835 X18.308 Y5.428
N14840 G02 X18.79 Y3.369 I-27.971 J-7.637
N14845 G01 X18.81 Y3.248
N14850 G02 X18.999 Y1.818 I-22.888 J-3.749
N14855 X19.053 Y1.068 I-14.01 J-1.392
N14860 G01 X19.089 Y-0.261
N14865 X19.087 Y-0.405
N14870 G02 X18.938 Y-2.445 I-39.803 J1.872
N14875 G01 X18.928 Y-2.534
N14880 X18.914 Y-2.624
N14885 G02 X18.509 Y-4.671 I-34.24 J5.706
N14890 G01 X18.475 Y-4.802
N14895 G02 X17.938 Y-6.549 I-36.927 J10.404
N14900 G03 X17.974 Y-6.799 I0.252 J-0.091
N14905 G01 X18.33 Y-7.282
N14910 G02 X18.358 Y-7.553 I-0.216 J-0.159
N14915 G01 X14.952 Y-14.94
N14920 X14.929 Y-14.975
N14925 X14.895 Y-15.
N14930 X14.854 Y-15.012
N14935 X14.812 Y-15.01
N14940 X14.653 Y-14.975
N14945 X14.613 Y-14.973
N14950 X14.575 Y-14.983
N14955 X14.541 Y-15.005
N14960 X13.489 Y-15.977 Z-10.05
N14965 X13.381 Y-16.069 Z-10.055
N14970 X13.073 Y-16.31 Z-10.069
N14975 X13.056 Y-16.323
N14980 X13.038 Y-16.337 Z-10.07
N14985 X12.015 Y-17.096 Z-10.115
N14990 X11.994 Y-17.112 Z-10.116
N14995 X11.973 Y-17.127
N15000 X11.952 Y-17.141 Z-10.117
N15005 X11.287 Y-17.591 Z-10.145
N15010 X11.257 Y-17.611 Z-10.147
N15015 X11.226 Y-17.63 Z-10.148
N15020 X11.195 Y-17.649 Z-10.149
N15025 X9.863 Y-18.434 Z-10.203
N15030 X9.734 Y-18.503 Z-10.208
N15035 X9.072 Y-18.822 Z-10.234
N15040 X9.052 Y-18.831 Z-10.235
N15045 X9.033 Y-18.84
N15050 X7.703 Y-19.441 Z-10.286
N15055 X7.617 Y-19.478 Z-10.29
N15060 X7.529 Y-19.509 Z-10.293
N15065 X5.534 Y-20.165 Z-10.366
N15070 X5.443 Y-20.192 Z-10.37
N15075 X5.352 Y-20.214 Z-10.373
N15080 X3.357 Y-20.64 Z-10.444
N15085 X3.196 Y-20.666 Z-10.45
N15090 X1.867 Y-20.822 Z-10.497
N15095 X1.835 Y-20.826 Z-10.498
N15100 X1.803 Y-20.829 Z-10.499
N15105 X1.138 Y-20.882 Z-10.522
N15110 X0.997 Y-20.888 Z-10.527
N15115 X-0.997 Z-10.597
N15120 X-1.09 Y-20.885 Z-10.6
N15125 X-1.182 Y-20.878 Z-10.603
N15130 X-3.231 Y-20.661 Z-10.675
N15135 X-3.323 Y-20.648 Z-10.678
N15140 X-3.415 Y-20.631 Z-10.682
N15145 X-5.355 Y-20.214 Z-10.751
N15150 X-5.445 Y-20.192 Z-10.754
N15155 X-5.534 Y-20.165 Z-10.757
N15160 X-7.529 Y-19.509 Z-10.831
N15165 X-7.617 Y-19.478 Z-10.834
N15170 X-7.703 Y-19.441 Z-10.837
N15175 X-9.033 Y-18.84 Z-10.888
N15180 X-9.052 Y-18.831 Z-10.889
N15185 X-9.072 Y-18.822 Z-10.89
N15190 X-9.737 Y-18.501 Z-10.915
N15195 X-9.865 Y-18.433 Z-10.921
N15200 X-11.195 Y-17.649 Z-10.974
N15205 X-11.226 Y-17.63 Z-10.976
N15210 X-11.257 Y-17.611 Z-10.977
N15215 X-11.287 Y-17.591 Z-10.978
N15220 X-11.803 Y-17.242 Z-11.
N15225 G02 X-13.379 Y-16.067 I13.828 J20.198
N15230 G01 X-13.489 Y-15.977
N15235 X-14.819 Y-14.749
N15240 X-14.932 Y-14.635
N15245 X-15.596 Y-13.897
N15250 X-15.613 Y-13.878
N15255 X-16.278 Y-13.118
N15260 X-16.351 Y-13.029
N15265 X-16.625 Y-12.672
N15270 G02 X-17.642 Y-11.224 I31.065 J22.902
N15275 G01 X-17.764 Y-11.032
N15280 X-17.822 Y-10.936
N15285 X-18.487 Y-9.735
N15290 X-18.501 Y-9.71
N15295 X-18.822 Y-9.107
N15300 X-18.889 Y-8.965
N15305 G02 X-19.727 Y-6.917 I31.396 J14.039
N15310 G01 X-19.769 Y-6.796
N15315 G02 X-20.36 Y-4.734 I26.415 J8.697
N15320 G01 X-20.386 Y-4.621
N15325 X-20.671 Y-3.109
N15330 G02 X-20.76 Y-2.442 I9.901 J1.67
N15335 X-20.902 Y-0.391 I32.574 J3.278
N15340 G01 X-20.903 Y-0.261
N15345 G02 X-20.832 Y1.777 I41.126 J-0.426
N15350 G01 X-20.819 Y1.919
N15355 X-20.64 Y3.248
N15360 X-20.635 Y3.284
N15365 X-20.532 Y3.949
N15370 X-20.503 Y4.096
N15375 G02 X-19.974 Y6.172 I38.679 J-8.741
N15380 G01 X-19.932 Y6.304
N15385 X-19.466 Y7.598
N15390 X-19.456 Y7.624
N15395 X-19.258 Y8.148
N15400 X-19.195 Y8.293
N15405 X-18.48 Y9.764
N15410 G02 X-18.013 Y10.592 I11.992 J-6.208
N15415 G01 X-17.181 Y11.922
N15420 X-17.131 Y11.997
N15425 X-17.077 Y12.07
N15430 X-16.038 Y13.4
N15435 X-16.018 Y13.425
N15440 X-15.997 Y13.449
N15445 X-15.635 Y13.88
N15450 X-15.547 Y13.976
N15455 X-14.217 Y15.335
N15460 X-14.152 Y15.398
N15465 X-14.084 Y15.457
N15470 X-12.754 Y16.561
N15475 X-12.654 Y16.637
N15480 G02 X-10.575 Y18.038 I18.261 J-24.87
N15485 G01 X-10.449 Y18.111
N15490 X-9.119 Y18.802
N15495 G02 X-8.284 Y19.19 I6.661 J-13.237
N15500 G01 X-6.954 Y19.71
N15505 G02 X-6.083 Y19.993 I4.489 J-12.339
N15510 X-4.696 Y20.369 I7.316 J-24.234
N15515 X-1.756 Y20.826 I4.173 J-17.154
N15520 X-0.332 Y20.899 I1.974 J-24.798
N15525 X0.426 Y20.896 I0.336 J-13.353
N15530 X2.606 Y20.739 I-0.542 J-22.792
N15535 X4.783 Y20.349 I-3.26 J-24.415
N15540 X6.194 Y19.961 I-6.551 J-26.582
N15545 X6.954 Y19.71 I-3.711 J-12.541
N15550 G01 X8.284 Y19.19
N15555 G02 X9.119 Y18.802 I-4.814 J-11.455
N15560 G01 X10.449 Y18.111
N15565 X10.59 Y18.03
N15570 G02 X12.661 Y16.636 I-18.454 J-29.662
N15575 G01 X12.754 Y16.561
N15580 X14.084 Y15.457
N15585 X14.152 Y15.398
N15590 X14.217 Y15.335
N15595 X15.547 Y13.976
N15600 X15.635 Y13.88
N15605 X15.997 Y13.449
N15610 X16.018 Y13.425
N15615 X16.038 Y13.4
N15620 X17.077 Y12.07
N15625 X17.131 Y11.997
N15630 X17.181 Y11.922
N15635 G02 X18.054 Y10.524 I-26.751 J-17.691
N15640 X18.48 Y9.764 I-11.375 J-6.874
N15645 G01 X19.195 Y8.293
N15650 X19.231 Y8.214
N15655 X19.263 Y8.133
N15660 X19.701 Y6.945
N15665 X19.706 Y6.933
N15670 X19.945 Y6.268
N15675 X19.989 Y6.129
N15680 G02 X20.503 Y4.096 I-44.291 J-12.271
N15685 G01 X20.534 Y3.937
N15690 X20.682 Y2.935
N15695 X20.686 Y2.911
N15700 X20.819 Y1.919
N15705 X20.832 Y1.777
N15710 G02 X20.903 Y-0.261 I-41.044 J-2.464
N15715 G01 X20.902 Y-0.391
N15720 G02 X20.674 Y-3.11 I-24.817 J0.714
N15725 G01 X20.386 Y-4.621
N15730 X20.36 Y-4.734
N15735 G02 X19.769 Y-6.796 I-26.992 J6.631
N15740 G01 X19.727 Y-6.917
N15745 G02 X18.889 Y-8.965 I-32.222 J11.986
N15750 G01 X18.82 Y-9.11
N15755 X18.465 Y-9.775
N15760 X18.453 Y-9.797
N15765 X17.822 Y-10.936
N15770 X17.764 Y-11.032
N15775 X17.642 Y-11.224
N15780 G02 X16.625 Y-12.672 I-31.661 J21.154
N15785 G01 X16.351 Y-13.029
N15790 X16.278 Y-13.118
N15795 X15.428 Y-14.09
N15800 X15.404 Y-14.117
N15805 X14.925 Y-14.642
N15810 X14.819 Y-14.749
N15815 X13.489 Y-15.977
N15820 X13.381 Y-16.069
N15825 G02 X11.196 Y-17.65 I-16.927 J21.084
N15830 G01 X9.863 Y-18.434
N15835 X9.734 Y-18.503
N15840 G02 X7.703 Y-19.441 I-20.645 J42.005
N15845 G01 X7.617 Y-19.478
N15850 X7.529 Y-19.509
N15855 X5.534 Y-20.165
N15860 X5.443 Y-20.192
N15865 X5.352 Y-20.214
N15870 X3.357 Y-20.64
N15875 X3.196 Y-20.666
N15880 G02 X1.138 Y-20.882 I-4.09 J29.031
N15885 G01 X0.997 Y-20.888
N15890 X-0.997
N15895 X-1.09 Y-20.885
N15900 X-1.182 Y-20.878
N15905 X-3.231 Y-20.661
N15910 X-3.323 Y-20.648
N15915 X-3.415 Y-20.631
N15920 X-5.355 Y-20.214
N15925 X-5.445 Y-20.192
N15930 X-5.534 Y-20.165
N15935 X-7.529 Y-19.509
N15940 X-7.617 Y-19.478
N15945 X-7.703 Y-19.441
N15950 G02 X-9.737 Y-18.501 I18.429 J42.536
N15955 G01 X-9.865 Y-18.433
N15960 X-11.195 Y-17.649
N15965 G02 X-11.803 Y-17.242 I5.4 J8.722
N15970 G03 X-12.233 Y-17.346 I-0.168 J-0.249
N15975 G01 X-13.486 Y-19.614
N15980 G03 X-13.403 Y-20. I0.263 J-0.145
N15985 G01 X-13.327 Y-20.056
N15990 X-11.128 Y-21.354
N15995 X-8.976 Y-22.334
N16000 X-8.292 Y-22.586
N16005 X-6.396 Y-23.213
N16010 X-4.614 Y-23.605
N16015 X-4.019 Y-23.734
N16020 X-3.312 Y-23.83
N16025 X-1.529 Y-24.021
N16030 X-0.957 Y-24.047
N16035 X0.957
N16040 X1.529 Y-24.021
N16045 X3.441 Y-23.816
N16050 X4.014 Y-23.735
N16055 X5.936 Y-23.319
N16060 X6.388 Y-23.216
N16065 X8.395 Y-22.552
N16070 X8.972 Y-22.336
N16075 X11.128 Y-21.354
N16080 X13.327 Y-20.056
N16085 X15.199 Y-18.665
N16090 X15.653 Y-18.277
N16095 X17.052 Y-16.986
N16100 X17.653 Y-16.343
N16105 X18.904 Y-14.913
N16110 X20.17 Y-13.121
N16115 X20.462 Y-12.688
N16120 X21.506 Y-10.803
N16125 X21.787 Y-10.222
N16130 X22.624 Y-8.238
N16135 X22.973 Y-7.109
N16140 X23.352 Y-5.853
N16145 X23.476 Y-5.279
N16150 X23.864 Y-3.22
N16155 X24.053 Y-0.885
N16160 X24.064 Y-0.315
N16165 X24.013 Y1.599
N16170 X23.971 Y2.171
N16175 X23.715 Y4.082
N16180 X23.617 Y4.654
N16185 X23.152 Y6.559
N16190 X22.99 Y7.134
N16195 X22.306 Y9.031
N16200 X22.067 Y9.61
N16205 X21.15 Y11.495
N16210 X20.779 Y12.126
N16215 X20. Y13.371
N16220 X19.614 Y13.958
N16225 X18.151 Y15.822
N16230 X16.345 Y17.683
N16235 X14.556 Y19.169
N16240 X13.967 Y19.592
N16245 X12.673 Y20.451
N16250 X12.166 Y20.778
N16255 X10.201 Y21.799
N16260 X9.741 Y22.011
N16265 X7.735 Y22.796
N16270 X7.159 Y22.973
N16275 X5.255 Y23.492
N16280 X4.682 Y23.603
N16285 X2.772 Y23.911
N16290 X2.199 Y23.964
N16295 X0.286 Y24.066
N16300 X-0.286
N16305 X-2.199 Y23.964
N16310 X-2.772 Y23.911
N16315 X-4.682 Y23.603
N16320 X-5.255 Y23.492
N16325 X-7.159 Y22.973
N16330 X-7.735 Y22.796
N16335 X-9.741 Y22.011
N16340 X-10.201 Y21.799
N16345 X-12.161 Y20.781
N16350 X-13.333 Y20.013
N16355 X-14.066 Y19.526
N16360 X-14.551 Y19.173
N16365 X-16.345 Y17.683
N16370 X-18.151 Y15.822
N16375 X-19.611 Y13.962
N16380 X-20.135 Y13.156
N16385 X-20.808 Y12.081
N16390 X-21.149 Y11.496
N16395 X-22.067 Y9.61
N16400 X-22.306 Y9.031
N16405 X-22.99 Y7.134
N16410 X-23.152 Y6.559
N16415 X-23.617 Y4.654
N16420 X-23.715 Y4.082
N16425 X-23.971 Y2.171
N16430 X-24.013 Y1.599
N16435 X-24.064 Y-0.315
N16440 X-24.053 Y-0.885
N16445 X-23.864 Y-3.22
N16450 X-23.476 Y-5.279
N16455 X-23.352 Y-5.853
N16460 X-22.775 Y-7.767
N16465 X-22.627 Y-8.231
N16470 X-21.787 Y-10.222
N16475 X-21.506 Y-10.803
N16480 X-20.464 Y-12.685
N16485 X-20.066 Y-13.27
N16490 X-18.904 Y-14.913
N16495 X-17.593 Y-16.412
N16500 X-17.026 Y-17.009
N16505 X-15.653 Y-18.277
N16510 X-15.199 Y-18.665
N16515 X-13.403 Y-20.
N16520 X-13.347 Y-20.037 Z-10.992
N16525 X-13.287 Y-20.067 Z-10.985
N16530 X-13.228 Y-20.09 Z-10.963
N16535 X-13.167 Y-20.106 Z-10.941
N16540 X-13.111 Y-20.115 Z-10.905
N16545 X-13.054 Y-20.119 Z-10.869
N16550 X-12.959 Y-20.112 Z-10.774
N16555 X-12.889 Y-20.098 Z-10.66
N16560 X-12.847 Y-20.085 Z-10.534
N16565 X-12.833 Y-20.08 Z-10.4
N16570 G00 Z15.

N16575 G28 G91 Z0.
N16580 G90
N16585 G49
N16590 G5.1 Q0
N16595 G28 G91 X0. Y0.
N16600 G90
N16605 M30
%
