%
O1001 (MH2E3)
(T3 D=4. CR=2. - ZMIN=-14.4 - BALL END MILL)
N10 G90 G94 G17 G49 G40 G80
N15 G21
N20 G28 G91 Z0.
N25 G90

(CONTOUR2 2)
N30 T4 
N32 M06
N35 S8000 M03
N40 G54
N45 G5.1 Q1
N50 G00 X-33.934 Y-2.827
N55 G43 Z15. H04
N60 G00 Z0.517
N65 G01 Z-0.55 F250.
N70 G03 X33.938 Y2.827 I33.936 J2.827 F1500.
N75 X-33.988 Y-2.083 I-33.936 J-2.827
N80 G01 X-33.934 Y-2.827
N85 X-33.902 Y-2.968 Z-0.555
N90 X-33.87 Y-3.109 Z-0.56
N95 X-33.836 Y-3.254 Z-0.565
N100 X-33.802 Y-3.395 Z-0.57
N105 X-33.768 Y-3.535 Z-0.575
N110 X-33.735 Y-3.675 Z-0.58
N115 X-33.702 Y-3.816 Z-0.585
N120 X-33.67 Y-3.956 Z-0.59
N125 X-33.639 Y-4.097 Z-0.595
N130 X-33.609 Y-4.233 Z-0.6
N135 G03 X33.609 Y4.233 I33.609 J4.233
N140 X-33.714 Y-3.293 I-33.609 J-4.233
N145 G01 X-33.609 Y-4.233
N150 X-33.575 Y-4.375 Z-0.605
N155 X-33.54 Y-4.517 Z-0.61
N160 X-33.505 Y-4.656 Z-0.615
N165 X-33.47 Y-4.796 Z-0.62
N170 X-33.436 Y-4.936 Z-0.625
N175 X-33.403 Y-5.075 Z-0.63
N180 X-33.369 Y-5.215 Z-0.635
N185 X-33.336 Y-5.355 Z-0.64
N190 X-33.3 Y-5.495 Z-0.645
N195 X-33.264 Y-5.628 Z-0.65
N200 G03 X33.267 Y5.629 I33.265 J5.629
N205 X-33.295 Y-5.442 I-33.265 J-5.629
N210 G01 X-33.264 Y-5.628
N215 X-33.227 Y-5.767 Z-0.655
N220 X-33.19 Y-5.906 Z-0.66
N225 X-33.153 Y-6.045 Z-0.665
N230 X-33.116 Y-6.184 Z-0.67
N235 X-33.08 Y-6.323 Z-0.675
N240 X-33.044 Y-6.462 Z-0.68
N245 X-33.005 Y-6.601 Z-0.685
N250 X-32.964 Y-6.739 Z-0.69
N255 X-32.924 Y-6.877 Z-0.695
N260 X-32.884 Y-7.013 Z-0.7
N265 G03 X32.889 Y7.014 I32.886 J7.013
N270 X-32.959 Y-6.652 I-32.886 J-7.013
N275 G01 X-32.884 Y-7.013
N280 X-32.844 Y-7.151 Z-0.705
N285 X-32.804 Y-7.289 Z-0.71
N290 X-32.764 Y-7.426 Z-0.715
N295 X-32.724 Y-7.564 Z-0.72
N300 X-32.681 Y-7.703 Z-0.725
N305 X-32.637 Y-7.84 Z-0.73
N310 X-32.593 Y-7.976 Z-0.735
N315 X-32.549 Y-8.113 Z-0.74
N320 X-32.505 Y-8.25 Z-0.745
N325 X-32.462 Y-8.384 Z-0.75
N330 G03 X32.466 Y8.385 I32.464 J8.385
N335 X-32.625 Y-7.727 I-32.464 J-8.385
N340 G01 X-32.462 Y-8.384
N345 X-32.419 Y-8.521 Z-0.755
N350 X-32.375 Y-8.658 Z-0.76
N355 X-32.329 Y-8.795 Z-0.765
N360 X-32.28 Y-8.931 Z-0.77
N365 X-32.233 Y-9.066 Z-0.775
N370 X-32.185 Y-9.201 Z-0.78
N375 X-32.137 Y-9.337 Z-0.785
N380 X-32.09 Y-9.472 Z-0.79
N385 X-32.042 Y-9.607 Z-0.795
N390 X-31.996 Y-9.74 Z-0.8
N395 G03 X31.995 Y9.74 I31.995 J9.74
N400 X-32.266 Y-8.803 I-31.995 J-9.74
N405 G01 X-31.996 Y-9.74
N410 X-31.945 Y-9.877 Z-0.805
N415 X-31.893 Y-10.011 Z-0.81
N420 X-31.841 Y-10.145 Z-0.815
N425 X-31.789 Y-10.278 Z-0.82
N430 X-31.738 Y-10.412 Z-0.825
N435 X-31.686 Y-10.546 Z-0.83
N440 X-31.635 Y-10.68 Z-0.835
N445 X-31.584 Y-10.814 Z-0.84
N450 X-31.529 Y-10.947 Z-0.845
N455 X-31.474 Y-11.076 Z-0.85
N460 G03 X31.477 Y11.077 I31.476 J11.077
N465 X-31.518 Y-10.952 I-31.476 J-11.077
N470 G01 X-31.474 Y-11.076
N475 X-31.419 Y-11.208 Z-0.855
N480 X-31.363 Y-11.34 Z-0.86
N485 X-31.307 Y-11.473 Z-0.865
N490 X-31.252 Y-11.605 Z-0.87
N495 X-31.197 Y-11.737 Z-0.875
N500 X-31.141 Y-11.869 Z-0.88
N505 X-31.082 Y-12.001 Z-0.885
N510 X-31.022 Y-12.131 Z-0.89
N515 X-30.963 Y-12.261 Z-0.895
N520 X-30.904 Y-12.391 Z-0.9
N525 G03 X30.908 Y12.393 I30.906 J12.392
N530 X-31.099 Y-11.892 I-30.906 J-12.392
N535 G01 X-30.904 Y-12.391
N540 X-30.844 Y-12.521 Z-0.905
N545 X-30.784 Y-12.652 Z-0.91
N550 X-30.725 Y-12.782 Z-0.915
N555 X-30.665 Y-12.913 Z-0.92
N560 X-30.602 Y-13.042 Z-0.925
N565 X-30.538 Y-13.171 Z-0.93
N570 X-30.475 Y-13.299 Z-0.935
N575 X-30.411 Y-13.427 Z-0.94
N580 X-30.347 Y-13.556 Z-0.945
N585 X-30.285 Y-13.683 Z-0.95
N590 G03 X30.288 Y13.685 I30.286 J13.684
N595 X-30.598 Y-12.968 I-30.286 J-13.684
N600 G01 X-30.285 Y-13.683
N605 X-30.221 Y-13.812 Z-0.955
N610 X-30.157 Y-13.941 Z-0.96
N615 X-30.089 Y-14.068 Z-0.965
N620 X-30.022 Y-14.194 Z-0.97
N625 X-29.954 Y-14.321 Z-0.975
N630 X-29.886 Y-14.447 Z-0.98
N635 X-29.819 Y-14.573 Z-0.985
N640 X-29.751 Y-14.7 Z-0.99
N645 X-29.684 Y-14.826 Z-0.995
N650 X-29.617 Y-14.951 Z-1.
N655 G03 X29.616 Y14.951 I29.616 J14.951
N660 X-29.633 Y-14.918 I-29.616 J-14.951
N665 G01 X-29.617 Y-14.951
N670 X-29.545 Y-15.076 Z-1.005
N675 X-29.473 Y-15.2 Z-1.01
N680 X-29.402 Y-15.324 Z-1.015
N685 X-29.33 Y-15.448 Z-1.02
N690 X-29.259 Y-15.572 Z-1.025
N695 X-29.187 Y-15.697 Z-1.03
N700 X-29.116 Y-15.821 Z-1.035
N705 X-29.043 Y-15.945 Z-1.04
N710 X-28.968 Y-16.067 Z-1.045
N715 X-28.893 Y-16.187 Z-1.05
N720 G03 X28.896 Y16.189 I28.895 J16.188
N725 X-29.039 Y-15.924 I-28.895 J-16.188
N730 G01 X-28.893 Y-16.187
N735 X-28.818 Y-16.309 Z-1.055
N740 X-28.742 Y-16.431 Z-1.06
N745 X-28.667 Y-16.553 Z-1.065
N750 X-28.591 Y-16.674 Z-1.07
N755 X-28.516 Y-16.796 Z-1.075
N760 X-28.439 Y-16.918 Z-1.08
N765 X-28.359 Y-17.037 Z-1.085
N770 X-28.28 Y-17.156 Z-1.09
N775 X-28.201 Y-17.276 Z-1.095
N780 X-28.122 Y-17.394 Z-1.1
N785 G03 X28.126 Y17.397 I28.124 J17.396
N790 X-28.443 Y-16.864 I-28.124 J-17.396
N795 G01 X-28.122 Y-17.394
N800 X-28.043 Y-17.514 Z-1.105
N805 X-27.964 Y-17.633 Z-1.11
N810 X-27.884 Y-17.753 Z-1.115
N815 X-27.802 Y-17.871 Z-1.12
N820 X-27.719 Y-17.988 Z-1.125
N825 X-27.636 Y-18.105 Z-1.13
N830 X-27.553 Y-18.221 Z-1.135
N835 X-27.47 Y-18.338 Z-1.14
N840 X-27.387 Y-18.455 Z-1.145
N845 X-27.305 Y-18.571 Z-1.15
N850 G03 X27.307 Y18.572 I27.306 J18.571
N855 X-27.81 Y-17.806 I-27.306 J-18.571
N860 G01 X-27.305 Y-18.571
N865 X-27.222 Y-18.688 Z-1.155
N870 X-27.135 Y-18.803 Z-1.16
N875 X-27.048 Y-18.917 Z-1.165
N880 X-26.962 Y-19.031 Z-1.17
N885 X-26.875 Y-19.145 Z-1.175
N890 X-26.788 Y-19.259 Z-1.18
N895 X-26.701 Y-19.373 Z-1.185
N900 X-26.615 Y-19.487 Z-1.19
N905 X-26.528 Y-19.601 Z-1.195
N910 X-26.439 Y-19.711 Z-1.2
N915 G03 X26.44 Y19.712 I26.439 J19.712
N920 X-26.456 Y-19.688 I-26.439 J-19.712
N925 G01 X-26.439 Y-19.711
N930 X-26.348 Y-19.822 Z-1.205
N935 X-26.258 Y-19.934 Z-1.21
N940 X-26.167 Y-20.045 Z-1.215
N945 X-26.077 Y-20.156 Z-1.22
N950 X-25.987 Y-20.267 Z-1.225
N955 X-25.896 Y-20.378 Z-1.23
N960 X-25.806 Y-20.489 Z-1.235
N965 X-25.711 Y-20.597 Z-1.24
N970 X-25.617 Y-20.705 Z-1.245
N975 X-25.524 Y-20.813 Z-1.25
N980 G03 X25.527 Y20.816 I25.526 J20.815
N985 X-25.782 Y-20.492 I-25.526 J-20.815
N990 G01 X-25.524 Y-20.813
N995 X-25.43 Y-20.921 Z-1.255
N1000 X-25.336 Y-21.029 Z-1.26
N1005 X-25.242 Y-21.138 Z-1.265
N1010 X-25.148 Y-21.246 Z-1.27
N1015 X-25.053 Y-21.353 Z-1.275
N1020 X-24.955 Y-21.458 Z-1.28
N1025 X-24.858 Y-21.563 Z-1.285
N1030 X-24.76 Y-21.668 Z-1.29
N1035 X-24.663 Y-21.773 Z-1.295
N1040 X-24.566 Y-21.878 Z-1.3
N1045 G03 X24.569 Y21.881 I24.567 J21.879
N1050 X-24.954 Y-21.434 I-24.567 J-21.879
N1055 G01 X-24.566 Y-21.878
N1060 X-24.468 Y-21.983 Z-1.305
N1065 X-24.371 Y-22.088 Z-1.31
N1070 X-24.271 Y-22.192 Z-1.315
N1075 X-24.171 Y-22.294 Z-1.32
N1080 X-24.07 Y-22.395 Z-1.325
N1085 X-23.969 Y-22.497 Z-1.33
N1090 X-23.868 Y-22.599 Z-1.335
N1095 X-23.767 Y-22.701 Z-1.34
N1100 X-23.667 Y-22.802 Z-1.345
N1105 X-23.567 Y-22.904 Z-1.35
N1110 G03 X23.566 Y22.903 I23.566 J22.904
N1115 X-24.258 Y-22.17 I-23.566 J-22.904
N1120 G01 X-23.567 Y-22.904
N1125 X-23.463 Y-23.004 Z-1.355
N1130 X-23.359 Y-23.102 Z-1.36
N1135 X-23.255 Y-23.201 Z-1.365
N1140 X-23.15 Y-23.299 Z-1.37
N1145 X-23.046 Y-23.397 Z-1.375
N1150 X-22.942 Y-23.496 Z-1.38
N1155 X-22.838 Y-23.594 Z-1.385
N1160 X-22.734 Y-23.693 Z-1.39
N1165 X-22.627 Y-23.788 Z-1.395
N1170 X-22.521 Y-23.882 Z-1.4
N1175 G03 X22.523 Y23.884 I22.522 J23.883
N1180 X-22.694 Y-23.718 I-22.522 J-23.883
N1185 G01 X-22.521 Y-23.882
N1190 X-22.414 Y-23.977 Z-1.405
N1195 X-22.306 Y-24.072 Z-1.41
N1200 X-22.199 Y-24.167 Z-1.415
N1205 X-22.092 Y-24.262 Z-1.42
N1210 X-21.985 Y-24.357 Z-1.425
N1215 X-21.877 Y-24.452 Z-1.43
N1220 X-21.767 Y-24.543 Z-1.435
N1225 X-21.656 Y-24.634 Z-1.44
N1230 X-21.436 Y-24.817 Z-1.45
N1235 X-21.15 Y-25.064
N1240 G03 X21.151 Y25.065 I21.151 J25.065
N1245 X-21.438 Y-24.819 I-21.151 J-25.065
N1250 G01 X-21.326 Y-24.908 Z-1.455
N1255 X-21.215 Y-24.999 Z-1.46
N1260 X-21.105 Y-25.091 Z-1.465
N1265 X-20.994 Y-25.181 Z-1.47
N1270 X-20.767 Y-25.357 Z-1.48
N1275 X-20.654 Y-25.444 Z-1.485
N1280 X-20.427 Y-25.62 Z-1.495
N1285 X-20.316 Y-25.709 Z-1.5
N1290 G03 X20.318 Y25.711 I20.317 J25.71
N1295 X-20.948 Y-25.197 I-20.317 J-25.71
N1300 G01 X-20.316 Y-25.709
N1305 X-20.201 Y-25.795 Z-1.505
N1310 X-20.086 Y-25.881 Z-1.51
N1315 X-19.97 Y-25.965 Z-1.515
N1320 X-19.738 Y-26.132 Z-1.525
N1325 X-19.506 Y-26.3 Z-1.535
N1330 X-19.274 Y-26.468 Z-1.545
N1335 X-19.156 Y-26.549 Z-1.55
N1340 G03 X19.157 Y26.549 I19.156 J26.549
N1345 X-19.165 Y-26.542 I-19.156 J-26.549
N1350 G01 X-19.156 Y-26.549
N1355 X-18.919 Y-26.709 Z-1.56
N1360 X-18.681 Y-26.869 Z-1.57
N1365 X-18.444 Y-27.029 Z-1.58
N1370 X-18.325 Y-27.109 Z-1.585
N1375 X-18.203 Y-27.185 Z-1.59
N1380 X-17.961 Y-27.337 Z-1.6
N1385 X-17.404 Y-27.7
N1390 G03 X17.403 Y27.699 I17.403 J27.699
N1395 X-17.963 Y-27.34 I-17.403 J-27.699
N1400 G01 X-17.84 Y-27.413 Z-1.605
N1405 X-17.597 Y-27.565 Z-1.615
N1410 X-17.476 Y-27.641 Z-1.62
N1415 X-17.353 Y-27.716 Z-1.625
N1420 X-17.106 Y-27.86 Z-1.635
N1425 X-16.858 Y-28.004 Z-1.645
N1430 X-16.735 Y-28.076 Z-1.65
N1435 G03 X16.737 Y28.08 I16.736 J28.078
N1440 X-17.27 Y-27.75 I-16.736 J-28.078
N1445 G01 X-16.735 Y-28.076
N1450 X-16.487 Y-28.22 Z-1.66
N1455 X-16.362 Y-28.29 Z-1.665
N1460 X-16.11 Y-28.426 Z-1.675
N1465 X-15.857 Y-28.562 Z-1.685
N1470 X-15.605 Y-28.698 Z-1.695
N1475 X-15.479 Y-28.765 Z-1.7
N1480 G03 X15.48 Y28.765 I15.48 J28.765
N1485 X-15.522 Y-28.742 I-15.48 J-28.765
N1490 G01 X-15.479 Y-28.765
N1495 X-15.352 Y-28.83 Z-1.705
N1500 X-15.095 Y-28.958 Z-1.715
N1505 X-14.839 Y-29.085 Z-1.725
N1510 X-14.582 Y-29.212 Z-1.735
N1515 X-14.454 Y-29.276 Z-1.74
N1520 X-14.323 Y-29.336 Z-1.745
N1525 X-14.194 Y-29.395 Z-1.75
N1530 G03 X14.195 Y29.398 I14.194 J29.396
N1535 X-14.446 Y-29.272 I-14.194 J-29.396
N1540 G01 X-14.194 Y-29.395
N1545 X-13.933 Y-29.513 Z-1.76
N1550 X-13.672 Y-29.632 Z-1.77
N1555 X-13.542 Y-29.692 Z-1.775
N1560 X-13.411 Y-29.75 Z-1.78
N1565 X-13.147 Y-29.86 Z-1.79
N1570 X-12.883 Y-29.97 Z-1.8
N1575 G03 X12.884 Y29.975 I12.884 J29.972
N1580 X-13.371 Y-29.756 I-12.884 J-29.972
N1585 G01 X-12.883 Y-29.97
N1590 X-12.618 Y-30.08 Z-1.81
N1595 X-12.486 Y-30.135 Z-1.815
N1600 X-12.353 Y-30.188 Z-1.82
N1605 X-12.085 Y-30.289 Z-1.83
N1610 X-11.817 Y-30.391 Z-1.84
N1615 X-11.549 Y-30.492 Z-1.85
N1620 G03 X11.55 Y30.494 I11.55 J30.493
N1625 X-12.367 Y-30.169 I-11.55 J-30.493
N1630 G01 X-11.549 Y-30.492
N1635 X-11.415 Y-30.542 Z-1.855
N1640 X-11.28 Y-30.59 Z-1.86
N1645 X-11.009 Y-30.682 Z-1.87
N1650 X-10.738 Y-30.774 Z-1.88
N1655 X-10.466 Y-30.867 Z-1.89
N1660 X-10.331 Y-30.913 Z-1.895
N1665 X-10.194 Y-30.954 Z-1.9
N1670 G03 X10.195 Y30.956 I10.195 J30.955
N1675 X-10.281 Y-30.926 I-10.195 J-30.955
N1680 G01 X-10.194 Y-30.954
N1685 X-9.92 Y-31.037 Z-1.91
N1690 X-9.646 Y-31.121 Z-1.92
N1695 X-9.372 Y-31.204 Z-1.93
N1700 X-9.235 Y-31.244 Z-1.935
N1705 X-8.958 Y-31.318 Z-1.945
N1710 X-8.82 Y-31.355 Z-1.95
N1715 G03 X8.821 Y31.36 I8.821 J31.358
N1720 X-9.212 Y-31.243 I-8.821 J-31.358
N1725 G01 X-8.82 Y-31.355
N1730 X-8.543 Y-31.429 Z-1.96
N1735 X-8.267 Y-31.504 Z-1.97
N1740 X-8.128 Y-31.538 Z-1.975
N1745 X-7.849 Y-31.603 Z-1.985
N1750 X-7.57 Y-31.668 Z-1.995
N1755 X-7.43 Y-31.7 Z-2.
N1760 G03 X7.431 Y31.704 I7.431 J31.702
N1765 X-8.195 Y-31.511 I-7.431 J-31.702
N1770 G01 X-7.43 Y-31.7
N1775 X-7.151 Y-31.765 Z-2.01
N1780 X-7.011 Y-31.794 Z-2.015
N1785 X-6.73 Y-31.849 Z-2.025
N1790 X-6.449 Y-31.905 Z-2.035
N1795 X-6.168 Y-31.961 Z-2.045
N1800 X-6.028 Y-31.987 Z-2.05
N1805 G03 X6.028 Y31.987 I6.028 J31.987
N1810 X-6.115 Y-31.97 I-6.028 J-31.987
N1815 G01 X-6.028 Y-31.987
N1820 X-5.886 Y-32.011 Z-2.055
N1825 X-5.604 Y-32.057 Z-2.065
N1830 X-5.321 Y-32.103 Z-2.075
N1835 X-5.038 Y-32.149 Z-2.085
N1840 X-4.897 Y-32.171 Z-2.09
N1845 X-4.613 Y-32.207 Z-2.1
N1850 G03 X4.614 Y32.211 I4.613 J32.209
N1855 X-4.905 Y-32.164 I-4.613 J-32.209
N1860 G01 X-4.613 Y-32.207
N1865 X-4.329 Y-32.244 Z-2.11
N1870 X-4.045 Y-32.281 Z-2.12
N1875 X-3.903 Y-32.299 Z-2.125
N1880 X-3.761 Y-32.315 Z-2.13
N1885 X-3.476 Y-32.342 Z-2.14
N1890 X-3.191 Y-32.369 Z-2.15
N1895 G03 X3.191 Y32.374 I3.191 J32.371
N1900 X-3.83 Y-32.3 I-3.191 J-32.372
N1905 G01 X-3.191 Y-32.369
N1910 X-2.906 Y-32.397 Z-2.16
N1915 X-2.763 Y-32.41 Z-2.165
N1920 X-2.62 Y-32.419 Z-2.17
N1925 X-2.334 Y-32.437 Z-2.18
N1930 X-2.048 Y-32.455 Z-2.19
N1935 X-1.763 Y-32.473 Z-2.2
N1940 G03 X1.763 Y32.474 I1.763 J32.473
N1945 X-2.755 Y-32.404 I-1.763 J-32.473
N1950 G01 X-1.763 Y-32.473
N1955 X-1.62 Y-32.481 Z-2.205
N1960 X-1.333 Y-32.489 Z-2.215
N1965 X-1.047 Y-32.497 Z-2.225
N1970 X-0.761 Y-32.506 Z-2.235
N1975 X-0.618 Y-32.51 Z-2.24
N1980 X-0.475 Y-32.511 Z-2.245
N1985 X-0.332 Z-2.25
N1990 G03 X0.332 Y32.513 I0.332 J32.512
N1995 X-0.47 Y-32.509 I-0.332 J-32.512
N2000 G01 X-0.332 Y-32.511
N2005 X-0.045 Y-32.509 Z-2.26
N2010 X0.241 Y-32.508 Z-2.27
N2015 X0.528 Y-32.507 Z-2.28
N2020 X0.671 Y-32.503 Z-2.285
N2025 X0.957 Y-32.492 Z-2.295
N2030 X1.1 Y-32.486 Z-2.3
N2035 G03 X-1.1 Y32.491 I-1.1 J32.489
N2040 X0.605 Y-32.499 I1.1 J-32.489
N2045 G01 X1.1 Y-32.486
N2050 X1.386 Y-32.476 Z-2.31
N2055 X1.529 Y-32.47 Z-2.315
N2060 X1.672 Y-32.465 Z-2.32
N2065 X1.958 Y-32.444 Z-2.33
N2070 X2.244 Y-32.424 Z-2.34
N2075 X2.529 Y-32.404 Z-2.35
N2080 G03 X-2.529 Y32.406 I-2.529 J32.405
N2085 X1.68 Y-32.459 I2.529 J-32.405
N2090 G01 X2.529 Y-32.404
N2095 X2.672 Y-32.394 Z-2.355
N2100 X2.815 Y-32.382 Z-2.36
N2105 X3.099 Y-32.352 Z-2.37
N2110 X3.384 Y-32.322 Z-2.38
N2115 X3.669 Y-32.292 Z-2.39
N2120 X3.811 Y-32.278 Z-2.395
N2125 X3.953 Y-32.259 Z-2.4
N2130 G03 X-3.953 Y32.26 I-3.953 J32.26
N2135 X3.83 Y-32.274 I3.953 J-32.26
N2140 G01 X3.953 Y-32.259
N2145 X4.095 Y-32.24 Z-2.405
N2150 X4.379 Y-32.2 Z-2.415
N2155 X4.663 Y-32.161 Z-2.425
N2160 X4.946 Y-32.122 Z-2.435
N2165 X5.087 Y-32.098 Z-2.44
N2170 X5.37 Y-32.049 Z-2.45
N2175 G03 X-5.37 Y32.054 I-5.37 J32.051
N2180 X5.039 Y-32.103 I5.37 J-32.051
N2185 G01 X5.37 Y-32.049
N2190 X5.934 Y-31.952 Z-2.47
N2195 X6.075 Y-31.926 Z-2.475
N2200 X6.636 Y-31.81 Z-2.495
N2205 X6.776 Y-31.781 Z-2.5
N2210 G03 X-6.777 Y31.785 I-6.776 J31.783
N2215 X6.111 Y-31.915 I6.776 J-31.783
N2220 G01 X6.776 Y-31.781
N2225 X6.916 Y-31.751 Z-2.505
N2230 X7.056 Y-31.722 Z-2.51
N2235 X7.196 Y-31.69 Z-2.515
N2240 X8.031 Y-31.487 Z-2.545
N2245 X8.169 Y-31.453 Z-2.55
N2250 G03 X-8.169 Y31.453 I-8.169 J31.453
N2255 X8.131 Y-31.463 I8.169 J-31.453
N2260 G01 X8.169 Y-31.453
N2265 X8.308 Y-31.416 Z-2.555
N2270 X9.135 Y-31.184 Z-2.585
N2275 X9.273 Y-31.145 Z-2.59
N2280 X9.546 Y-31.058 Z-2.6
N2285 G03 X-9.547 Y31.062 I-9.546 J31.06
N2290 X9.34 Y-31.121 I9.546 J-31.06
N2295 G01 X9.546 Y-31.058
N2300 X10.228 Y-30.842 Z-2.625
N2305 X10.364 Y-30.797 Z-2.63
N2310 X10.904 Y-30.606 Z-2.65
N2315 G03 X-10.905 Y30.61 I-10.905 J30.608
N2320 X10.414 Y-30.776 I10.905 J-30.608
N2325 G01 X10.904 Y-30.606
N2330 X11.309 Y-30.462 Z-2.665
N2335 X11.442 Y-30.411 Z-2.67
N2340 X12.242 Y-30.097 Z-2.7
N2345 G03 X-12.242 Y30.098 I-12.242 J30.097
N2350 X11.355 Y-30.442 I12.242 J-30.097
N2355 G01 X12.242 Y-30.097
N2360 X12.375 Y-30.044 Z-2.705
N2365 X13.295 Y-29.646 Z-2.74
N2370 X13.426 Y-29.588 Z-2.745
N2375 X13.555 Y-29.526 Z-2.75
N2380 G03 X-13.556 Y29.528 I-13.555 J29.527
N2385 X13.506 Y-29.549 I13.556 J-29.527
N2390 G01 X13.555 Y-29.526
N2395 X14.331 Y-29.158 Z-2.78
N2400 X14.459 Y-29.094 Z-2.785
N2405 X14.841 Y-28.897 Z-2.8
N2410 G03 X-14.843 Y28.902 I-14.842 J28.9
N2415 X14.446 Y-29.097 I14.842 J-28.9
N2420 G01 X14.841 Y-28.897
N2425 X15.35 Y-28.635 Z-2.82
N2430 X15.475 Y-28.565 Z-2.825
N2435 X16.1 Y-28.215 Z-2.85
N2440 G03 X-16.101 Y28.218 I-16.101 J28.217
N2445 X15.386 Y-28.611 I16.101 J-28.217
N2450 G01 X16.1 Y-28.215
N2455 X16.225 Y-28.145 Z-2.855
N2460 X16.349 Y-28.075 Z-2.86
N2465 X17.207 Y-27.555 Z-2.895
N2470 X17.328 Y-27.479 Z-2.9
N2475 G03 X-17.328 Y27.479 I-17.328 J27.479
N2480 X17.269 Y-27.516 I17.328 J-27.479
N2485 G01 X17.328 Y-27.479
N2490 X18.167 Y-26.931 Z-2.935
N2495 X18.285 Y-26.85 Z-2.94
N2500 X18.519 Y-26.685 Z-2.95
N2505 G03 X-18.522 Y26.689 I-18.52 J26.687
N2510 X18.208 Y-26.899 I18.52 J-26.687
N2515 G01 X18.519 Y-26.685
N2520 X18.988 Y-26.356 Z-2.97
N2525 X19.105 Y-26.273 Z-2.975
N2530 X19.676 Y-25.842 Z-3.
N2535 G03 X-19.679 Y25.846 I-19.677 J25.844
N2540 X19.101 Y-26.27 I19.677 J-25.844
N2545 G01 X19.676 Y-25.842
N2550 X19.905 Y-25.67 Z-3.01
N2555 X20.018 Y-25.582 Z-3.015
N2560 X20.797 Y-24.952 Z-3.05
N2565 G03 X-20.797 Y24.951 I-20.797 J24.952
N2570 X19.992 Y-25.601 I20.797 J-24.952
N2575 G01 X20.797 Y-24.952
N2580 X20.906 Y-24.859 Z-3.055
N2585 X21.231 Y-24.578 Z-3.07
N2590 X21.339 Y-24.484 Z-3.075
N2595 X21.663 Y-24.202 Z-3.09
N2600 X21.768 Y-24.104 Z-3.095
N2605 X21.873 Y-24.007 Z-3.1
N2610 G03 X-21.875 Y24.009 I-21.874 J24.008
N2615 X21.702 Y-24.161 I21.874 J-24.008
N2620 G01 X21.873 Y-24.007
N2625 X22.396 Y-23.519 Z-3.125
N2630 X22.5 Y-23.42 Z-3.13
N2635 X22.906 Y-23.015 Z-3.15
N2640 G03 X-22.909 Y23.019 I-22.907 J23.017
N2645 X22.508 Y-23.404 I22.907 J-23.017
N2650 G01 X22.906 Y-23.015
N2655 X23.21 Y-22.712 Z-3.165
N2660 X23.309 Y-22.609 Z-3.17
N2665 X23.896 Y-21.982 Z-3.2
N2670 G03 X-23.898 Y21.983 I-23.897 J21.983
N2675 X23.27 Y-22.644 I23.897 J-21.983
N2680 G01 X23.896 Y-21.982
N2685 X23.994 Y-21.877 Z-3.205
N2690 X24.089 Y-21.77 Z-3.21
N2695 X24.655 Y-21.124 Z-3.24
N2700 X24.748 Y-21.015 Z-3.245
N2705 X24.839 Y-20.904 Z-3.25
N2710 G03 X-24.84 Y20.906 I-24.84 J20.905
N2715 X24.732 Y-21.031 I24.84 J-20.905
N2720 G01 X24.839 Y-20.904
N2725 X25.382 Y-20.239 Z-3.28
N2730 X25.471 Y-20.127 Z-3.285
N2735 X25.731 Y-19.785 Z-3.3
N2740 G03 X-25.735 Y19.788 I-25.733 J19.786
N2745 X25.464 Y-20.127 I25.733 J-19.786
N2750 G01 X25.731 Y-19.785
N2755 X26.078 Y-19.329 Z-3.32
N2760 X26.162 Y-19.213 Z-3.325
N2765 X26.576 Y-18.629 Z-3.35
N2770 G03 X-26.579 Y18.631 I-26.577 J18.63
N2775 X26.105 Y-19.283 I26.577 J-18.63
N2780 G01 X26.576 Y-18.629
N2785 X26.659 Y-18.512 Z-3.355
N2790 X26.741 Y-18.395 Z-3.36
N2795 X27.293 Y-17.559 Z-3.395
N2800 X27.37 Y-17.438 Z-3.4
N2805 G03 X-27.37 Y17.438 I-27.37 J17.438
N2810 X27.348 Y-17.473 I27.37 J-17.438
N2815 G01 X27.37 Y-17.438
N2820 X27.893 Y-16.583 Z-3.435
N2825 X27.965 Y-16.459 Z-3.44
N2830 X28.106 Y-16.21 Z-3.45
N2835 G03 X-28.11 Y16.212 I-28.108 J16.211
N2840 X27.96 Y-16.462 I28.108 J-16.211
N2845 G01 X28.106 Y-16.21
N2850 X28.459 Y-15.587 Z-3.475
N2855 X28.525 Y-15.46 Z-3.48
N2860 X28.724 Y-15.079 Z-3.495
N2865 X28.791 Y-14.953 Z-3.5
N2870 G03 X-28.794 Y14.955 I-28.792 J14.954
N2875 X28.488 Y-15.521 I28.792 J-14.954
N2880 G01 X28.791 Y-14.953
N2885 X28.856 Y-14.825 Z-3.505
N2890 X28.923 Y-14.698 Z-3.51
N2895 X28.988 Y-14.571 Z-3.515
N2900 X29.421 Y-13.667 Z-3.55
N2905 G03 X-29.421 Y13.667 I-29.421 J13.667
N2910 X28.979 Y-14.581 I29.421 J-13.667
N2915 G01 X29.421 Y-13.667
N2920 X29.48 Y-13.537 Z-3.555
N2925 X29.883 Y-12.619 Z-3.59
N2930 X29.936 Y-12.486 Z-3.595
N2935 X29.989 Y-12.353 Z-3.6
N2940 G03 X-29.992 Y12.354 I-29.991 J12.354
N2945 X29.899 Y-12.568 I29.991 J-12.354
N2950 G01 X29.989 Y-12.353
N2955 X30.254 Y-11.688 Z-3.625
N2960 X30.306 Y-11.555 Z-3.63
N2965 X30.403 Y-11.285 Z-3.64
N2970 X30.499 Y-11.015 Z-3.65
N2975 G03 X-30.504 Y11.017 I-30.502 J11.016
N2980 X30.301 Y-11.549 I30.502 J-11.016
N2985 G01 X30.499 Y-11.015
N2990 X30.644 Y-10.611 Z-3.665
N2995 X30.69 Y-10.475 Z-3.67
N3000 X30.951 Y-9.657 Z-3.7
N3005 G03 X-30.953 Y9.658 I-30.952 J9.657
N3010 X30.704 Y-10.415 I30.952 J-9.657
N3015 G01 X30.951 Y-9.657
N3020 X30.995 Y-9.52 Z-3.705
N3025 X31.035 Y-9.383 Z-3.71
N3030 X31.268 Y-8.556 Z-3.74
N3035 X31.306 Y-8.418 Z-3.745
N3040 X31.34 Y-8.279 Z-3.75
N3045 G03 X-31.342 Y8.28 I-31.341 J8.279
N3050 X31.309 Y-8.399 I31.341 J-8.279
N3055 G01 X31.34 Y-8.279
N3060 X31.546 Y-7.445 Z-3.78
N3065 X31.578 Y-7.305 Z-3.785
N3070 X31.666 Y-6.885 Z-3.8
N3075 G03 X-31.671 Y6.886 I-31.669 J6.886
N3080 X31.568 Y-7.323 I31.669 J-6.886
N3085 G01 X31.666 Y-6.885
N3090 X31.784 Y-6.325 Z-3.82
N3095 X31.81 Y-6.184 Z-3.825
N3100 X31.933 Y-5.479 Z-3.85
N3105 G03 X-31.937 Y5.479 I-31.935 J5.479
N3110 X31.792 Y-6.249 I31.935 J-5.479
N3115 G01 X31.933 Y-5.479
N3120 X31.958 Y-5.338 Z-3.855
N3125 X31.983 Y-5.196 Z-3.86
N3130 X32.122 Y-4.204 Z-3.895
N3135 X32.14 Y-4.062 Z-3.9
N3140 G03 X-32.14 Y4.062 I-32.14 J4.062
N3145 X32.135 Y-4.099 I32.14 J-4.062
N3150 G01 X32.14 Y-4.062
N3155 X32.245 Y-3.065 Z-3.935
N3160 X32.257 Y-2.922 Z-3.94
N3165 X32.277 Y-2.637 Z-3.95
N3170 G03 X-32.282 Y2.637 I-32.279 J2.637
N3175 X32.256 Y-2.889 I32.279 J-2.637
N3180 G01 X32.277 Y-2.637
N3185 X32.318 Y-2.066 Z-3.97
N3190 X32.328 Y-1.923 Z-3.975
N3195 X32.355 Y-1.207 Z-4.
N3200 G03 X-32.359 Y1.208 I-32.357 J1.207
N3205 X32.327 Y-1.814 I32.357 J-1.207
N3210 G01 X32.355 Y-1.207
N3215 X32.366 Y-0.921 Z-4.01
N3220 X32.37 Y-0.778 Z-4.015
N3225 X32.373 Y0.081 Z-4.045
N3230 Y0.224 Z-4.05
N3235 G03 X-32.373 Y-0.224 I-32.373 J-0.224
N3240 X32.373 Y0.202 I32.373 J0.224
N3245 G01 Y0.224
N3250 X32.371 Y0.367 Z-4.055
N3255 X32.34 Y1.369 Z-4.09
N3260 X32.331 Y1.512 Z-4.095
N3265 X32.322 Y1.655 Z-4.1
N3270 G03 X-32.325 Y-1.655 I-32.323 J-1.655
N3275 X32.333 Y1.411 I32.323 J1.655
N3280 G01 X32.322 Y1.655
N3285 X32.276 Y2.369 Z-4.125
N3290 X32.265 Y2.512 Z-4.13
N3295 X32.209 Y3.082 Z-4.15
N3300 G03 X-32.213 Y-3.083 I-32.211 J-3.082
N3305 X32.26 Y2.486 I32.211 J3.082
N3310 G01 X32.209 Y3.082
N3315 X32.166 Y3.51 Z-4.165
N3320 X32.149 Y3.652 Z-4.17
N3325 X32.036 Y4.503 Z-4.2
N3330 G03 X-32.038 Y-4.504 I-32.037 J-4.503
N3335 X32.139 Y3.696 I32.037 J4.503
N3340 G01 X32.036 Y4.503
N3345 X32.017 Y4.645 Z-4.205
N3350 X31.993 Y4.787 Z-4.21
N3355 X31.849 Y5.634 Z-4.24
N3360 X31.824 Y5.775 Z-4.245
N3365 X31.795 Y5.915 Z-4.25
N3370 G03 X-31.797 Y-5.915 I-31.796 J-5.915
N3375 X31.808 Y5.846 I31.796 J5.915
N3380 G01 X31.795 Y5.915
N3385 X31.623 Y6.756 Z-4.28
N3390 X31.591 Y6.896 Z-4.285
N3395 X31.49 Y7.313 Z-4.3
N3400 G03 X-31.495 Y-7.314 I-31.493 J-7.314
N3405 X31.579 Y6.921 I31.493 J7.314
N3410 G01 X31.49 Y7.313
N3415 X31.356 Y7.87 Z-4.32
N3420 X31.318 Y8.008 Z-4.325
N3425 X31.127 Y8.698 Z-4.35
N3430 G03 X-31.13 Y-8.699 I-31.129 J-8.699
N3435 X31.315 Y7.996 I31.129 J8.699
N3440 G01 X31.127 Y8.698
N3445 X31.089 Y8.836 Z-4.355
N3450 X31.05 Y8.974 Z-4.36
N3455 X30.749 Y9.93 Z-4.395
N3460 X30.704 Y10.066 Z-4.4
N3465 G03 X-30.704 Y-10.066 I-30.704 J-10.066
N3470 X30.721 Y10.012 I30.704 J10.066
N3475 G01 X30.704 Y10.066
N3480 X30.371 Y11.011 Z-4.435
N3485 X30.319 Y11.145 Z-4.44
N3490 X30.215 Y11.412 Z-4.45
N3495 G03 X-30.22 Y-11.413 I-30.217 J-11.412
N3500 X30.336 Y11.086 I30.217 J11.412
N3505 G01 X30.215 Y11.412
N3510 X30.007 Y11.945 Z-4.47
N3515 X29.954 Y12.078 Z-4.475
N3520 X29.671 Y12.736 Z-4.5
N3525 G03 X-29.675 Y-12.737 I-29.673 J-12.736
N3530 X29.911 Y12.162 I29.673 J12.736
N3535 G01 X29.671 Y12.736
N3540 X29.558 Y12.999 Z-4.51
N3545 X29.498 Y13.129 Z-4.515
N3550 X29.132 Y13.907 Z-4.545
N3555 X29.071 Y14.036 Z-4.55
N3560 G03 X-29.071 Y-14.035 I-29.071 J-14.036
N3565 X29.097 Y13.984 I29.071 J14.036
N3570 G01 X29.071 Y14.036
N3575 X29.006 Y14.164 Z-4.555
N3580 X28.614 Y14.928 Z-4.585
N3585 X28.547 Y15.055 Z-4.59
N3590 X28.408 Y15.305 Z-4.6
N3595 G03 X-28.412 Y-15.306 I-28.41 J-15.305
N3600 X28.555 Y15.029 I28.41 J15.305
N3605 G01 X28.408 Y15.305
N3610 X28.06 Y15.93 Z-4.625
N3615 X27.988 Y16.054 Z-4.63
N3620 X27.692 Y16.544 Z-4.65
N3625 G03 X-27.696 Y-16.546 I-27.694 J-16.545
N3630 X28.017 Y15.988 I27.694 J16.545
N3635 G01 X27.692 Y16.544
N3640 X27.471 Y16.912 Z-4.665
N3645 X27.393 Y17.033 Z-4.67
N3650 X26.925 Y17.753 Z-4.7
N3655 G03 X-26.925 Y-17.753 I-26.925 J-17.753
N3660 X27.406 Y17.001 I26.925 J17.753
N3665 G01 X26.925 Y17.753
N3670 X26.845 Y17.872 Z-4.705
N3675 X26.271 Y18.694 Z-4.74
N3680 X26.186 Y18.809 Z-4.745
N3685 X26.101 Y18.924 Z-4.75
N3690 G03 X-26.103 Y-18.925 I-26.102 J-18.924
N3695 X26.228 Y18.746 I26.102 J18.924
N3700 G01 X26.101 Y18.924
N3705 X25.843 Y19.267 Z-4.765
N3710 X25.67 Y19.496 Z-4.775
N3715 X25.584 Y19.61 Z-4.78
N3720 X25.224 Y20.055 Z-4.8
N3725 G03 X-25.228 Y-20.058 I-25.226 J-20.057
N3730 X25.513 Y19.687 I25.226 J20.057
N3735 G01 X25.224 Y20.055
N3740 X24.954 Y20.389 Z-4.815
N3745 X24.862 Y20.5 Z-4.82
N3750 X24.3 Y21.149 Z-4.85
N3755 G03 X-24.301 Y-21.15 I-24.301 J-21.149
N3760 X24.855 Y20.494 I24.301 J21.149
N3765 G01 X24.3 Y21.149
N3770 X24.206 Y21.257 Z-4.855
N3775 X24.109 Y21.363 Z-4.86
N3780 X23.525 Y21.993 Z-4.89
N3785 X23.427 Y22.098 Z-4.895
N3790 X23.327 Y22.199 Z-4.9
N3795 G03 X-23.328 Y-22.2 I-23.327 J-22.199
N3800 X23.414 Y22.106 I23.327 J22.199
N3805 G01 X23.327 Y22.199
N3810 X22.721 Y22.808 Z-4.93
N3815 X22.619 Y22.909 Z-4.935
N3820 X22.306 Y23.203 Z-4.95
N3825 G03 X-22.309 Y-23.206 I-22.308 J-23.204
N3830 X22.642 Y22.875 I22.308 J23.205
N3835 G01 X22.306 Y23.203
N3840 X21.889 Y23.595 Z-4.97
N3845 X21.782 Y23.691 Z-4.975
N3850 X21.244 Y24.163 Z-5.
N3855 G03 X-21.246 Y-24.165 I-21.245 J-24.164
N3860 X21.837 Y23.629 I21.245 J24.164
N3865 G01 X21.244 Y24.163
N3870 X21.136 Y24.258 Z-5.005
N3875 X21.028 Y24.352 Z-5.01
N3880 X20.253 Y24.987 Z-5.045
N3885 X20.141 Y25.076 Z-5.05
N3890 G03 X-20.141 Y-25.076 I-20.141 J-25.076
N3895 X20.156 Y25.064 I20.141 J25.076
N3900 G01 X20.141 Y25.076
N3905 X19.345 Y25.685 Z-5.085
N3910 X19.228 Y25.768 Z-5.09
N3915 X18.995 Y25.934 Z-5.1
N3920 G03 X-18.998 Y-25.938 I-18.997 J-25.936
N3925 X19.283 Y25.721 I18.997 J25.936
N3930 G01 X18.995 Y25.934
N3935 X18.529 Y26.267 Z-5.12
N3940 X18.411 Y26.348 Z-5.125
N3945 X17.814 Y26.744 Z-5.15
N3950 G03 X-17.817 Y-26.747 I-17.815 J-26.745
N3955 X18.343 Y26.384 I17.815 J26.745
N3960 G01 X17.814 Y26.744
N3965 X17.576 Y26.902 Z-5.16
N3970 X17.454 Y26.978 Z-5.165
N3975 X16.722 Y27.428 Z-5.195
N3980 X16.6 Y27.503 Z-5.2
N3985 G03 X-16.6 Y-27.502 I-16.6 J-27.502
N3990 X16.633 Y27.483 I16.6 J27.502
N3995 G01 X16.6 Y27.503
N4000 X16.476 Y27.574 Z-5.205
N4005 X15.729 Y27.998 Z-5.235
N4010 X15.604 Y28.067 Z-5.24
N4015 X15.35 Y28.2 Z-5.25
N4020 G03 X-15.352 Y-28.204 I-15.351 J-28.202
N4025 X15.655 Y28.033 I15.351 J28.202
N4030 G01 X15.35 Y28.2
N4035 X14.716 Y28.533 Z-5.275
N4040 X14.587 Y28.596 Z-5.28
N4045 X14.072 Y28.845 Z-5.3
N4050 G03 X-14.074 Y-28.849 I-14.073 J-28.847
N4055 X14.651 Y28.555 I14.073 J28.847
N4060 G01 X14.072 Y28.845
N4065 X13.814 Y28.969 Z-5.31
N4070 X13.684 Y29.03 Z-5.315
N4075 X13.553 Y29.088 Z-5.32
N4080 X12.897 Y29.376 Z-5.345
N4085 X12.766 Y29.433 Z-5.35
N4090 G03 X-12.766 Y-29.433 I-12.766 J-29.433
N4095 X12.835 Y29.403 I12.766 J29.433
N4100 G01 X12.766 Y29.433
N4105 X12.634 Y29.488 Z-5.355
N4110 X11.836 Y29.806 Z-5.385
N4115 X11.702 Y29.859 Z-5.39
N4120 X11.434 Y29.956 Z-5.4
N4125 G03 X-11.435 Y-29.959 I-11.434 J-29.957
N4130 X11.624 Y29.882 I11.434 J29.957
N4135 G01 X11.434 Y29.956
N4140 X10.76 Y30.198 Z-5.425
N4145 X10.624 Y30.244 Z-5.43
N4150 X10.079 Y30.42 Z-5.45
N4155 G03 X-10.081 Y-30.424 I-10.08 J-30.422
N4160 X10.549 Y30.26 I10.08 J30.422
N4165 G01 X10.079 Y30.42
N4170 X9.67 Y30.551 Z-5.465
N4175 X9.533 Y30.592 Z-5.47
N4180 X8.844 Y30.788 Z-5.495
N4185 X8.707 Y30.828 Z-5.5
N4190 G03 X-8.707 Y-30.829 I-8.707 J-30.829
N4195 X9.609 Y30.559 I8.707 J30.829
N4200 G01 X8.707 Y30.828
N4205 X8.568 Y30.865 Z-5.505
N4210 X7.595 Y31.107 Z-5.54
N4215 X7.456 Y31.138 Z-5.545
N4220 X7.316 Y31.168 Z-5.55
N4225 G03 X-7.317 Y-31.171 I-7.316 J-31.169
N4230 X7.458 Y31.134 I7.316 J31.169
N4235 G01 X7.316 Y31.168
N4240 X6.616 Y31.317 Z-5.575
N4245 X6.476 Y31.347 Z-5.58
N4250 X5.912 Y31.446 Z-5.6
N4255 G03 X-5.913 Y-31.451 I-5.912 J-31.449
N4260 X6.383 Y31.354 I5.912 J31.449
N4265 G01 X5.912 Y31.446
N4270 X5.489 Y31.521 Z-5.615
N4275 X5.347 Y31.544 Z-5.62
N4280 X4.497 Y31.666 Z-5.65
N4285 G03 X-4.497 Y-31.667 I-4.497 J-31.667
N4290 X5.308 Y31.54 I4.497 J31.667
N4295 G01 X4.497 Y31.666
N4300 X4.355 Y31.686 Z-5.655
N4305 X4.212 Y31.702 Z-5.66
N4310 X3.358 Y31.794 Z-5.69
N4315 X3.216 Y31.808 Z-5.695
N4320 X3.073 Y31.819 Z-5.7
N4325 G03 X-3.074 Y-31.821 I-3.074 J-31.82
N4330 X3.158 Y31.811 I3.074 J31.82
N4335 G01 X3.073 Y31.819
N4340 X2.216 Y31.882 Z-5.73
N4345 X2.073 Y31.889 Z-5.735
N4350 X1.644 Y31.906 Z-5.75
N4355 G03 X-1.645 Y-31.911 I-1.645 J-31.909
N4360 X2.083 Y31.881 I1.645 J31.909
N4365 G01 X1.644 Y31.906
N4370 X1.215 Y31.923 Z-5.765
N4375 X1.072 Y31.929 Z-5.77
N4380 X0.356 Y31.933 Z-5.795
N4385 X0.213 Z-5.8
N4390 G03 X-0.213 Y-31.936 I-0.213 J-31.935
N4395 X1.008 Y31.918 I0.213 J31.935
N4400 G01 X0.213 Y31.933
N4405 X0.07 Y31.934 Z-5.805
N4410 X-0.074 Y31.932 Z-5.81
N4415 X-1.076 Y31.904 Z-5.845
N4420 X-1.218 Y31.895 Z-5.85
N4425 G03 X1.218 Y-31.897 I1.218 J-31.896
N4430 X-1.142 Y31.898 I-1.218 J31.896
N4435 G01 X-1.218 Y31.895
N4440 X-1.504 Y31.878 Z-5.86
N4445 X-1.647 Y31.868 Z-5.865
N4450 X-2.076 Y31.841 Z-5.88
N4455 X-2.219 Y31.83 Z-5.885
N4460 X-2.646 Y31.787 Z-5.9
N4465 G03 X2.646 Y-31.792 I2.646 J-31.79
N4470 X-2.217 Y31.82 I-2.646 J31.79
N4475 G01 X-2.646 Y31.787
N4480 X-3.216 Y31.731 Z-5.92
N4485 X-3.358 Y31.713 Z-5.925
N4490 X-4.068 Y31.619 Z-5.95
N4495 G03 X4.068 Y-31.622 I4.068 J-31.62
N4500 X-3.292 Y31.709 I-4.068 J31.62
N4505 G01 X-4.068 Y31.619
N4510 X-4.21 Y31.6 Z-5.955
N4515 X-4.352 Y31.58 Z-5.96
N4520 X-5.34 Y31.413 Z-5.995
N4525 X-5.48 Y31.387 Z-6.
N4530 G03 X5.481 Y-31.387 I5.48 J-31.387
N4535 X-5.443 Y31.393 I-5.48 J31.387
N4540 G01 X-5.48 Y31.387
N4545 X-6.322 Y31.216 Z-6.03
N4550 X-6.463 Y31.186 Z-6.035
N4555 X-6.88 Y31.087 Z-6.05
N4560 G03 X6.881 Y-31.091 I6.881 J-31.089
N4565 X-6.517 Y31.165 I-6.881 J31.089
N4570 G01 X-6.88 Y31.087
N4575 X-7.438 Y30.954 Z-6.07
N4580 X-7.576 Y30.918 Z-6.075
N4585 X-8.267 Y30.728 Z-6.1
N4590 G03 X8.267 Y-30.731 I8.267 J-30.73
N4595 X-7.593 Y30.901 I-8.267 J30.73
N4600 G01 X-8.267 Y30.728
N4605 X-8.405 Y30.69 Z-6.105
N4610 X-8.543 Y30.652 Z-6.11
N4615 X-9.5 Y30.353 Z-6.145
N4620 X-9.635 Y30.309 Z-6.15
N4625 G03 X9.636 Y-30.309 I9.635 J-30.309
N4630 X-9.609 Y30.317 I-9.635 J30.309
N4635 G01 X-9.635 Y30.309
N4640 X-10.582 Y29.978 Z-6.185
N4645 X-10.716 Y29.926 Z-6.19
N4650 X-10.982 Y29.823 Z-6.2
N4655 G03 X10.984 Y-29.827 I10.983 J-29.825
N4660 X-10.683 Y29.931 I-10.983 J29.825
N4665 G01 X-10.982 Y29.823
N4670 X-11.516 Y29.616 Z-6.22
N4675 X-11.649 Y29.562 Z-6.225
N4680 X-12.307 Y29.281 Z-6.25
N4685 G03 X12.309 Y-29.284 I12.308 J-29.282
N4690 X-11.624 Y29.559 I-12.308 J29.282
N4695 G01 X-12.307 Y29.281
N4700 X-12.571 Y29.168 Z-6.26
N4705 X-12.701 Y29.108 Z-6.265
N4710 X-13.479 Y28.743 Z-6.295
N4715 X-13.608 Y28.681 Z-6.3
N4720 G03 X13.607 Y-28.681 I13.607 J-28.681
N4725 X-13.584 Y28.692 I-13.607 J28.681
N4730 G01 X-13.608 Y28.681
N4735 X-14.5 Y28.225 Z-6.335
N4740 X-14.626 Y28.157 Z-6.34
N4745 X-14.876 Y28.018 Z-6.35
N4750 G03 X14.878 Y-28.022 I14.877 J-28.02
N4755 X-14.58 Y28.173 I-14.877 J28.02
N4760 G01 X-14.876 Y28.018
N4765 X-15.377 Y27.74 Z-6.37
N4770 X-15.502 Y27.67 Z-6.375
N4775 X-15.871 Y27.449 Z-6.39
N4780 X-15.993 Y27.375 Z-6.395
N4785 X-16.117 Y27.303 Z-6.4
N4790 G03 X16.119 Y-27.306 I16.118 J-27.305
N4795 X-15.521 Y27.646 I-16.118 J27.305
N4800 G01 X-16.117 Y27.303
N4805 X-16.238 Y27.227 Z-6.405
N4810 X-16.361 Y27.153 Z-6.41
N4815 X-16.482 Y27.076 Z-6.415
N4820 X-17.203 Y26.608 Z-6.445
N4825 X-17.322 Y26.529 Z-6.45
N4830 G03 X17.321 Y-26.529 I17.321 J-26.529
N4835 X-17.302 Y26.542 I-17.321 J26.529
N4840 G01 X-17.322 Y26.529
N4845 X-18.143 Y25.955 Z-6.485
N4850 X-18.259 Y25.87 Z-6.49
N4855 X-18.487 Y25.698 Z-6.5
N4860 G03 X18.49 Y-25.701 I18.489 J-25.699
N4865 X-18.208 Y25.896 I-18.489 J25.699
N4870 G01 X-18.487 Y25.698
N4875 X-18.945 Y25.354 Z-6.52
N4880 X-19.059 Y25.267 Z-6.525
N4885 X-19.617 Y24.818 Z-6.55
N4890 G03 X19.619 Y-24.821 I19.618 J-24.819
N4895 X-19.127 Y25.197 I-19.618 J24.819
N4900 G01 X-19.617 Y24.818
N4905 X-19.84 Y24.638 Z-6.56
N4910 X-19.949 Y24.545 Z-6.565
N4915 X-20.6 Y23.984 Z-6.595
N4920 X-20.707 Y23.889 Z-6.6
N4925 G03 X20.707 Y-23.89 I20.707 J-23.889
N4930 X-20.629 Y23.956 I-20.707 J23.889
N4935 G01 X-20.707 Y23.889
N4940 X-20.813 Y23.792 Z-6.605
N4945 X-21.443 Y23.209 Z-6.635
N4950 X-21.546 Y23.109 Z-6.64
N4955 X-21.749 Y22.908 Z-6.65
N4960 G03 X21.752 Y-22.911 I21.751 J-22.91
N4965 X-21.568 Y23.079 I-21.751 J22.91
N4970 G01 X-21.749 Y22.908
N4975 X-22.157 Y22.505 Z-6.67
N4980 X-22.258 Y22.404 Z-6.675
N4985 X-22.749 Y21.883 Z-6.7
N4990 G03 X22.752 Y-21.886 I22.751 J-21.885
N4995 X-22.239 Y22.401 I-22.751 J21.885
N5000 G01 X-22.749 Y21.883
N5005 X-22.946 Y21.675 Z-6.71
N5010 X-23.042 Y21.568 Z-6.715
N5015 X-23.61 Y20.924 Z-6.745
N5020 X-23.703 Y20.816 Z-6.75
N5025 G03 X23.703 Y-20.816 I23.703 J-20.816
N5030 X-23.631 Y20.898 I-23.703 J20.816
N5035 G01 X-23.703 Y20.816
N5040 X-23.795 Y20.705 Z-6.755
N5045 X-24.341 Y20.042 Z-6.785
N5050 X-24.429 Y19.929 Z-6.79
N5055 X-24.603 Y19.702 Z-6.8
N5060 G03 X24.607 Y-19.705 I24.605 J-19.704
N5065 X-24.389 Y19.966 I-24.605 J19.704
N5070 G01 X-24.603 Y19.702
N5075 X-24.952 Y19.248 Z-6.82
N5080 X-25.039 Y19.133 Z-6.825
N5085 X-25.455 Y18.551 Z-6.85
N5090 G03 X25.458 Y-18.553 I25.456 J-18.552
N5095 X-25.008 Y19.149 I-25.456 J18.552
N5100 G01 X-25.455 Y18.551
N5105 X-25.622 Y18.318 Z-6.86
N5110 X-25.702 Y18.199 Z-6.865
N5115 X-26.178 Y17.484 Z-6.895
N5120 X-26.255 Y17.364 Z-6.9
N5125 G03 X26.255 Y-17.364 I26.255 J-17.364
N5130 X-26.229 Y17.403 I-26.255 J17.364
N5135 G01 X-26.255 Y17.364
N5140 X-26.406 Y17.12 Z-6.91
N5145 X-26.481 Y16.998 Z-6.915
N5150 X-26.78 Y16.51 Z-6.935
N5155 X-26.852 Y16.385 Z-6.94
N5160 X-26.993 Y16.137 Z-6.95
N5165 G03 X26.997 Y-16.139 I26.995 J-16.138
N5170 X-26.796 Y16.461 I-26.995 J16.138
N5175 G01 X-26.993 Y16.137
N5180 X-27.276 Y15.639 Z-6.97
N5185 X-27.345 Y15.513 Z-6.975
N5190 X-27.677 Y14.879 Z-7.
N5195 G03 X27.68 Y-14.881 I27.678 J-14.88
N5200 X-27.322 Y15.521 I-27.678 J14.88
N5205 G01 X-27.677 Y14.879
N5210 X-27.81 Y14.625 Z-7.01
N5215 X-27.872 Y14.496 Z-7.015
N5220 X-28.245 Y13.721 Z-7.045
N5225 X-28.305 Y13.592 Z-7.05
N5230 G03 X28.305 Y-13.592 I28.305 J-13.592
N5235 X-28.281 Y13.64 I-28.305 J13.592
N5240 G01 X-28.305 Y13.592
N5245 X-28.651 Y12.806 Z-7.08
N5250 X-28.708 Y12.674 Z-7.085
N5255 X-28.868 Y12.276 Z-7.1
N5260 G03 X28.872 Y-12.277 I28.87 J-12.276
N5265 X-28.743 Y12.565 I-28.87 J12.276
N5270 G01 X-28.868 Y12.276
N5275 X-29.081 Y11.744 Z-7.12
N5280 X-29.131 Y11.609 Z-7.125
N5285 X-29.374 Y10.936 Z-7.15
N5290 G03 X29.377 Y-10.937 I29.376 J-10.937
N5295 X-29.093 Y11.664 I-29.376 J10.937
N5300 G01 X-29.374 Y10.936
N5305 X-29.423 Y10.802 Z-7.155
N5310 X-29.471 Y10.666 Z-7.16
N5315 X-29.779 Y9.712 Z-7.195
N5320 X-29.82 Y9.576 Z-7.2
N5325 G03 X29.82 Y-9.576 I29.82 J-9.576
N5330 X-29.809 Y9.609 I-29.82 J9.576
N5335 G01 X-29.82 Y9.576
N5340 X-30.056 Y8.749 Z-7.23
N5345 X-30.094 Y8.611 Z-7.235
N5350 X-30.198 Y8.195 Z-7.25
N5355 G03 X30.202 Y-8.196 I30.2 J-8.195
N5360 X-30.104 Y8.533 I-30.2 J8.195
N5365 G01 X-30.198 Y8.195
N5370 X-30.337 Y7.639 Z-7.27
N5375 X-30.367 Y7.498 Z-7.275
N5380 X-30.517 Y6.799 Z-7.3
N5385 G03 X30.52 Y-6.799 I30.518 J-6.799
N5390 X-30.329 Y7.593 I-30.518 J6.799
N5395 G01 X-30.517 Y6.799
N5400 X-30.547 Y6.659 Z-7.305
N5405 X-30.575 Y6.518 Z-7.31
N5410 X-30.726 Y5.672 Z-7.34
N5415 X-30.751 Y5.531 Z-7.345
N5420 X-30.771 Y5.39 Z-7.35
N5425 G03 X30.773 Y-5.39 I30.772 J-5.39
N5430 X-30.762 Y5.443 I-30.772 J5.39
N5435 G01 X-30.771 Y5.39
N5440 X-30.893 Y4.539 Z-7.38
N5445 X-30.911 Y4.397 Z-7.385
N5450 X-30.957 Y3.97 Z-7.4
N5455 G03 X30.962 Y-3.971 I30.96 J-3.97
N5460 X-30.904 Y4.367 I-30.96 J3.97
N5465 G01 X-30.957 Y3.97
N5470 X-31.004 Y3.543 Z-7.415
N5475 X-31.018 Y3.4 Z-7.42
N5480 X-31.08 Y2.543 Z-7.45
N5485 G03 X31.082 Y-2.544 I31.081 J-2.544
N5490 X-30.995 Y3.427 I-31.081 J2.544
N5495 G01 X-31.08 Y2.543
N5500 X-31.091 Y2.4 Z-7.455
N5505 X-31.097 Y2.257 Z-7.46
N5510 X-31.13 Y1.398 Z-7.49
N5515 X-31.133 Y1.255 Z-7.495
N5520 X-31.137 Y1.113 Z-7.5
N5525 G03 X31.139 Y-1.113 I31.138 J-1.113
N5530 X-31.13 Y1.277 I-31.138 J1.113
N5535 G01 X-31.137 Y1.113
N5540 X-31.134 Y0.969 Z-7.505
N5545 X-31.137 Y0.397 Z-7.525
N5550 Y0.253 Z-7.53
N5555 X-31.124 Y-0.176 Z-7.545
N5560 X-31.122 Y-0.319 Z-7.55
N5565 G03 X31.127 Y0.319 I31.124 J0.319
N5570 X-31.123 Y0.202 I-31.124 J-0.319
N5575 G01 X-31.122 Y-0.319
N5580 X-31.116 Y-0.462 Z-7.555
N5585 X-31.107 Y-0.749 Z-7.565
N5590 X-31.1 Y-0.892 Z-7.57
N5595 X-31.045 Y-1.749 Z-7.6
N5600 G03 X31.046 Y1.749 I31.046 J1.749
N5605 X-31.082 Y-0.874 I-31.046 J-1.749
N5610 G01 X-31.045 Y-1.749
N5615 X-31.035 Y-1.893 Z-7.605
N5620 X-30.937 Y-2.891 Z-7.64
N5625 X-30.919 Y-3.033 Z-7.645
N5630 X-30.9 Y-3.174 Z-7.65
N5635 G03 X30.903 Y3.174 I30.902 J3.174
N5640 X-30.915 Y-3.024 I-30.902 J-3.174
N5645 G01 X-30.9 Y-3.174
N5650 X-30.806 Y-3.884 Z-7.675
N5655 X-30.784 Y-4.026 Z-7.68
N5660 X-30.69 Y-4.59 Z-7.7
N5665 G03 X30.695 Y4.591 I30.692 J4.59
N5670 X-30.777 Y-3.964 I-30.692 J-4.59
N5675 G01 X-30.69 Y-4.59
N5680 X-30.643 Y-4.873 Z-7.71
N5685 X-30.618 Y-5.014 Z-7.715
N5690 X-30.448 Y-5.857 Z-7.745
N5695 X-30.42 Y-5.996 Z-7.75
N5700 G03 X30.419 Y5.996 I30.419 J5.996
N5705 X-30.423 Y-5.98 I-30.419 J-5.996
N5710 G01 X-30.42 Y-5.996
N5715 X-30.387 Y-6.136 Z-7.755
N5720 X-30.189 Y-6.972 Z-7.785
N5725 X-30.153 Y-7.111 Z-7.79
N5730 X-30.115 Y-7.249 Z-7.795
N5735 X-30.078 Y-7.387 Z-7.8
N5740 G03 X30.082 Y7.388 I30.08 J7.387
N5745 X-30.157 Y-7.055 I-30.08 J-7.387
N5750 G01 X-30.078 Y-7.387
N5755 X-30.04 Y-7.525 Z-7.805
N5760 X-29.926 Y-7.939 Z-7.82
N5765 X-29.888 Y-8.077 Z-7.825
N5770 X-29.675 Y-8.761 Z-7.85
N5775 G03 X29.679 Y8.762 I29.677 J8.761
N5780 X-29.854 Y-8.13 I-29.677 J-8.761
N5785 G01 X-29.675 Y-8.761
N5790 X-29.59 Y-9.035 Z-7.86
N5795 X-29.544 Y-9.171 Z-7.865
N5800 X-29.261 Y-9.982 Z-7.895
N5805 X-29.212 Y-10.116 Z-7.9
N5810 G03 X29.212 Y10.116 I29.212 J10.116
N5815 X-29.229 Y-10.066 I-29.212 J-10.116
N5820 G01 X-29.212 Y-10.116
N5825 X-29.16 Y-10.25 Z-7.905
N5830 X-29.108 Y-10.383 Z-7.91
N5835 X-28.9 Y-10.917 Z-7.93
N5840 X-28.847 Y-11.05 Z-7.935
N5845 X-28.678 Y-11.444 Z-7.95
N5850 G03 X28.682 Y11.446 I28.68 J11.445
N5855 X-28.824 Y-11.072 I-28.68 J-11.445
N5860 G01 X-28.678 Y-11.444
N5865 X-28.452 Y-11.971 Z-7.97
N5870 X-28.391 Y-12.101 Z-7.975
N5875 X-28.086 Y-12.749 Z-8.
N5880 G03 X28.089 Y12.75 I28.088 J12.749
N5885 X-28.403 Y-12.027 I-28.088 J-12.749
N5890 G01 X-28.086 Y-12.749
N5895 X-28.025 Y-12.878 Z-8.005
N5900 X-27.962 Y-13.008 Z-8.01
N5905 X-27.57 Y-13.772 Z-8.04
N5910 X-27.503 Y-13.899 Z-8.045
N5915 X-27.434 Y-14.023 Z-8.05
N5920 G03 X27.436 Y14.024 I27.435 J14.024
N5925 X-27.493 Y-13.909 I-27.435 J-14.024
N5930 G01 X-27.434 Y-14.023
N5935 X-27.016 Y-14.775 Z-8.08
N5940 X-26.943 Y-14.898 Z-8.085
N5945 X-26.721 Y-15.265 Z-8.1
N5950 G03 X26.725 Y15.268 I26.723 J15.266
N5955 X-26.955 Y-14.849 I-26.723 J-15.267
N5960 G01 X-26.721 Y-15.265
N5965 X-26.5 Y-15.634 Z-8.115
N5970 X-26.423 Y-15.755 Z-8.12
N5975 X-26.033 Y-16.356 Z-8.145
N5980 X-25.956 Y-16.475 Z-8.15
N5985 G03 X25.956 Y16.476 I25.956 J16.476
N5990 X-25.964 Y-16.463 I-25.956 J-16.476
N5995 G01 X-25.956 Y-16.475
N6000 X-25.876 Y-16.596 Z-8.155
N6005 X-25.384 Y-17.3 Z-8.185
N6010 X-25.302 Y-17.418 Z-8.19
N6015 X-25.131 Y-17.646 Z-8.2
N6020 G03 X25.133 Y17.648 I25.132 J17.647
N6025 X-25.206 Y-17.537 I-25.132 J-17.647
N6030 G01 X-25.131 Y-17.646
N6035 X-24.701 Y-18.219 Z-8.225
N6040 X-24.612 Y-18.331 Z-8.23
N6045 X-24.253 Y-18.777 Z-8.25
N6050 G03 X24.256 Y18.78 I24.255 J18.779
N6055 X-24.658 Y-18.243 I-24.255 J-18.779
N6060 G01 X-24.253 Y-18.777
N6065 X-24.073 Y-19. Z-8.26
N6070 X-23.981 Y-19.111 Z-8.265
N6075 X-23.42 Y-19.762 Z-8.295
N6080 X-23.326 Y-19.869 Z-8.3
N6085 G03 X23.326 Y19.869 I23.326 J19.869
N6090 X-23.366 Y-19.823 I-23.326 J-19.869
N6095 G01 X-23.326 Y-19.869
N6100 X-23.229 Y-19.975 Z-8.305
N6105 X-22.646 Y-20.606 Z-8.335
N6110 X-22.546 Y-20.708 Z-8.34
N6115 X-22.345 Y-20.912 Z-8.35
N6120 G03 X22.348 Y20.915 I22.346 J20.913
N6125 X-22.608 Y-20.627 I-22.346 J-20.913
N6130 G01 X-22.345 Y-20.912
N6135 X-21.942 Y-21.319 Z-8.37
N6140 X-21.839 Y-21.419 Z-8.375
N6145 X-21.734 Y-21.518 Z-8.38
N6150 X-21.421 Y-21.812 Z-8.395
N6155 X-21.32 Y-21.912 Z-8.4
N6160 G03 X21.322 Y21.914 I21.321 J21.913
N6165 X-21.837 Y-21.396 I-21.321 J-21.913
N6170 G01 X-21.32 Y-21.912
N6175 X-21.213 Y-22.007 Z-8.405
N6180 X-21.107 Y-22.105 Z-8.41
N6185 X-20.461 Y-22.672 Z-8.44
N6190 X-20.352 Y-22.766 Z-8.445
N6195 X-20.243 Y-22.856 Z-8.45
N6200 G03 X20.244 Y22.857 I20.243 J22.856
N6205 X-20.359 Y-22.752 I-20.243 J-22.856
N6210 G01 X-20.243 Y-22.856
N6215 X-19.578 Y-23.4 Z-8.48
N6220 X-19.464 Y-23.488 Z-8.485
N6225 X-19.123 Y-23.748 Z-8.5
N6230 G03 X19.126 Y23.752 I19.124 J23.75
N6235 X-19.551 Y-23.397 I-19.124 J-23.75
N6240 G01 X-19.123 Y-23.748
N6245 X-18.781 Y-24.009 Z-8.515
N6250 X-18.665 Y-24.094 Z-8.52
N6255 X-17.965 Y-24.592 Z-8.55
N6260 G03 X17.966 Y24.592 I17.965 J24.592
N6265 X-18.614 Y-24.105 I-17.965 J-24.592
N6270 G01 X-17.965 Y-24.592
N6275 X-17.847 Y-24.673 Z-8.555
N6280 X-17.13 Y-25.148 Z-8.585
N6285 X-17.009 Y-25.226 Z-8.59
N6290 X-16.767 Y-25.375 Z-8.6
N6295 G03 X16.769 Y25.378 I16.768 J25.376
N6300 X-16.999 Y-25.22 I-16.768 J-25.376
N6305 G01 X-16.767 Y-25.375
N6310 X-16.278 Y-25.675 Z-8.62
N6315 X-16.156 Y-25.75 Z-8.625
N6320 X-15.533 Y-26.103 Z-8.65
N6325 G03 X15.535 Y26.106 I15.534 J26.105
N6330 X-16.139 Y-25.733 I-15.534 J-26.105
N6335 G01 X-15.533 Y-26.103
N6340 X-15.284 Y-26.245 Z-8.66
N6345 X-15.157 Y-26.312 Z-8.665
N6350 X-14.396 Y-26.711 Z-8.695
N6355 X-14.268 Y-26.775 Z-8.7
N6360 G03 X14.269 Y26.775 I14.268 J26.775
N6365 X-14.312 Y-26.751 I-14.268 J-26.775
N6370 G01 X-14.268 Y-26.775
N6375 X-13.494 Y-27.147 Z-8.73
N6380 X-13.364 Y-27.208 Z-8.735
N6385 X-12.971 Y-27.381 Z-8.75
N6390 G03 X12.973 Y27.385 I12.972 J27.383
N6395 X-13.37 Y-27.188 I-12.972 J-27.383
N6400 G01 X-12.971 Y-27.381
N6405 X-12.578 Y-27.554 Z-8.765
N6410 X-12.446 Y-27.611 Z-8.77
N6415 X-11.648 Y-27.93 Z-8.8
N6420 G03 X11.649 Y27.931 I11.648 J27.93
N6425 X-12.431 Y-27.59 I-11.648 J-27.93
N6430 G01 X-11.648 Y-27.93
N6435 X-11.515 Y-27.983 Z-8.805
N6440 X-10.975 Y-28.178 Z-8.825
N6445 X-10.84 Y-28.226 Z-8.83
N6450 X-10.571 Y-28.323 Z-8.84
N6455 X-10.434 Y-28.367 Z-8.845
N6460 X-10.299 Y-28.41 Z-8.85
N6465 G03 X10.3 Y28.413 I10.3 J28.412
N6470 X-10.549 Y-28.319 I-10.3 J-28.412
N6475 G01 X-10.299 Y-28.41
N6480 X-9.617 Y-28.628 Z-8.875
N6485 X-9.479 Y-28.669 Z-8.88
N6490 X-8.928 Y-28.825 Z-8.9
N6495 G03 X8.929 Y28.828 I8.929 J28.826
N6500 X-9.474 Y-28.65 I-8.929 J-28.826
N6505 G01 X-8.928 Y-28.825
N6510 X-8.652 Y-28.903 Z-8.91
N6515 X-8.513 Y-28.939 Z-8.915
N6520 X-7.678 Y-29.145 Z-8.945
N6525 X-7.54 Y-29.177 Z-8.95
N6530 G03 X7.54 Y29.177 I7.54 J29.177
N6535 X-7.593 Y-29.163 I-7.54 J-29.177
N6540 G01 X-7.54 Y-29.177
N6545 X-6.699 Y-29.354 Z-8.98
N6550 X-6.558 Y-29.382 Z-8.985
N6555 X-6.135 Y-29.456 Z-9.
N6560 G03 X6.136 Y29.461 I6.136 J29.459
N6565 X-6.579 Y-29.361 I-6.136 J-29.459
N6570 G01 X-6.135 Y-29.456
N6575 X-5.712 Y-29.531 Z-9.015
N6580 X-5.57 Y-29.555 Z-9.02
N6585 X-4.72 Y-29.674 Z-9.05
N6590 G03 X4.72 Y29.676 I4.72 J29.675
N6595 X-5.577 Y-29.525 I-4.72 J-29.675
N6600 G01 X-4.72 Y-29.674
N6605 X-4.577 Y-29.694 Z-9.055
N6610 X-4.434 Y-29.71 Z-9.06
N6615 X-3.579 Y-29.8 Z-9.09
N6620 X-3.436 Y-29.811 Z-9.095
N6625 X-3.295 Y-29.821 Z-9.1
N6630 G03 X3.295 Y29.825 I3.295 J29.823
N6635 X-3.427 Y-29.807 I-3.295 J-29.823
N6640 G01 X-3.295 Y-29.821
N6645 X-2.58 Y-29.873 Z-9.125
N6650 X-2.437 Y-29.879 Z-9.13
N6655 X-1.865 Y-29.901 Z-9.15
N6660 G03 X1.865 Y29.905 I1.865 J29.903
N6665 X-2.486 Y-29.856 I-1.865 J-29.903
N6670 G01 X-1.865 Y-29.901
N6675 X-1.579 Y-29.912 Z-9.16
N6680 X-1.435 Y-29.914 Z-9.165
N6685 X-0.575 Y-29.917 Z-9.195
N6690 X-0.433 Y-29.915 Z-9.2
N6695 G03 X0.433 Y29.916 I0.433 J29.915
N6700 X-0.47 Y-29.915 I-0.433 J-29.915
N6705 G01 X-0.433
N6710 X0.426 Y-29.889 Z-9.23
N6715 X0.57 Y-29.883 Z-9.235
N6720 X0.998 Y-29.855 Z-9.25
N6725 G03 X-0.998 Y29.86 I-0.998 J29.857
N6730 X0.605 Y-29.866 I0.998 J-29.857
N6735 G01 X0.998 Y-29.855
N6740 X1.284 Y-29.837 Z-9.26
N6745 X1.427 Y-29.827 Z-9.265
N6750 X1.571 Y-29.816 Z-9.27
N6755 X2.425 Y-29.729 Z-9.3
N6760 G03 X-2.425 Y29.729 I-2.425 J29.729
N6765 X1.545 Y-29.787 I2.425 J-29.729
N6770 G01 X2.425 Y-29.729
N6775 X2.568 Y-29.713 Z-9.305
N6780 X3.42 Y-29.596 Z-9.335
N6785 X3.562 Y-29.576 Z-9.34
N6790 X3.843 Y-29.528 Z-9.35
N6795 G03 X-3.843 Y29.531 I-3.843 J29.529
N6800 X3.561 Y-29.563 I3.843 J-29.529
N6805 G01 X3.843 Y-29.528
N6810 X4.408 Y-29.431 Z-9.37
N6815 X4.55 Y-29.406 Z-9.375
N6820 X5.25 Y-29.261 Z-9.4
N6825 G03 X-5.251 Y29.264 I-5.251 J29.263
N6830 X4.636 Y-29.365 I5.251 J-29.263
N6835 G01 X5.25 Y-29.261
N6840 X5.391 Y-29.232 Z-9.405
N6845 X5.531 Y-29.203 Z-9.41
N6850 X6.367 Y-29. Z-9.44
N6855 X6.507 Y-28.966 Z-9.445
N6860 X6.643 Y-28.928 Z-9.45
N6865 G03 X-6.644 Y28.929 I-6.643 J28.929
N6870 X6.505 Y-28.959 I6.643 J-28.929
N6875 G01 X6.643 Y-28.928
N6880 X7.472 Y-28.697 Z-9.48
N6885 X8.018 Y-28.525 Z-9.5
N6890 X8.399 Y-28.419
N6895 G03 X-8.399 Y28.418 I-8.399 J28.418
N6900 X8.019 Y-28.528 I8.399 J-28.418
N6905 G01 X8.428 Y-28.395 Z-9.515
N6910 X8.564 Y-28.348 Z-9.52
N6915 X9.239 Y-28.109 Z-9.545
N6920 X9.374 Y-28.064 Z-9.55
N6925 G03 X-9.374 Y28.064 I-9.374 J28.064
N6930 X9.34 Y-28.075 I9.374 J-28.064
N6935 G01 X9.374 Y-28.064
N6940 X9.507 Y-28.01 Z-9.555
N6945 X10.308 Y-27.696 Z-9.585
N6950 X10.439 Y-27.639 Z-9.59
N6955 X10.702 Y-27.526 Z-9.6
N6960 G03 X-10.703 Y27.53 I-10.702 J27.528
N6965 X10.414 Y-27.636 I10.702 J-27.528
N6970 G01 X10.702 Y-27.526
N6975 X11.228 Y-27.299 Z-9.62
N6980 X11.358 Y-27.238 Z-9.625
N6985 X12.005 Y-26.932 Z-9.65
N6990 G03 X-12.006 Y26.934 I-12.005 J26.933
N6995 X11.351 Y-27.214 I12.005 J-26.933
N7000 G01 X12.005 Y-26.932
N7005 X12.135 Y-26.871 Z-9.655
N7010 X12.263 Y-26.805 Z-9.66
N7015 X12.518 Y-26.674 Z-9.67
N7020 X12.645 Y-26.608 Z-9.675
N7025 X13.027 Y-26.409 Z-9.69
N7030 X13.152 Y-26.339 Z-9.695
N7035 X13.275 Y-26.27 Z-9.7
N7040 G03 X-13.276 Y26.273 I-13.276 J26.271
N7045 X13.102 Y-26.356 I13.276 J-26.271
N7050 G01 X13.275 Y-26.27
N7055 X13.899 Y-25.918 Z-9.725
N7060 X14.022 Y-25.843 Z-9.73
N7065 X14.511 Y-25.545 Z-9.75
N7070 G03 X-14.512 Y25.548 I-14.512 J25.547
N7075 X13.908 Y-25.878 I14.512 J-25.547
N7080 G01 X14.511 Y-25.545
N7085 X14.756 Y-25.395 Z-9.76
N7090 X14.876 Y-25.316 Z-9.765
N7095 X15.475 Y-24.923 Z-9.79
N7100 X15.595 Y-24.844 Z-9.795
N7105 X15.711 Y-24.762 Z-9.8
N7110 G03 X-15.711 Y24.764 I-15.711 J24.763
N7115 X15.656 Y-24.797 I15.711 J-24.763
N7120 G01 X15.711 Y-24.762
N7125 X16.296 Y-24.349 Z-9.825
N7130 X16.413 Y-24.265 Z-9.83
N7135 X16.869 Y-23.919 Z-9.85
N7140 G03 X-16.871 Y23.923 I-16.87 J23.921
N7145 X16.461 Y-24.201 I16.87 J-23.921
N7150 G01 X16.869 Y-23.919
N7155 X17.097 Y-23.746 Z-9.86
N7160 X17.211 Y-23.658 Z-9.865
N7165 X17.878 Y-23.115 Z-9.895
N7170 X17.988 Y-23.025 Z-9.9
N7175 G03 X-17.987 Y23.024 I-17.988 J23.025
N7180 X17.958 Y-23.048 I17.988 J-23.025
N7185 G01 X17.988 Y-23.025
N7190 X18.096 Y-22.931 Z-9.905
N7195 X18.636 Y-22.46 Z-9.93
N7200 X18.743 Y-22.364 Z-9.935
N7205 X19.057 Y-22.071 Z-9.95
N7210 G03 X-19.06 Y22.075 I-19.058 J22.073
N7215 X18.702 Y-22.373 I19.058 J-22.073
N7220 G01 X19.057 Y-22.071
N7225 X19.371 Y-21.778 Z-9.965
N7230 X19.475 Y-21.678 Z-9.97
N7235 X19.982 Y-21.172 Z-9.995
N7240 X20.085 Y-21.074 Z-10.
N7245 G03 X-20.086 Y21.074 I-20.085 J21.074
N7250 X19.419 Y-21.69 I20.085 J-21.074
N7255 G01 X20.085 Y-21.074
N7260 X20.184 Y-20.967 Z-10.005
N7265 X20.771 Y-20.339 Z-10.035
N7270 X20.867 Y-20.232 Z-10.04
N7275 X21.054 Y-20.018 Z-10.05
N7280 G03 X-21.057 Y20.021 I-21.055 J20.019
N7285 X20.856 Y-20.224 I21.055 J-20.019
N7290 G01 X21.054 Y-20.018
N7295 X21.148 Y-19.91 Z-10.055
N7300 X21.242 Y-19.802 Z-10.06
N7305 X21.429 Y-19.585 Z-10.07
N7310 X21.521 Y-19.474 Z-10.075
N7315 X21.971 Y-18.917 Z-10.1
N7320 G03 X-21.972 Y18.918 I-21.971 J18.918
N7325 X21.528 Y-19.419 I21.971 J-18.918
N7330 G01 X21.971 Y-18.917
N7335 X22.061 Y-18.806 Z-10.105
N7340 X22.149 Y-18.69 Z-10.11
N7345 X22.666 Y-18.003 Z-10.14
N7350 X22.749 Y-17.886 Z-10.145
N7355 X22.83 Y-17.771 Z-10.15
N7360 G03 X-22.832 Y17.772 I-22.831 J17.771
N7365 X22.697 Y-17.94 I22.831 J-17.771
N7370 G01 X22.83 Y-17.771
N7375 X23.159 Y-17.301 Z-10.17
N7380 X23.241 Y-17.183 Z-10.175
N7385 X23.632 Y-16.583 Z-10.2
N7390 G03 X-23.634 Y16.585 I-23.633 J16.584
N7395 X23.236 Y-17.133 I23.633 J-16.584
N7400 G01 X23.632 Y-16.583
N7405 X23.71 Y-16.463 Z-10.205
N7410 X23.788 Y-16.341 Z-10.21
N7415 X24.233 Y-15.605 Z-10.24
N7420 X24.305 Y-15.481 Z-10.245
N7425 X24.374 Y-15.358 Z-10.25
N7430 G03 X-24.376 Y15.359 I-24.375 J15.359
N7435 X24.355 Y-15.388 I24.375 J-15.359
N7440 G01 X24.374 Y-15.358
N7445 X24.723 Y-14.732 Z-10.275
N7450 X24.791 Y-14.606 Z-10.28
N7455 X25.053 Y-14.096 Z-10.3
N7460 G03 X-25.057 Y14.098 I-25.055 J14.097
N7465 X24.775 Y-14.58 I25.055 J-14.097
N7470 G01 X25.053 Y-14.096
N7475 X25.185 Y-13.841 Z-10.31
N7480 X25.248 Y-13.711 Z-10.315
N7485 X25.615 Y-12.934 Z-10.345
N7490 X25.672 Y-12.804 Z-10.35
N7495 G03 X-25.673 Y12.804 I-25.672 J12.804
N7500 X25.657 Y-12.834 I25.672 J-12.804
N7505 G01 X25.672 Y-12.804
N7510 X25.956 Y-12.146 Z-10.375
N7515 X26.012 Y-12.014 Z-10.38
N7520 X26.221 Y-11.481 Z-10.4
N7525 G03 X-26.225 Y11.482 I-26.223 J11.481
N7530 X26.002 Y-11.969 I26.223 J-11.481
N7535 G01 X26.221 Y-11.481
N7540 X26.326 Y-11.214 Z-10.41
N7545 X26.377 Y-11.078 Z-10.415
N7550 X26.425 Y-10.943 Z-10.42
N7555 X26.66 Y-10.266 Z-10.445
N7560 X26.704 Y-10.131 Z-10.45
N7565 G03 X-26.704 Y10.131 I-26.704 J10.131
N7570 X26.698 Y-10.146 I26.704 J-10.131
N7575 G01 X26.704 Y-10.131
N7580 X26.958 Y-9.31 Z-10.48
N7585 X26.997 Y-9.171 Z-10.485
N7590 X27.11 Y-8.757 Z-10.5
N7595 G03 X-27.114 Y8.758 I-27.112 J8.758
N7600 X26.942 Y-9.263 I27.112 J-8.758
N7605 G01 X27.11 Y-8.757
N7610 X27.223 Y-8.341 Z-10.515
N7615 X27.257 Y-8.201 Z-10.52
N7620 X27.422 Y-7.503 Z-10.545
N7625 X27.453 Y-7.365 Z-10.55
N7630 G03 X-27.453 Y7.365 I-27.453 J7.365
N7635 X27.427 Y-7.459 I27.453 J-7.365
N7640 G01 X27.453 Y-7.365
N7645 X27.482 Y-7.223 Z-10.555
N7650 X27.623 Y-6.521 Z-10.58
N7655 X27.649 Y-6.379 Z-10.585
N7660 X27.719 Y-5.957 Z-10.6
N7665 G03 X-27.723 Y5.958 I-27.721 J5.958
N7670 X27.614 Y-6.427 I27.721 J-5.958
N7675 G01 X27.719 Y-5.957
N7680 X27.789 Y-5.533 Z-10.615
N7685 X27.809 Y-5.389 Z-10.62
N7690 X27.902 Y-4.679 Z-10.645
N7695 X27.92 Y-4.538 Z-10.65
N7700 G03 X-27.92 Y4.538 I-27.92 J4.538
N7705 X27.903 Y-4.637 I27.92 J-4.538
N7710 G01 X27.92 Y-4.538
N7715 X27.934 Y-4.394 Z-10.655
N7720 X28.003 Y-3.68 Z-10.68
N7725 X28.016 Y-3.537 Z-10.685
N7730 X28.042 Y-3.11 Z-10.7
N7735 G03 X-28.046 Y3.111 I-28.044 J3.11
N7740 X27.989 Y-3.561 I28.044 J-3.11
N7745 G01 X28.042 Y-3.11
N7750 X28.069 Y-2.681 Z-10.715
N7755 X28.075 Y-2.536 Z-10.72
N7760 X28.095 Y-1.82 Z-10.745
N7765 X28.099 Y-1.678 Z-10.75
N7770 G03 X-28.098 Y1.678 I-28.099 J1.678
N7775 X28.099 Y-1.68 I28.099 J-1.678
N7780 G01 Y-1.678
N7785 X28.098 Y-1.535 Z-10.755
N7790 X28.09 Y-0.818 Z-10.78
N7795 X28.087 Y-0.674 Z-10.785
N7800 X28.067 Y-0.245 Z-10.8
N7805 G03 X-28.071 Y0.245 I-28.069 J0.245
N7810 X28.062 Y-0.605 I28.069 J-0.245
N7815 G01 X28.067 Y-0.245
N7820 X28.048 Y0.185 Z-10.815
N7825 X28.038 Y0.329 Z-10.82
N7830 X27.981 Y1.044 Z-10.845
N7835 X27.968 Y1.185 Z-10.85
N7840 G03 X-27.968 Y-1.185 I-27.968 J-1.185
N7845 X27.97 Y1.142 I27.968 J1.185
N7850 G01 X27.968 Y1.185
N7855 X27.953 Y1.329 Z-10.855
N7860 X27.872 Y2.041 Z-10.88
N7865 X27.854 Y2.184 Z-10.885
N7870 X27.791 Y2.608 Z-10.9
N7875 G03 X-27.795 Y-2.608 I-27.793 J-2.608
N7880 X27.825 Y2.217 I27.793 J2.608
N7885 G01 X27.791 Y2.608
N7890 X27.727 Y3.035 Z-10.915
N7895 X27.702 Y3.176 Z-10.92
N7900 X27.573 Y3.882 Z-10.945
N7905 X27.546 Y4.021 Z-10.95
N7910 G03 X-27.546 Y-4.021 I-27.546 J-4.021
N7915 X27.554 Y3.964 I27.546 J4.021
N7920 G01 X27.546 Y4.021
N7925 X27.516 Y4.161 Z-10.955
N7930 X27.363 Y4.862 Z-10.98
N7935 X27.329 Y5.002 Z-10.985
N7940 X27.223 Y5.417 Z-11.
N7945 G03 X-27.227 Y-5.418 I-27.225 J-5.418
N7950 X27.296 Y5.039 I27.225 J5.418
N7955 G01 X27.223 Y5.417
N7960 X27.117 Y5.834 Z-11.015
N7965 X27.077 Y5.974 Z-11.02
N7970 X26.876 Y6.662 Z-11.045
N7975 X26.835 Y6.797 Z-11.05
N7980 G03 X-26.835 Y-6.797 I-26.835 J-6.797
N7985 X26.838 Y6.787 I26.835 J6.797
N7990 G01 X26.835 Y6.797
N7995 X26.745 Y7.071 Z-11.06
N8000 X26.7 Y7.207 Z-11.065
N8005 X26.562 Y7.616 Z-11.08
N8010 X26.512 Y7.751 Z-11.085
N8015 X26.362 Y8.151 Z-11.1
N8020 G03 X-26.366 Y-8.152 I-26.364 J-8.152
N8025 X26.49 Y7.727 I26.364 J8.152
N8030 G01 X26.362 Y8.151
N8035 X26.261 Y8.42 Z-11.11
N8040 X26.209 Y8.556 Z-11.115
N8045 X25.88 Y9.351 Z-11.145
N8050 X25.822 Y9.48 Z-11.15
N8055 G03 X-25.823 Y-9.48 I-25.823 J-9.48
N8060 X25.824 Y9.475 I25.823 J9.48
N8065 G01 X25.822 Y9.48
N8070 X25.525 Y10.133 Z-11.175
N8075 X25.465 Y10.264 Z-11.18
N8080 X25.21 Y10.777 Z-11.2
N8085 G03 X-25.213 Y-10.778 I-25.212 J-10.778
N8090 X25.417 Y10.28 I25.212 J10.778
N8095 G01 X25.21 Y10.777
N8100 X25.082 Y11.035 Z-11.21
N8105 X25.014 Y11.163 Z-11.215
N8110 X24.674 Y11.794 Z-11.24
N8115 X24.605 Y11.92 Z-11.245
N8120 X24.534 Y12.041 Z-11.25
N8125 G03 X-24.536 Y-12.042 I-24.535 J-12.042
N8130 X24.606 Y11.893 I24.535 J12.042
N8135 G01 X24.534 Y12.041
N8140 X24.172 Y12.661 Z-11.275
N8145 X24.096 Y12.784 Z-11.28
N8150 X23.791 Y13.268 Z-11.3
N8155 G03 X-23.793 Y-13.269 I-23.792 J-13.269
N8160 X24.099 Y12.699 I23.792 J13.269
N8165 G01 X23.791 Y13.268
N8170 X23.714 Y13.389 Z-11.305
N8175 X23.635 Y13.512 Z-11.31
N8180 X23.151 Y14.224 Z-11.34
N8185 X23.067 Y14.341 Z-11.345
N8190 X22.983 Y14.453 Z-11.35
N8195 G03 X-22.986 Y-14.455 I-22.984 J-14.454
N8200 X23.072 Y14.312 I22.985 J14.454
N8205 G01 X22.983 Y14.453
N8210 X22.64 Y14.914 Z-11.37
N8215 X22.552 Y15.029 Z-11.375
N8220 X22.106 Y15.588 Z-11.4
N8225 G03 X-22.107 Y-15.589 I-22.106 J-15.589
N8230 X22.52 Y14.984 I22.106 J15.589
N8235 G01 X22.106 Y15.588
N8240 X22.016 Y15.701 Z-11.405
N8245 X21.921 Y15.812 Z-11.41
N8250 X21.454 Y16.358 Z-11.435
N8255 X21.359 Y16.465 Z-11.44
N8260 X21.168 Y16.674 Z-11.45
N8265 G03 X-21.17 Y-16.676 I-21.169 J-16.675
N8270 X21.333 Y16.462 I21.169 J16.675
N8275 G01 X21.168 Y16.674
N8280 X20.877 Y16.992 Z-11.465
N8285 X20.778 Y17.098 Z-11.47
N8290 X20.275 Y17.611 Z-11.495
N8295 X20.176 Y17.711 Z-11.5
N8300 G03 X-20.176 Y-17.712 I-20.176 J-17.711
N8305 X20.21 Y17.672 I20.176 J17.711
N8310 G01 X20.176 Y17.711
N8315 X20.071 Y17.814 Z-11.505
N8320 X19.551 Y18.309 Z-11.53
N8325 X19.445 Y18.407 Z-11.535
N8330 X19.127 Y18.69 Z-11.55
N8335 G03 X-19.129 Y-18.693 I-19.128 J-18.692
N8340 X19.461 Y18.342 I19.128 J18.692
N8345 G01 X19.127 Y18.69
N8350 X18.912 Y18.881 Z-11.56
N8355 X18.804 Y18.977 Z-11.565
N8360 X18.141 Y19.528 Z-11.595
N8365 X18.029 Y19.615 Z-11.6
N8370 G03 X-18.029 Y-19.615 I-18.029 J-19.615
N8375 X18.096 Y19.553 I18.029 J19.615
N8380 G01 X18.029 Y19.615
N8385 X17.455 Y20.049 Z-11.625
N8390 X17.338 Y20.135 Z-11.63
N8395 X16.871 Y20.464 Z-11.65
N8400 G03 X-16.872 Y-20.466 I-16.871 J-20.465
N8405 X17.315 Y20.09 I16.872 J20.465
N8410 G01 X16.871 Y20.464
N8415 X16.753 Y20.547 Z-11.655
N8420 X16.633 Y20.631 Z-11.66
N8425 X16.032 Y21.025 Z-11.685
N8430 X15.911 Y21.104 Z-11.69
N8435 X15.788 Y21.179 Z-11.695
N8440 X15.67 Y21.251 Z-11.7
N8445 G03 X-15.671 Y-21.253 I-15.67 J-21.252
N8450 X15.79 Y21.162 I15.67 J21.252
N8455 G01 X15.67 Y21.251
N8460 X15.178 Y21.549 Z-11.72
N8465 X15.052 Y21.623 Z-11.725
N8470 X14.428 Y21.973 Z-11.75
N8475 G03 X-14.428 Y-21.974 I-14.428 J-21.974
N8480 X14.429 Y21.973 I14.428 J21.974
N8485 G01 X14.428
N8490 X14.3 Y22.044 Z-11.755
N8495 X13.661 Y22.374 Z-11.78
N8500 X13.533 Y22.44 Z-11.785
N8505 X13.147 Y22.623 Z-11.8
N8510 G03 X-13.149 Y-22.627 I-13.148 J-22.625
N8515 X13.505 Y22.412 I13.148 J22.625
N8520 G01 X13.147 Y22.623
N8525 X12.758 Y22.809 Z-11.815
N8530 X12.623 Y22.867 Z-11.82
N8535 X11.959 Y23.143 Z-11.845
N8540 X11.828 Y23.194 Z-11.85
N8545 G03 X-11.828 Y-23.195 I-11.828 J-23.195
N8550 X11.893 Y23.161 I11.828 J23.195
N8555 G01 X11.828 Y23.194
N8560 X11.155 Y23.448 Z-11.875
N8565 X11.018 Y23.497 Z-11.88
N8570 X10.475 Y23.682 Z-11.9
N8575 G03 X-10.476 Y-23.684 I-10.475 J-23.683
N8580 X10.983 Y23.45 I10.475 J23.683
N8585 G01 X10.475 Y23.682
N8590 X10.338 Y23.728 Z-11.905
N8595 X10.2 Y23.773 Z-11.91
N8600 X9.509 Y23.981 Z-11.935
N8605 X9.37 Y24.021 Z-11.94
N8610 X9.097 Y24.094 Z-11.95
N8615 G03 X-9.098 Y-24.097 I-9.097 J-24.095
N8620 X9.377 Y23.986 I9.097 J24.095
N8625 G01 X9.097 Y24.094
N8630 X8.68 Y24.204 Z-11.965
N8635 X8.538 Y24.241 Z-11.97
N8640 X7.837 Y24.402 Z-11.995
N8645 X7.702 Y24.442 Z-12.
N8650 G03 X-7.702 Y-24.441 I-7.702 J-24.442
N8655 X7.727 Y24.434 I7.702 J24.442
N8660 G01 X7.702 Y24.442
N8665 X7.556 Y24.46 Z-12.005
N8670 X7.415 Y24.488 Z-12.01
N8675 X6.988 Y24.561 Z-12.025
N8680 X6.846 Y24.585 Z-12.03
N8685 X6.278 Y24.663 Z-12.05
N8690 G03 X-6.278 Y-24.666 I-6.278 J-24.665
N8695 X6.802 Y24.524 I6.278 J24.665
N8700 G01 X6.278 Y24.663
N8705 X6.135 Y24.683 Z-12.055
N8710 X5.988 Y24.703 Z-12.06
N8715 X5.844 Y24.718 Z-12.065
N8720 X5.27 Y24.777 Z-12.085
N8725 X5.126 Y24.792 Z-12.09
N8730 X4.982 Y24.802 Z-12.095
N8735 X4.844 Y24.811 Z-12.1
N8740 G03 X-4.845 Y-24.814 I-4.845 J-24.812
N8745 X5.039 Y24.772 I4.845 J24.812
N8750 G01 X4.844 Y24.811
N8755 X4.269 Y24.85 Z-12.12
N8760 X4.122 Y24.856 Z-12.125
N8765 X3.545 Y24.876 Z-12.145
N8770 X3.407 Y24.895 Z-12.15
N8775 G03 X-3.407 Y-24.894 I-3.407 J-24.894
N8780 X3.427 Y24.892 I3.407 J24.894
N8785 G01 X3.407 Y24.895
N8790 X3.258 Y24.881 Z-12.155
N8795 X2.826 Z-12.17
N8800 X2.681 Y24.877 Z-12.175
N8805 X2.536 Y24.872 Z-12.18
N8810 X2.39 Y24.865 Z-12.185
N8815 X2.1 Y24.847 Z-12.195
N8820 X1.961 Y24.841 Z-12.2
N8825 G03 X-2.62 Y24.775 I-1.99 J-20.834
N8830 X2.621 Y-24.781 I2.62 J-24.778
N8835 X1.961 Y24.836 I-2.62 J24.778
N8840 X1.547 Y24.727 I0.03 J-0.958 F500.
N8845 G01 X1.485 Y24.715
N8850 X1.426 Y24.705
N8855 X1.368
N8860 X1.31 Y24.709
N8865 X1.142 Y24.723 Z-12.206
N8870 X1.008 Y24.738 Z-12.211
N8875 X0.874 Y24.751 Z-12.215
N8880 X0.739 Y24.765 Z-12.22
N8885 X0.605 Y24.775 Z-12.225
N8890 X0.47 Y24.785 Z-12.229
N8895 X0.336 Y24.792 Z-12.234
N8900 X0.261 Y24.795 Z-12.237
N8905 X0.202 Y24.798 Z-12.239
N8910 X0.067 Y24.8 Z-12.244
N8915 X-0.067 Y24.801 Z-12.248
N8920 X-0.118 Y24.799 Z-12.25
N8925 G03 X-5.041 Y24.21 I2.146 J-38.79 F1500.
N8930 X-13.911 Y-20.439 I5.053 J-24.21
N8935 X13.906 Y20.44 I13.909 J20.44
N8940 X1.679 Y24.666 I-13.909 J-20.44
N8945 X-0.118 Y24.801 I-1.909 J-13.406
N8950 G01 X-0.261 Y24.768 Z-12.255
N8955 X-0.408 Y24.748 Z-12.26
N8960 X-0.549 Y24.724 Z-12.265
N8965 X-0.693 Y24.696 Z-12.27
N8970 X-0.834 Y24.666 Z-12.275
N8975 X-0.975 Y24.632 Z-12.28
N8980 X-1.115 Y24.596 Z-12.285
N8985 X-1.253 Y24.555 Z-12.29
N8990 X-1.391 Y24.514 Z-12.295
N8995 X-1.517 Y24.484 Z-12.3
N9000 G02 X-3.421 Y24.258 I-14.236 J111.682
N9005 G03 X3.421 Y-24.258 I3.421 J-24.258
N9010 X1.814 Y24.431 I-3.421 J24.258
N9015 X0.068 Y24.683 I-2.571 J-11.626
N9020 X-1.516 Y24.481 I0.176 J-7.7
N9025 G01 X-1.655 Y24.428 Z-12.305
N9030 X-1.786 Y24.382 Z-12.31
N9035 X-1.926 Y24.34 Z-12.315
N9040 X-2.054 Y24.301 Z-12.32
N9045 X-2.185 Y24.264 Z-12.324
N9050 X-2.319 Y24.222 Z-12.329
N9055 X-2.456 Y24.176 Z-12.334
N9060 X-2.595 Y24.132 Z-12.339
N9065 X-2.734 Y24.083 Z-12.344
N9070 X-2.87 Y24.029 Z-12.349
N9075 X-2.89 Y24.033 Z-12.35
N9080 G03 X2.89 Y-24.034 I2.89 J-24.033
N9085 X2.889 Y24.033 I-2.89 J24.033
N9090 G02 X1.813 Y24.222 I1.01 J8.933
N9095 G03 X-1.712 Y24.254 I-1.805 J-4.599
N9100 G02 X-2.89 Y24.038 I-1.875 J6.913
N9105 G01 X-3.027 Y23.976 Z-12.355
N9110 X-3.165 Y23.93 Z-12.36
N9115 X-3.31 Y23.879 Z-12.365
N9120 X-3.858 Y23.679 Z-12.385
N9125 X-3.995 Y23.628 Z-12.39
N9130 X-4.132 Y23.574 Z-12.395
N9135 X-4.259 Y23.528 Z-12.4
N9140 G03 X4.26 Y-23.53 I4.26 J-23.529
N9145 X2.485 Y23.781 I-4.26 J23.529
N9150 G02 X1.308 Y24.258 I80.582 J200.682
N9155 G03 X-1.811 Y24.05 I-1.312 J-3.831
N9160 G02 X-2.484 Y23.785 I-3.323 J7.451
N9165 G03 X-4.259 Y23.528 I2.298 J-22.124
N9170 G01 X-4.39 Y23.446 Z-12.405
N9175 X-4.655 Y23.307 Z-12.415
N9180 X-4.789 Y23.237 Z-12.42
N9185 X-4.926 Y23.16 Z-12.425
N9190 X-5.446 Y22.864 Z-12.445
N9195 X-5.568 Y22.794 Z-12.45
N9200 G03 X-1.142 Y-23.436 I5.568 J-22.794
N9205 X0.202 Y-23.583 I1.373 J6.363
N9210 G02 X2.083 Y-23.371 I2.725 J-15.776
N9215 G03 X3.158 Y23.25 I-2.083 J23.371
N9220 G02 X2.223 Y23.659 I0.156 J1.629
N9225 G03 X-0.067 Y24.404 I-2.348 J-3.328
N9230 X-2.348 Y23.556 I0.193 J-4.011
N9235 G02 X-2.857 Y23.312 I-0.88 J1.186
N9240 G03 X-4.771 Y22.975 I15.098 J-91.368
N9245 G01 X-5.443 Y22.823
N9250 X-5.568 Y22.794
N9255 G00 Z5.
N9260 X-0.324 Y10.935
N9265 Z0.517
N9270 G01 Z-0.55 F250.
N9275 G02 X0.324 Y-10.939 I0.324 J-10.937 F1500.
N9280 X-0.605 Y10.923 I-0.324 J10.937
N9285 G01 X-0.324 Y10.935
N9290 X-0.182 Y10.96 Z-0.555
N9295 X-0.044 Y10.984 Z-0.56
N9300 X0.096 Y11.002 Z-0.565
N9305 X0.24 Y11.016 Z-0.57
N9310 X0.383 Y11.03 Z-0.575
N9315 X0.527 Y11.043 Z-0.58
N9320 X0.669 Y11.055 Z-0.585
N9325 X0.812 Y11.059 Z-0.59
N9330 X0.956 Y11.062 Z-0.595
N9335 X1.1 Y11.064 Z-0.6
N9340 X1.113
N9345 G02 X-1.113 Y-11.068 I-1.113 J-11.066
N9350 X0.739 Y11.095 I1.113 J11.066
N9355 G01 X1.113 Y11.064
N9360 X1.257 Y11.066 Z-0.605
N9365 X1.397 Y11.065 Z-0.61
N9370 X1.538 Y11.058 Z-0.615
N9375 X1.682 Y11.05 Z-0.62
N9380 X1.825 Y11.041 Z-0.625
N9385 X1.968 Y11.032 Z-0.63
N9390 X2.109 Y11.02 Z-0.635
N9395 X2.252 Y11.002 Z-0.64
N9400 X2.394 Y10.984 Z-0.645
N9405 X2.547 Y10.964 Z-0.65
N9410 G02 X-2.548 Y-10.967 I-2.548 J-10.965
N9415 X2.217 Y11.035 I2.548 J10.965
N9420 G01 X2.547 Y10.964
N9425 X2.69 Y10.945 Z-0.655
N9430 X2.826 Y10.922 Z-0.66
N9435 X2.967 Y10.894 Z-0.665
N9440 X3.107 Y10.866 Z-0.67
N9445 X3.248 Y10.837 Z-0.675
N9450 X3.389 Y10.809 Z-0.68
N9455 X3.526 Y10.775 Z-0.685
N9460 X3.665 Y10.738 Z-0.69
N9465 X3.803 Y10.7 Z-0.695
N9470 X3.95 Y10.66 Z-0.7
N9475 G02 X-3.951 Y-10.662 I-3.951 J-10.661
N9480 X3.499 Y10.816 I3.951 J10.661
N9485 G01 X3.95 Y10.66
N9490 X4.087 Y10.622 Z-0.705
N9495 X4.22 Y10.579 Z-0.71
N9500 X4.356 Y10.532 Z-0.715
N9505 X4.491 Y10.485 Z-0.72
N9510 X4.627 Y10.438 Z-0.725
N9515 X4.762 Y10.391 Z-0.73
N9520 X4.893 Y10.338 Z-0.735
N9525 X5.026 Y10.282 Z-0.74
N9530 X5.158 Y10.227 Z-0.745
N9535 X5.298 Y10.168 Z-0.75
N9540 G02 X-5.299 Y-10.17 I-5.298 J-10.169
N9545 X4.905 Y10.363 I5.298 J10.169
N9550 G01 X5.298 Y10.168
N9555 X5.427 Y10.113 Z-0.755
N9560 X5.554 Y10.05 Z-0.76
N9565 X5.683 Y9.986 Z-0.765
N9570 X5.811 Y9.922 Z-0.77
N9575 X5.939 Y9.858 Z-0.775
N9580 X6.067 Y9.793 Z-0.78
N9585 X6.19 Y9.722 Z-0.785
N9590 X6.314 Y9.65 Z-0.79
N9595 X6.437 Y9.578 Z-0.795
N9600 X6.568 Y9.502 Z-0.8
N9605 G02 X-6.568 Y-9.503 I-6.568 J-9.503
N9610 X6.114 Y9.8 I6.568 J9.503
N9615 G01 X6.568 Y9.502
N9620 X6.69 Y9.429 Z-0.805
N9625 X6.806 Y9.351 Z-0.81
N9630 X6.925 Y9.271 Z-0.815
N9635 X7.044 Y9.191 Z-0.82
N9640 X7.163 Y9.111 Z-0.825
N9645 X7.281 Y9.031 Z-0.83
N9650 X7.394 Y8.944 Z-0.835
N9655 X7.508 Y8.856 Z-0.84
N9660 X7.621 Y8.769 Z-0.845
N9665 X7.74 Y8.677 Z-0.85
N9670 G02 X-7.741 Y-8.679 I-7.74 J-8.678
N9675 X7.323 Y9.032 I7.74 J8.678
N9680 G01 X7.74 Y8.677
N9685 X7.85 Y8.591 Z-0.855
N9690 X7.958 Y8.497 Z-0.86
N9695 X8.065 Y8.402 Z-0.865
N9700 X8.173 Y8.308 Z-0.87
N9705 X8.281 Y8.213 Z-0.875
N9710 X8.387 Y8.118 Z-0.88
N9715 X8.488 Y8.018 Z-0.885
N9720 X8.59 Y7.917 Z-0.89
N9725 X8.691 Y7.815 Z-0.895
N9730 X8.797 Y7.71 Z-0.9
N9735 G02 X-8.798 Y-7.711 I-8.797 J-7.71
N9740 X8.537 Y7.997 I8.797 J7.71
N9745 G01 X8.797 Y7.71
N9750 X8.895 Y7.61 Z-0.905
N9755 X8.99 Y7.503 Z-0.91
N9760 X9.085 Y7.396 Z-0.915
N9765 X9.18 Y7.288 Z-0.92
N9770 X9.275 Y7.181 Z-0.925
N9775 X9.369 Y7.073 Z-0.93
N9780 X9.456 Y6.961 Z-0.935
N9785 X9.544 Y6.848 Z-0.94
N9790 X9.632 Y6.734 Z-0.945
N9795 X9.723 Y6.617 Z-0.95
N9800 G02 X-9.725 Y-6.618 I-9.724 J-6.617
N9805 X9.411 Y7.054 I9.724 J6.617
N9810 G01 X9.723 Y6.617
N9815 X9.81 Y6.503 Z-0.955
N9820 X9.89 Y6.387 Z-0.96
N9825 X9.97 Y6.269 Z-0.965
N9830 X10.051 Y6.15 Z-0.97
N9835 X10.131 Y6.031 Z-0.975
N9840 X10.211 Y5.913 Z-0.98
N9845 X10.285 Y5.791 Z-0.985
N9850 X10.357 Y5.668 Z-0.99
N9855 X10.43 Y5.544 Z-0.995
N9860 X10.503 Y5.421 Z-1.
N9865 X10.505 Y5.416
N9870 G02 X-10.508 Y-5.417 I-10.507 J-5.417
N9875 X10.273 Y5.845 I10.507 J5.417
N9880 G01 X10.505 Y5.416
N9885 X10.578 Y5.293 Z-1.005
N9890 X10.643 Y5.168 Z-1.01
N9895 X10.708 Y5.041 Z-1.015
N9900 X10.773 Y4.913 Z-1.02
N9905 X10.838 Y4.785 Z-1.025
N9910 X10.902 Y4.657 Z-1.03
N9915 X10.961 Y4.528 Z-1.035
N9920 X11.018 Y4.396 Z-1.04
N9925 X11.074 Y4.265 Z-1.045
N9930 X11.131 Y4.133 Z-1.05
N9935 X11.133 Y4.128
N9940 G02 X-11.136 Y-4.129 I-11.134 J-4.129
N9945 X10.95 Y4.592 I11.134 J4.129
N9950 G01 X11.133 Y4.128
N9955 X11.189 Y3.997 Z-1.055
N9960 X11.24 Y3.865 Z-1.06
N9965 X11.288 Y3.731 Z-1.065
N9970 X11.337 Y3.596 Z-1.07
N9975 X11.385 Y3.461 Z-1.075
N9980 X11.433 Y3.326 Z-1.08
N9985 X11.477 Y3.191 Z-1.085
N9990 X11.516 Y3.053 Z-1.09
N9995 X11.556 Y2.915 Z-1.095
N10000 X11.596 Y2.778 Z-1.1
N10005 X11.597 Y2.773
N10010 G02 X-11.601 Y-2.774 I-11.599 J-2.773
N10015 X11.488 Y3.197 I11.599 J2.773
N10020 G01 X11.597 Y2.773
N10025 X11.637 Y2.635 Z-1.105
N10030 X11.673 Y2.498 Z-1.11
N10035 X11.704 Y2.359 Z-1.115
N10040 X11.735 Y2.219 Z-1.12
N10045 X11.766 Y2.079 Z-1.125
N10050 X11.796 Y1.94 Z-1.13
N10055 X11.825 Y1.8 Z-1.135
N10060 X11.847 Y1.659 Z-1.14
N10065 X11.869 Y1.517 Z-1.145
N10070 X11.892 Y1.376 Z-1.15
N10075 Y1.371
N10080 G02 X-11.896 Y-1.371 I-11.894 J-1.371
N10085 X11.853 Y1.68 I11.894 J1.371
N10090 G01 X11.892 Y1.371
N10095 X11.914 Y1.229 Z-1.155
N10100 X11.935 Y1.089 Z-1.16
N10105 X11.949 Y0.947 Z-1.165
N10110 X11.962 Y0.804 Z-1.17
N10115 X11.975 Y0.662 Z-1.175
N10120 X11.988 Y0.519 Z-1.18
N10125 X12.001 Y0.377 Z-1.185
N10130 X12.006 Y0.234 Z-1.19
N10135 X12.01 Y0.091 Z-1.195
N10140 X12.015 Y-0.052 Z-1.2
N10145 Y-0.057
N10150 G02 X-12.019 Y0.057 I-12.017 J0.057
N10155 X12.013 Y0.202 I12.017 J-0.057
N10160 G01 X12.015 Y-0.057
N10165 X12.019 Y-0.201 Z-1.205
N10170 X12.023 Y-0.342 Z-1.21
N10175 X12.02 Y-0.485 Z-1.215
N10180 X12.016 Y-0.628 Z-1.22
N10185 X12.011 Y-0.771 Z-1.225
N10190 X12.006 Y-0.914 Z-1.23
N10195 X12.002 Y-1.057 Z-1.235
N10200 X11.992 Y-1.2 Z-1.24
N10205 X11.978 Y-1.342 Z-1.245
N10210 X11.964 Y-1.485 Z-1.25
N10215 Y-1.49
N10220 G02 X-11.968 Y1.491 I-11.966 J1.49
N10225 X11.989 Y-1.277 I11.966 J-1.49
N10230 G01 X11.964 Y-1.49
N10235 X11.95 Y-1.633 Z-1.255
N10240 X11.937 Y-1.775 Z-1.26
N10245 X11.919 Y-1.916 Z-1.265
N10250 X11.897 Y-2.057 Z-1.27
N10255 X11.874 Y-2.198 Z-1.275
N10260 X11.852 Y-2.34 Z-1.28
N10265 X11.829 Y-2.481 Z-1.285
N10270 X11.804 Y-2.622 Z-1.29
N10275 X11.773 Y-2.762 Z-1.295
N10280 X11.742 Y-2.901 Z-1.3
N10285 X11.741 Y-2.906
N10290 G02 X-11.745 Y2.907 I-11.743 J2.907
N10295 X11.777 Y-2.755 I11.743 J-2.907
N10300 G01 X11.741 Y-2.906
N10305 X11.709 Y-3.046 Z-1.305
N10310 X11.678 Y-3.186 Z-1.31
N10315 X11.646 Y-3.324 Z-1.315
N10320 X11.607 Y-3.462 Z-1.32
N10325 X11.567 Y-3.599 Z-1.325
N10330 X11.527 Y-3.737 Z-1.33
N10335 X11.487 Y-3.874 Z-1.335
N10340 X11.447 Y-4.011 Z-1.34
N10345 X11.4 Y-4.147 Z-1.345
N10350 X11.351 Y-4.281 Z-1.35
N10355 X11.349 Y-4.286
N10360 G02 X-11.353 Y4.287 I-11.351 J4.287
N10365 X11.419 Y-4.098 I11.351 J-4.287
N10370 G01 X11.349 Y-4.286
N10375 X11.301 Y-4.421 Z-1.355
N10380 X11.252 Y-4.556 Z-1.36
N10385 X11.204 Y-4.69 Z-1.365
N10390 X11.151 Y-4.822 Z-1.37
N10395 X11.094 Y-4.953 Z-1.375
N10400 X11.037 Y-5.085 Z-1.38
N10405 X10.98 Y-5.216 Z-1.385
N10410 X10.923 Y-5.348 Z-1.39
N10415 X10.863 Y-5.477 Z-1.395
N10420 X10.798 Y-5.605 Z-1.4
N10425 X10.796 Y-5.609
N10430 G02 X-10.799 Y5.611 I-10.798 J5.61
N10435 X10.818 Y-5.568 I10.798 J-5.61
N10440 G01 X10.796 Y-5.609
N10445 X10.666 Y-5.865 Z-1.41
N10450 X10.602 Y-5.992 Z-1.415
N10455 X10.535 Y-6.118 Z-1.42
N10460 X10.463 Y-6.242 Z-1.425
N10465 X10.39 Y-6.365 Z-1.43
N10470 X10.318 Y-6.488 Z-1.435
N10475 X10.245 Y-6.612 Z-1.44
N10480 X10.172 Y-6.735 Z-1.445
N10485 X10.092 Y-6.854 Z-1.45
N10490 X10.089 Y-6.858
N10495 G02 X-10.091 Y6.859 I-10.09 J6.859
N10500 X10.138 Y-6.786 I10.09 J-6.859
N10505 G01 X10.089 Y-6.858
N10510 X9.929 Y-7.095 Z-1.46
N10515 X9.849 Y-7.214 Z-1.465
N10520 X9.768 Y-7.332 Z-1.47
N10525 X9.683 Y-7.447 Z-1.475
N10530 X9.596 Y-7.56 Z-1.48
N10535 X9.421 Y-7.787 Z-1.49
N10540 X9.333 Y-7.9 Z-1.495
N10545 X9.289 Y-7.956 Z-1.497
N10550 X9.266 Y-7.984 Z-1.499
N10555 X9.254 Y-7.997
N10560 X9.242 Y-8.011 Z-1.5
N10565 X9.237 Y-8.013
N10570 G02 X-9.237 Y8.012 I-9.237 J8.013
N10575 X9.251 Y-7.996 I9.237 J-8.013
N10580 G01 X9.237 Y-8.013
N10585 X9.145 Y-8.122 Z-1.505
N10590 X8.956 Y-8.338 Z-1.515
N10595 X8.862 Y-8.445 Z-1.52
N10600 X8.766 Y-8.551 Z-1.525
N10605 X8.665 Y-8.653 Z-1.53
N10610 X8.464 Y-8.856 Z-1.54
N10615 X8.363 Y-8.958 Z-1.545
N10620 X8.261 Y-9.059 Z-1.55
N10625 X8.257 Y-9.062
N10630 G02 X-8.256 Y9.061 I-8.257 J9.061
N10635 X8.265 Y-9.055 I8.257 J-9.061
N10640 G01 X8.257 Y-9.062
N10645 X8.152 Y-9.157 Z-1.555
N10650 X7.938 Y-9.348 Z-1.565
N10655 X7.831 Y-9.443 Z-1.57
N10660 X7.724 Y-9.538 Z-1.575
N10665 X7.613 Y-9.628 Z-1.58
N10670 X7.387 Y-9.804 Z-1.59
N10675 X7.162 Y-9.981 Z-1.6
N10680 X7.158 Y-9.984
N10685 G02 X-7.158 Y9.984 I-7.158 J9.984
N10690 X7.19 Y-9.961 I7.158 J-9.984
N10695 G01 X7.158 Y-9.984
N10700 X7.043 Y-10.068 Z-1.605
N10705 X6.808 Y-10.23 Z-1.615
N10710 X6.572 Y-10.393 Z-1.625
N10715 X6.453 Y-10.472 Z-1.63
N10720 X6.331 Y-10.546 Z-1.635
N10725 X6.085 Y-10.693 Z-1.645
N10730 X5.962 Y-10.767 Z-1.65
N10735 X5.958 Y-10.769
N10740 G02 X-5.959 Y10.771 I-5.958 J10.77
N10745 X6.383 Y-10.523 I5.958 J-10.77
N10750 G01 X5.958 Y-10.769
N10755 X5.836 Y-10.842 Z-1.655
N10760 X5.709 Y-10.909 Z-1.66
N10765 X5.455 Y-11.041 Z-1.67
N10770 X5.201 Y-11.172 Z-1.68
N10775 X5.072 Y-11.233 Z-1.685
N10780 X4.81 Y-11.349 Z-1.695
N10785 X4.679 Y-11.407 Z-1.7
N10790 X4.674 Y-11.409
N10795 G02 X-4.675 Y11.412 I-4.675 J11.41
N10800 X5.039 Y-11.252 I4.675 J-11.41
N10805 G01 X4.674 Y-11.409
N10810 X4.543 Y-11.466 Z-1.705
N10815 X4.412 Y-11.521 Z-1.71
N10820 X4.278 Y-11.571 Z-1.715
N10825 X4.009 Y-11.67 Z-1.725
N10830 X3.875 Y-11.719 Z-1.73
N10835 X3.74 Y-11.768 Z-1.735
N10840 X3.603 Y-11.81 Z-1.74
N10845 X3.329 Y-11.892 Z-1.75
N10850 X3.324 Y-11.893
N10855 G02 X-3.325 Y11.898 I-3.325 J11.896
N10860 X3.427 Y-11.864 I3.325 J-11.896
N10865 G01 X3.324 Y-11.893
N10870 X3.187 Y-11.935 Z-1.755
N10875 X3.05 Y-11.975 Z-1.76
N10880 X2.912 Y-12.01 Z-1.765
N10885 X2.633 Y-12.075 Z-1.775
N10890 X2.354 Y-12.14 Z-1.785
N10895 X2.214 Y-12.169 Z-1.79
N10900 X1.932 Y-12.217 Z-1.8
N10905 X1.927 Y-12.218
N10910 G02 X-1.927 Y12.222 I-1.927 J12.22
N10915 X2.217 Y-12.168 I1.927 J-12.22
N10920 G01 X1.927 Y-12.218
N10925 X1.644 Y-12.265 Z-1.81
N10930 X1.504 Y-12.287 Z-1.815
N10935 X1.361 Y-12.303 Z-1.82
N10940 X1.076 Y-12.333 Z-1.83
N10945 X0.934 Y-12.348 Z-1.835
N10950 X0.792 Y-12.362 Z-1.84
N10955 X0.649 Y-12.371 Z-1.845
N10960 X0.506 Y-12.377 Z-1.85
N10965 X0.501
N10970 G02 X-0.501 Y12.381 I-0.501 J12.379
N10975 X0.605 Y-12.372 I0.501 J-12.379
N10980 G01 X0.501 Y-12.377
N10985 X0.215 Y-12.389 Z-1.86
N10990 X0.072 Y-12.395 Z-1.865
N10995 X-0.071 Y-12.397 Z-1.87
N11000 X-0.357 Y-12.391 Z-1.88
N11005 X-0.644 Y-12.386 Z-1.89
N11010 X-0.787 Y-12.381 Z-1.895
N11015 X-0.929 Y-12.37 Z-1.9
N11020 X-0.934 Y-12.369
N11025 G02 X0.934 Y12.372 I0.934 J12.371
N11030 X-0.873 Y-12.374 I-0.934 J-12.371
N11035 G01 X-0.934 Y-12.369
N11040 X-1.22 Y-12.346 Z-1.91
N11045 X-1.362 Y-12.334 Z-1.915
N11050 X-1.505 Y-12.322 Z-1.92
N11055 X-1.647 Y-12.304 Z-1.925
N11060 X-1.93 Y-12.263 Z-1.935
N11065 X-2.213 Y-12.222 Z-1.945
N11070 X-2.354 Y-12.197 Z-1.95
N11075 X-2.359 Y-12.196
N11080 G02 X2.359 Y12.195 I2.359 J12.195
N11085 X-2.352 Y-12.197 I-2.359 J-12.195
N11090 G01 X-2.359 Y-12.196
N11095 X-2.64 Y-12.137 Z-1.96
N11100 X-2.92 Y-12.079 Z-1.97
N11105 X-3.059 Y-12.047 Z-1.975
N11110 X-3.197 Y-12.01 Z-1.98
N11115 X-3.473 Y-11.934 Z-1.99
N11120 X-3.715 Y-11.868 Z-1.999
N11125 X-3.732 Y-11.863
N11130 X-3.741 Y-11.86 Z-2.
N11135 X-3.75 Y-11.858
N11140 X-3.754 Y-11.855
N11145 G02 X3.754 Y11.855 I3.754 J11.855
N11150 X-3.696 Y-11.873 I-3.754 J-11.855
N11155 G01 X-3.754 Y-11.855
N11160 X-3.89 Y-11.811 Z-2.005
N11165 X-4.161 Y-11.719 Z-2.015
N11170 X-4.432 Y-11.626 Z-2.025
N11175 X-4.565 Y-11.575 Z-2.03
N11180 X-4.83 Y-11.466 Z-2.04
N11185 X-5.095 Y-11.356 Z-2.05
N11190 X-5.099 Y-11.354
N11195 G02 X5.099 Y11.355 I5.099 J11.355
N11200 X-5.095 Y-11.356 I-5.099 J-11.355
N11205 G01 X-5.099 Y-11.354
N11210 X-5.23 Y-11.298 Z-2.055
N11215 X-5.359 Y-11.235 Z-2.06
N11220 X-5.616 Y-11.11 Z-2.07
N11225 X-5.745 Y-11.047 Z-2.075
N11230 X-5.873 Y-10.984 Z-2.08
N11235 X-5.998 Y-10.915 Z-2.085
N11240 X-6.248 Y-10.773 Z-2.095
N11245 X-6.372 Y-10.702 Z-2.1
N11250 X-6.376 Y-10.7
N11255 G02 X6.378 Y10.703 I6.377 J10.701
N11260 X-5.979 Y-10.927 I-6.377 J-10.701
N11265 G01 X-6.376 Y-10.7
N11270 X-6.501 Y-10.629 Z-2.105
N11275 X-6.623 Y-10.555 Z-2.11
N11280 X-6.862 Y-10.398 Z-2.12
N11285 X-7.102 Y-10.242 Z-2.13
N11290 X-7.221 Y-10.162 Z-2.135
N11295 X-7.336 Y-10.077 Z-2.14
N11300 X-7.566 Y-9.906 Z-2.15
N11305 X-7.57 Y-9.903
N11310 G02 X7.572 Y9.906 I7.571 J9.904
N11315 X-7.323 Y-10.086 I-7.571 J-9.904
N11320 G01 X-7.57 Y-9.903
N11325 X-7.684 Y-9.817 Z-2.155
N11330 X-7.799 Y-9.731 Z-2.16
N11335 X-7.909 Y-9.64 Z-2.165
N11340 X-8.128 Y-9.455 Z-2.175
N11345 X-8.346 Y-9.27 Z-2.185
N11350 X-8.453 Y-9.175 Z-2.19
N11355 X-8.659 Y-8.976 Z-2.2
N11360 X-8.663 Y-8.973
N11365 G02 X8.666 Y8.976 I8.664 J8.975
N11370 X-8.533 Y-9.097 I-8.664 J-8.975
N11375 G01 X-8.663 Y-8.973
N11380 X-8.87 Y-8.775 Z-2.21
N11385 X-8.972 Y-8.675 Z-2.215
N11390 X-9.069 Y-8.57 Z-2.22
N11395 X-9.263 Y-8.359 Z-2.23
N11400 X-9.36 Y-8.254 Z-2.235
N11405 X-9.457 Y-8.148 Z-2.24
N11410 X-9.549 Y-8.039 Z-2.245
N11415 X-9.639 Y-7.927 Z-2.25
N11420 X-9.642 Y-7.923
N11425 G02 X9.645 Y7.926 I9.643 J7.925
N11430 X-9.582 Y-7.995 I-9.643 J-7.925
N11435 G01 X-9.642 Y-7.923
N11440 X-9.823 Y-7.701 Z-2.26
N11445 X-9.913 Y-7.59 Z-2.265
N11450 X-10. Y-7.477 Z-2.27
N11455 X-10.166 Y-7.244 Z-2.28
N11460 X-10.333 Y-7.011 Z-2.29
N11465 X-10.415 Y-6.893 Z-2.295
N11470 X-10.491 Y-6.772 Z-2.3
N11475 X-10.494 Y-6.768
N11480 G02 X10.495 Y6.769 I10.495 J6.769
N11485 X-10.482 Y-6.787 I-10.495 J-6.769
N11490 G01 X-10.494 Y-6.768
N11495 X-10.645 Y-6.525 Z-2.31
N11500 X-10.721 Y-6.404 Z-2.315
N11505 X-10.797 Y-6.282 Z-2.32
N11510 X-10.867 Y-6.157 Z-2.325
N11515 X-11.004 Y-5.906 Z-2.335
N11520 X-11.14 Y-5.654 Z-2.345
N11525 X-11.173 Y-5.591 Z-2.347
N11530 X-11.19 Y-5.559 Z-2.349
N11535 X-11.197 Y-5.543
N11540 X-11.201 Y-5.534 Z-2.35
N11545 X-11.205 Y-5.526
N11550 X-11.207 Y-5.522
N11555 G02 X11.206 Y5.521 I11.207 J5.522
N11560 X-11.18 Y-5.577 I-11.207 J-5.522
N11565 G01 X-11.207 Y-5.522
N11570 X-11.267 Y-5.392 Z-2.355
N11575 X-11.388 Y-5.132 Z-2.365
N11580 X-11.448 Y-5.002 Z-2.37
N11585 X-11.507 Y-4.872 Z-2.375
N11590 X-11.56 Y-4.739 Z-2.38
N11595 X-11.664 Y-4.472 Z-2.39
N11600 X-11.766 Y-4.209 Z-2.4
N11605 X-11.768 Y-4.205
N11610 X-11.769 Y-4.2
N11615 G02 X11.769 Y4.2 I11.769 J4.2
N11620 X-11.759 Y-4.228 I-11.769 J-4.2
N11625 G01 X-11.769 Y-4.2
N11630 X-11.816 Y-4.065 Z-2.405
N11635 X-11.904 Y-3.792 Z-2.415
N11640 X-11.991 Y-3.52 Z-2.425
N11645 X-12.032 Y-3.383 Z-2.43
N11650 X-12.067 Y-3.244 Z-2.435
N11655 X-12.172 Y-2.827 Z-2.45
N11660 X-12.174 Y-2.823
N11665 G02 X12.175 Y2.823 I12.174 J2.823
N11670 X-12.055 Y-3.292 I-12.175 J-2.823
N11675 G01 X-12.174 Y-2.823
N11680 X-12.208 Y-2.684 Z-2.455
N11685 X-12.236 Y-2.543 Z-2.46
N11690 X-12.315 Y-2.121 Z-2.475
N11695 X-12.342 Y-1.98 Z-2.48
N11700 X-12.363 Y-1.839 Z-2.485
N11705 X-12.417 Y-1.413 Z-2.5
N11710 Y-1.408
N11715 G02 X12.42 Y1.408 I12.419 J1.408
N11720 X-12.364 Y-1.814 I-12.419 J-1.408
N11725 G01 X-12.417 Y-1.408
N11730 X-12.435 Y-1.266 Z-2.505
N11735 X-12.45 Y-1.123 Z-2.51
N11740 X-12.46 Y-0.98 Z-2.515
N11745 X-12.487 Y-0.552 Z-2.53
N11750 X-12.495 Y-0.409 Z-2.535
N11755 X-12.497 Y-0.266 Z-2.54
N11760 X-12.498 Y0.021 Z-2.55
N11765 Y0.026
N11770 G02 X12.502 Y-0.026 I12.5 J-0.026
N11775 X-12.496 Y-0.202 I-12.5 J0.026
N11780 G01 X-12.498 Y0.026
N11785 Y0.169 Z-2.555
N11790 Y0.312 Z-2.56
N11795 X-12.494 Y0.455 Z-2.565
N11800 X-12.485 Y0.598 Z-2.57
N11805 X-12.468 Y0.884 Z-2.58
N11810 X-12.459 Y1.027 Z-2.585
N11815 X-12.448 Y1.17 Z-2.59
N11820 X-12.433 Y1.312 Z-2.595
N11825 X-12.415 Y1.454 Z-2.6
N11830 X-12.414 Y1.459
N11835 G02 X12.417 Y-1.459 I12.416 J-1.459
N11840 X-12.435 Y1.276 I-12.416 J1.459
N11845 G01 X-12.414 Y1.459
N11850 X-12.38 Y1.743 Z-2.61
N11855 X-12.361 Y1.885 Z-2.615
N11860 X-12.338 Y2.026 Z-2.62
N11865 X-12.312 Y2.167 Z-2.625
N11870 X-12.26 Y2.449 Z-2.635
N11875 X-12.233 Y2.589 Z-2.64
N11880 X-12.203 Y2.729 Z-2.645
N11885 X-12.17 Y2.869 Z-2.65
N11890 X-12.168 Y2.873
N11895 G02 X12.169 Y-2.874 I12.169 J-2.874
N11900 X-12.196 Y2.755 I-12.169 J2.874
N11905 G01 X-12.168 Y2.873
N11910 X-12.134 Y3.012 Z-2.655
N11915 X-12.099 Y3.151 Z-2.66
N11920 X-12.064 Y3.29 Z-2.665
N11925 X-12.027 Y3.428 Z-2.67
N11930 X-11.984 Y3.565 Z-2.675
N11935 X-11.898 Y3.838 Z-2.685
N11940 X-11.856 Y3.975 Z-2.69
N11945 X-11.811 Y4.111 Z-2.695
N11950 X-11.763 Y4.246 Z-2.7
N11955 X-11.761 Y4.251
N11960 G02 X11.76 Y-4.25 I11.761 J-4.25
N11965 X-11.767 Y4.233 I-11.761 J4.25
N11970 G01 X-11.761 Y4.251
N11975 X-11.658 Y4.518 Z-2.71
N11980 X-11.607 Y4.651 Z-2.715
N11985 X-11.555 Y4.785 Z-2.72
N11990 X-11.5 Y4.917 Z-2.725
N11995 X-11.442 Y5.048 Z-2.73
N12000 X-11.322 Y5.308 Z-2.74
N12005 X-11.262 Y5.438 Z-2.745
N12010 X-11.2 Y5.567 Z-2.75
N12015 X-11.198 Y5.571
N12020 G02 X11.197 Y-5.571 I11.197 J-5.571
N12025 X-11.221 Y5.524 I-11.197 J5.571
N12030 G01 X-11.198 Y5.571
N12035 X-11.133 Y5.699 Z-2.755
N12040 X-11.066 Y5.826 Z-2.76
N12045 X-10.998 Y5.952 Z-2.765
N12050 X-10.931 Y6.078 Z-2.77
N12055 X-10.862 Y6.203 Z-2.775
N12060 X-10.79 Y6.327 Z-2.78
N12065 X-10.716 Y6.45 Z-2.785
N12070 X-10.566 Y6.694 Z-2.795
N12075 X-10.489 Y6.815 Z-2.8
N12080 X-10.486 Y6.819
N12085 G02 X10.486 Y-6.818 I10.486 J-6.819
N12090 X-10.507 Y6.787 I-10.486 J6.819
N12095 G01 X-10.486 Y6.819
N12100 X-10.408 Y6.939 Z-2.805
N12105 X-10.326 Y7.056 Z-2.81
N12110 X-10.243 Y7.173 Z-2.815
N12115 X-10.162 Y7.291 Z-2.82
N12120 X-10.08 Y7.408 Z-2.825
N12125 X-9.995 Y7.523 Z-2.83
N12130 X-9.908 Y7.637 Z-2.835
N12135 X-9.818 Y7.748 Z-2.84
N12140 X-9.729 Y7.86 Z-2.845
N12145 X-9.64 Y7.973 Z-2.85
N12150 X-9.637 Y7.976
N12155 G02 X9.637 Y-7.976 I9.637 J-7.976
N12160 X-9.729 Y7.863 I-9.637 J7.976
N12165 G01 X-9.637 Y7.976
N12170 X-9.545 Y8.086 Z-2.855
N12175 X-9.453 Y8.196 Z-2.86
N12180 X-9.357 Y8.302 Z-2.865
N12185 X-9.261 Y8.408 Z-2.87
N12190 X-9.165 Y8.514 Z-2.875
N12195 X-9.068 Y8.62 Z-2.88
N12200 X-8.968 Y8.723 Z-2.885
N12205 X-8.868 Y8.825 Z-2.89
N12210 X-8.766 Y8.925 Z-2.895
N12215 X-8.663 Y9.025 Z-2.9
N12220 X-8.66 Y9.029
N12225 G02 X8.66 Y-9.029 I8.66 J-9.029
N12230 X-8.668 Y9.02 I-8.66 J9.029
N12235 G01 X-8.66 Y9.029
N12240 X-8.556 Y9.128 Z-2.905
N12245 X-8.452 Y9.226 Z-2.91
N12250 X-8.346 Y9.321 Z-2.915
N12255 X-8.239 Y9.417 Z-2.92
N12260 X-8.13 Y9.51 Z-2.925
N12265 X-8.021 Y9.602 Z-2.93
N12270 X-7.911 Y9.694 Z-2.935
N12275 X-7.8 Y9.784 Z-2.94
N12280 X-7.687 Y9.872 Z-2.945
N12285 X-7.574 Y9.96 Z-2.95
N12290 X-7.57 Y9.963
N12295 G02 X7.57 Y-9.963 I7.57 J-9.963
N12300 X-7.593 Y9.945 I-7.57 J9.963
N12305 G01 X-7.57 Y9.963
N12310 X-7.455 Y10.049 Z-2.955
N12315 X-7.34 Y10.134 Z-2.96
N12320 X-7.224 Y10.218 Z-2.965
N12325 X-7.106 Y10.299 Z-2.97
N12330 X-6.987 Y10.379 Z-2.975
N12335 X-6.868 Y10.459 Z-2.98
N12340 X-6.749 Y10.538 Z-2.985
N12345 X-6.628 Y10.614 Z-2.99
N12350 X-6.507 Y10.69 Z-2.995
N12355 X-6.383 Y10.763 Z-3.
N12360 X-6.379 Y10.765
N12365 G02 X6.379 Y-10.766 I6.379 J-10.766
N12370 X-6.384 Y10.763 I-6.379 J10.766
N12375 G01 X-6.379 Y10.765
N12380 X-6.255 Y10.837 Z-3.005
N12385 X-6.131 Y10.91 Z-3.01
N12390 X-6.006 Y10.979 Z-3.015
N12395 X-5.88 Y11.047 Z-3.02
N12400 X-5.754 Y11.115 Z-3.025
N12405 X-5.626 Y11.179 Z-3.03
N12410 X-5.369 Y11.306 Z-3.04
N12415 X-5.239 Y11.366 Z-3.045
N12420 X-5.109 Y11.425 Z-3.05
N12425 X-5.104 Y11.427
N12430 G02 X5.105 Y-11.427 I5.105 J-11.427
N12435 X-5.308 Y11.334 I-5.105 J11.427
N12440 G01 X-5.104 Y11.427
N12445 X-4.974 Y11.486 Z-3.055
N12450 X-4.842 Y11.541 Z-3.06
N12455 X-4.709 Y11.596 Z-3.065
N12460 X-4.577 Y11.65 Z-3.07
N12465 X-4.443 Y11.701 Z-3.075
N12470 X-4.309 Y11.751 Z-3.08
N12475 X-4.175 Y11.802 Z-3.085
N12480 X-4.04 Y11.848 Z-3.09
N12485 X-3.802 Y11.928 Z-3.099
N12490 X-3.785 Y11.934
N12495 X-3.777 Y11.936 Z-3.1
N12500 X-3.768 Y11.939
N12505 X-3.763 Y11.94
N12510 G02 X3.763 Y-11.94 I3.763 J-11.94
N12515 X-3.83 Y11.918 I-3.763 J11.94
N12520 G01 X-3.763 Y11.94
N12525 X-3.626 Y11.982 Z-3.105
N12530 X-3.489 Y12.023 Z-3.11
N12535 X-3.352 Y12.064 Z-3.115
N12540 X-3.214 Y12.1 Z-3.12
N12545 X-3.075 Y12.137 Z-3.125
N12550 X-2.937 Y12.173 Z-3.13
N12555 X-2.797 Y12.205 Z-3.135
N12560 X-2.658 Y12.237 Z-3.14
N12565 X-2.518 Y12.268 Z-3.145
N12570 X-2.377 Y12.295 Z-3.15
N12575 X-2.372 Y12.296
N12580 G02 X2.373 Y-12.297 I2.372 J-12.296
N12585 X-2.486 Y12.273 I-2.372 J12.296
N12590 G01 X-2.372 Y12.296
N12595 X-2.232 Y12.323 Z-3.155
N12600 X-2.091 Y12.349 Z-3.16
N12605 X-1.808 Y12.393 Z-3.17
N12610 X-1.667 Y12.415 Z-3.175
N12615 X-1.382 Y12.449 Z-3.185
N12620 X-1.24 Y12.466 Z-3.19
N12625 X-0.955 Y12.491 Z-3.2
N12630 X-0.95
N12635 G02 X0.95 Y-12.492 I0.95 J-12.491
N12640 X-1.008 Y12.487 I-0.95 J12.491
N12645 G01 X-0.95 Y12.491
N12650 X-0.807 Y12.502 Z-3.205
N12655 X-0.521 Y12.518 Z-3.215
N12660 X-0.378 Y12.524 Z-3.22
N12665 X-0.092 Y12.53 Z-3.23
N12670 X0.051 Y12.531 Z-3.235
N12675 X0.337 Y12.527 Z-3.245
N12680 X0.48 Y12.523 Z-3.25
N12685 X0.485
N12690 G02 X-0.485 Y-12.522 I-0.485 J-12.522
N12695 X0.47 Y12.523 I0.485 J12.522
N12700 G01 X0.485
N12705 X0.771 Y12.509 Z-3.26
N12710 X0.914 Y12.5 Z-3.265
N12715 X1.2 Y12.476 Z-3.275
N12720 X1.342 Y12.462 Z-3.28
N12725 X1.627 Y12.429 Z-3.29
N12730 X1.768 Y12.41 Z-3.295
N12735 X1.91 Y12.389 Z-3.3
N12740 X1.915 Y12.388
N12745 G02 X-1.915 Y-12.389 I-1.915 J-12.389
N12750 X1.814 Y12.403 I1.915 J12.389
N12755 G01 X1.915 Y12.388
N12760 X2.057 Y12.367 Z-3.305
N12765 X2.198 Y12.343 Z-3.31
N12770 X2.479 Y12.29 Z-3.32
N12775 X2.619 Y12.261 Z-3.325
N12780 X2.899 Y12.2 Z-3.335
N12785 X3.038 Y12.166 Z-3.34
N12790 X3.315 Y12.094 Z-3.35
N12795 X3.32 Y12.093
N12800 G02 X-3.32 Y-12.093 I-3.32 J-12.093
N12805 X3.293 Y12.1 I3.32 J12.093
N12810 G01 X3.32 Y12.093
N12815 X3.458 Y12.054 Z-3.355
N12820 X3.733 Y11.974 Z-3.365
N12825 X3.869 Y11.93 Z-3.37
N12830 X4.141 Y11.84 Z-3.38
N12835 X4.275 Y11.792 Z-3.385
N12840 X4.544 Y11.693 Z-3.395
N12845 X4.677 Y11.64 Z-3.4
N12850 X4.682 Y11.638
N12855 G02 X-4.682 Y-11.638 I-4.682 J-11.638
N12860 X4.636 Y11.656 I4.682 J11.638
N12865 G01 X4.682 Y11.638
N12870 X4.947 Y11.53 Z-3.41
N12875 X5.078 Y11.472 Z-3.415
N12880 X5.339 Y11.355 Z-3.425
N12885 X5.468 Y11.293 Z-3.43
N12890 X5.597 Y11.23 Z-3.435
N12895 X5.725 Y11.167 Z-3.44
N12900 X5.852 Y11.1 Z-3.445
N12905 X5.978 Y11.033 Z-3.45
N12910 X5.983 Y11.03
N12915 G02 X-5.983 Y-11.031 I-5.983 J-11.031
N12920 X5.98 Y11.032 I5.983 J11.031
N12925 G01 X5.983 Y11.03
N12930 X6.109 Y10.963 Z-3.455
N12935 X6.233 Y10.892 Z-3.46
N12940 X6.357 Y10.82 Z-3.465
N12945 X6.481 Y10.749 Z-3.47
N12950 X6.603 Y10.673 Z-3.475
N12955 X6.724 Y10.598 Z-3.48
N12960 X6.846 Y10.522 Z-3.485
N12965 X6.965 Y10.442 Z-3.49
N12970 X7.173 Y10.302 Z-3.499
N12975 X7.188 Y10.292
N12980 X7.195 Y10.287 Z-3.5
N12985 X7.203 Y10.282
N12990 X7.206 Y10.279
N12995 G02 X-7.206 Y-10.278 I-7.206 J-10.279
N13000 X7.204 Y10.281 I7.206 J10.279
N13005 G01 X7.206 Y10.279
N13010 X7.323 Y10.196 Z-3.505
N13015 X7.439 Y10.112 Z-3.51
N13020 X7.555 Y10.028 Z-3.515
N13025 X7.668 Y9.941 Z-3.52
N13030 X7.781 Y9.853 Z-3.525
N13035 X7.894 Y9.765 Z-3.53
N13040 X8.004 Y9.673 Z-3.535
N13045 X8.114 Y9.582 Z-3.54
N13050 X8.224 Y9.49 Z-3.545
N13055 X8.331 Y9.395 Z-3.55
N13060 X8.335 Y9.392
N13065 G02 X-8.336 Y-9.392 I-8.335 J-9.392
N13070 X8.242 Y9.474 I8.335 J9.392
N13075 G01 X8.335 Y9.392
N13080 X8.442 Y9.297 Z-3.555
N13085 X8.548 Y9.201 Z-3.56
N13090 X8.652 Y9.102 Z-3.565
N13095 X8.756 Y9.003 Z-3.57
N13100 X8.859 Y8.904 Z-3.575
N13105 X8.959 Y8.802 Z-3.58
N13110 X9.059 Y8.7 Z-3.585
N13115 X9.159 Y8.597 Z-3.59
N13120 X9.256 Y8.491 Z-3.595
N13125 X9.352 Y8.386 Z-3.6
N13130 X9.356 Y8.382
N13135 G02 X-9.356 Y-8.383 I-9.356 J-8.382
N13140 X9.34 Y8.399 I9.356 J8.382
N13145 G01 X9.356 Y8.382
N13150 X9.452 Y8.276 Z-3.605
N13155 X9.638 Y8.058 Z-3.615
N13160 X9.73 Y7.949 Z-3.62
N13165 X9.909 Y7.725 Z-3.63
N13170 X9.997 Y7.612 Z-3.635
N13175 X10.082 Y7.498 Z-3.64
N13180 X10.211 Y7.326 Z-3.647
N13185 X10.232 Y7.297 Z-3.649
N13190 X10.242 Y7.282
N13195 X10.248 Y7.275 Z-3.65
N13200 X10.253 Y7.267
N13205 X10.255 Y7.263
N13210 G02 X-10.255 Y-7.263 I-10.255 J-7.263
N13215 X10.212 Y7.324 I10.255 J7.263
N13220 G01 X10.255 Y7.263
N13225 X10.337 Y7.146 Z-3.655
N13230 X10.419 Y7.028 Z-3.66
N13235 X10.499 Y6.91 Z-3.665
N13240 X10.655 Y6.669 Z-3.675
N13245 X10.731 Y6.548 Z-3.68
N13250 X10.878 Y6.303 Z-3.69
N13255 X10.95 Y6.179 Z-3.695
N13260 X11.02 Y6.054 Z-3.7
N13265 X11.022 Y6.049
N13270 G02 X-11.023 Y-6.05 I-11.023 J-6.05
N13275 X10.952 Y6.175 I11.023 J6.05
N13280 G01 X11.022 Y6.049
N13285 X11.092 Y5.924 Z-3.705
N13290 X11.159 Y5.798 Z-3.71
N13295 X11.289 Y5.543 Z-3.72
N13300 X11.352 Y5.415 Z-3.725
N13305 X11.474 Y5.155 Z-3.735
N13310 X11.533 Y5.025 Z-3.74
N13315 X11.645 Y4.762 Z-3.75
N13320 X11.647 Y4.757
N13325 G02 X-11.647 Y-4.757 I-11.647 J-4.757
N13330 X11.641 Y4.771 I11.647 J4.757
N13335 G01 X11.647 Y4.757
N13340 X11.701 Y4.625 Z-3.755
N13345 X11.805 Y4.358 Z-3.765
N13350 X11.854 Y4.223 Z-3.77
N13355 X11.949 Y3.953 Z-3.78
N13360 X11.993 Y3.817 Z-3.785
N13365 X12.079 Y3.544 Z-3.795
N13370 X12.119 Y3.406 Z-3.8
N13375 X12.12 Y3.401
N13380 G02 X-12.12 Y-3.401 I-12.12 J-3.401
N13385 X12.113 Y3.427 I12.12 J3.401
N13390 G01 X12.12 Y3.401
N13395 X12.196 Y3.125 Z-3.81
N13400 X12.231 Y2.987 Z-3.815
N13405 X12.297 Y2.708 Z-3.825
N13410 X12.328 Y2.568 Z-3.83
N13415 X12.385 Y2.288 Z-3.84
N13420 X12.41 Y2.147 Z-3.845
N13425 X12.434 Y2.006 Z-3.85
N13430 X12.435 Y2.001
N13435 G02 X-12.436 Y-2.001 I-12.435 J-2.001
N13440 X12.421 Y2.083 I12.435 J2.001
N13445 G01 X12.435 Y2.001
N13450 X12.458 Y1.859 Z-3.855
N13455 X12.479 Y1.718 Z-3.86
N13460 X12.517 Y1.434 Z-3.87
N13465 X12.532 Y1.292 Z-3.875
N13470 X12.561 Y1.007 Z-3.885
N13475 X12.571 Y0.864 Z-3.89
N13480 X12.59 Y0.578 Z-3.9
N13485 Y0.573
N13490 G02 X-12.59 Y-0.573 I-12.59 J-0.573
N13495 X12.588 Y0.605 I12.59 J0.573
N13500 G01 X12.59 Y0.573
N13505 X12.596 Y0.431 Z-3.905
N13510 X12.604 Y0.144 Z-3.915
N13515 X12.605 Y0.001 Z-3.92
N13520 X12.604 Y-0.285 Z-3.93
N13525 X12.6 Y-0.428 Z-3.935
N13530 X12.589 Y-0.714 Z-3.945
N13535 X12.58 Y-0.857 Z-3.95
N13540 Y-0.862
N13545 G02 X-12.581 Y0.862 I-12.58 J0.862
N13550 X12.588 Y-0.739 I12.58 J-0.862
N13555 G01 X12.58 Y-0.862
N13560 X12.57 Y-1.005 Z-3.955
N13565 X12.56 Y-1.148 Z-3.96
N13570 X12.545 Y-1.29 Z-3.965
N13575 X12.515 Y-1.575 Z-3.975
N13580 X12.496 Y-1.717 Z-3.98
N13585 X12.457 Y-2. Z-3.99
N13590 X12.433 Y-2.141 Z-3.995
N13595 X12.408 Y-2.282 Z-4.
N13600 X12.407 Y-2.287
N13605 G02 X-12.408 Y2.288 I-12.408 J2.287
N13610 X12.443 Y-2.083 I12.408 J-2.287
N13615 G01 X12.407 Y-2.287
N13620 X12.383 Y-2.428 Z-4.005
N13625 X12.354 Y-2.568 Z-4.01
N13630 X12.324 Y-2.709 Z-4.015
N13635 X12.295 Y-2.849 Z-4.02
N13640 X12.261 Y-2.988 Z-4.025
N13645 X12.227 Y-3.127 Z-4.03
N13650 X12.193 Y-3.266 Z-4.035
N13655 X12.155 Y-3.404 Z-4.04
N13660 X12.116 Y-3.542 Z-4.045
N13665 X12.077 Y-3.679 Z-4.05
N13670 X12.075 Y-3.684
N13675 G02 X-12.075 Y3.684 I-12.075 J3.684
N13680 X12.112 Y-3.562 I12.075 J-3.684
N13685 G01 X12.075 Y-3.684
N13690 X12.032 Y-3.82 Z-4.055
N13695 X11.989 Y-3.957 Z-4.06
N13700 X11.945 Y-4.093 Z-4.065
N13705 X11.898 Y-4.228 Z-4.07
N13710 X11.849 Y-4.363 Z-4.075
N13715 X11.801 Y-4.498 Z-4.08
N13720 X11.749 Y-4.631 Z-4.085
N13725 X11.696 Y-4.764 Z-4.09
N13730 X11.643 Y-4.897 Z-4.095
N13735 X11.587 Y-5.029 Z-4.1
N13740 X11.585 Y-5.033
N13745 G02 X-11.585 Y5.033 I-11.585 J5.033
N13750 X11.624 Y-4.942 I11.585 J-5.033
N13755 G01 X11.585 Y-5.033
N13760 X11.528 Y-5.164 Z-4.105
N13765 X11.47 Y-5.296 Z-4.11
N13770 X11.409 Y-5.425 Z-4.115
N13775 X11.347 Y-5.554 Z-4.12
N13780 X11.286 Y-5.683 Z-4.125
N13785 X11.22 Y-5.81 Z-4.13
N13790 X11.154 Y-5.937 Z-4.135
N13795 X11.088 Y-6.064 Z-4.14
N13800 X11.018 Y-6.189 Z-4.145
N13805 X10.948 Y-6.314 Z-4.15
N13810 X10.945 Y-6.318
N13815 G02 X-10.946 Y6.319 I-10.946 J6.319
N13820 X11.06 Y-6.114 I10.946 J-6.319
N13825 G01 X10.945 Y-6.318
N13830 X10.875 Y-6.443 Z-4.155
N13835 X10.801 Y-6.565 Z-4.16
N13840 X10.726 Y-6.688 Z-4.165
N13845 X10.651 Y-6.81 Z-4.17
N13850 X10.573 Y-6.93 Z-4.175
N13855 X10.495 Y-7.049 Z-4.18
N13860 X10.416 Y-7.169 Z-4.185
N13865 X10.334 Y-7.286 Z-4.19
N13870 X10.189 Y-7.491 Z-4.199
N13875 X10.179 Y-7.505
N13880 X10.173 Y-7.512 Z-4.2
N13885 X10.168 Y-7.52
N13890 X10.165 Y-7.523
N13895 G02 X-10.165 Y7.523 I-10.165 J7.523
N13900 X10.212 Y-7.459 I10.165 J-7.523
N13905 G01 X10.165 Y-7.523
N13910 X10.079 Y-7.638 Z-4.205
N13915 X9.993 Y-7.752 Z-4.21
N13920 X9.906 Y-7.866 Z-4.215
N13925 X9.816 Y-7.977 Z-4.22
N13930 X9.726 Y-8.089 Z-4.225
N13935 X9.636 Y-8.2 Z-4.23
N13940 X9.542 Y-8.308 Z-4.235
N13945 X9.448 Y-8.416 Z-4.24
N13950 X9.354 Y-8.524 Z-4.245
N13955 X9.257 Y-8.629 Z-4.25
N13960 X9.254 Y-8.632
N13965 G02 X-9.254 Y8.633 I-9.254 J8.633
N13970 X9.339 Y-8.54 I9.254 J-8.633
N13975 G01 X9.254 Y-8.632
N13980 X9.156 Y-8.737 Z-4.255
N13985 X9.059 Y-8.842 Z-4.26
N13990 X8.958 Y-8.943 Z-4.265
N13995 X8.857 Y-9.045 Z-4.27
N14000 X8.756 Y-9.146 Z-4.275
N14005 X8.651 Y-9.244 Z-4.28
N14010 X8.547 Y-9.342 Z-4.285
N14015 X8.442 Y-9.44 Z-4.29
N14020 X8.335 Y-9.535 Z-4.295
N14025 X8.227 Y-9.629 Z-4.3
N14030 X8.223 Y-9.632
N14035 G02 X-8.224 Y9.633 I-8.224 J9.633
N14040 X8.251 Y-9.609 I8.224 J-9.633
N14045 G01 X8.223 Y-9.632
N14050 X8.116 Y-9.726 Z-4.305
N14055 X8.005 Y-9.817 Z-4.31
N14060 X7.894 Y-9.908 Z-4.315
N14065 X7.783 Y-9.998 Z-4.32
N14070 X7.67 Y-10.085 Z-4.325
N14075 X7.556 Y-10.172 Z-4.33
N14080 X7.442 Y-10.258 Z-4.335
N14085 X7.325 Y-10.342 Z-4.34
N14090 X7.121 Y-10.487 Z-4.349
N14095 X7.107 Y-10.497
N14100 X7.099 Y-10.502 Z-4.35
N14105 X7.092 Y-10.507
N14110 X7.087 Y-10.509
N14115 G02 X-7.087 Y10.51 I-7.087 J10.509
N14120 X7.19 Y-10.439 I7.087 J-10.509
N14125 G01 X7.087 Y-10.509
N14130 X6.968 Y-10.589 Z-4.355
N14135 X6.849 Y-10.668 Z-4.36
N14140 X6.729 Y-10.746 Z-4.365
N14145 X6.608 Y-10.821 Z-4.37
N14150 X6.486 Y-10.896 Z-4.375
N14155 X6.363 Y-10.971 Z-4.38
N14160 X6.239 Y-11.042 Z-4.385
N14165 X6.114 Y-11.112 Z-4.39
N14170 X5.99 Y-11.183 Z-4.395
N14175 X5.863 Y-11.249 Z-4.4
N14180 X5.859 Y-11.251
N14185 G02 X-5.859 Y11.252 I-5.859 J11.252
N14190 X5.916 Y-11.221 I5.859 J-11.252
N14195 G01 X5.859 Y-11.251
N14200 X5.732 Y-11.318 Z-4.405
N14205 X5.605 Y-11.384 Z-4.41
N14210 X5.476 Y-11.446 Z-4.415
N14215 X5.347 Y-11.508 Z-4.42
N14220 X5.218 Y-11.57 Z-4.425
N14225 X5.087 Y-11.627 Z-4.43
N14230 X4.956 Y-11.685 Z-4.435
N14235 X4.825 Y-11.742 Z-4.44
N14240 X4.692 Y-11.796 Z-4.445
N14245 X4.559 Y-11.849 Z-4.45
N14250 X4.554 Y-11.851
N14255 G02 X-4.554 Y11.851 I-4.554 J11.851
N14260 X4.787 Y-11.759 I4.554 J-11.851
N14265 G01 X4.554 Y-11.851
N14270 X4.421 Y-11.903 Z-4.455
N14275 X4.287 Y-11.952 Z-4.46
N14280 X4.152 Y-12.001 Z-4.465
N14285 X4.017 Y-12.049 Z-4.47
N14290 X3.881 Y-12.093 Z-4.475
N14295 X3.745 Y-12.137 Z-4.48
N14300 X3.609 Y-12.181 Z-4.485
N14305 X3.471 Y-12.22 Z-4.49
N14310 X3.333 Y-12.26 Z-4.495
N14315 X3.196 Y-12.299 Z-4.5
N14320 X3.191 Y-12.3
N14325 G02 X-3.19 Y12.299 I-3.191 J12.299
N14330 X3.203 Y-12.297 I3.191 J-12.299
N14335 G01 X3.191 Y-12.3
N14340 X3.052 Y-12.335 Z-4.505
N14345 X2.913 Y-12.369 Z-4.51
N14350 X2.774 Y-12.404 Z-4.515
N14355 X2.634 Y-12.434 Z-4.52
N14360 X2.494 Y-12.464 Z-4.525
N14365 X2.354 Y-12.493 Z-4.53
N14370 X2.213 Y-12.519 Z-4.535
N14375 X2.072 Y-12.544 Z-4.54
N14380 X1.931 Y-12.569 Z-4.545
N14385 X1.79 Y-12.589 Z-4.55
N14390 X1.785 Y-12.59
N14395 G02 X-1.785 Y12.591 I-1.785 J12.59
N14400 X1.814 Y-12.586 I1.785 J-12.59
N14405 G01 X1.785 Y-12.59
N14410 X1.643 Y-12.61 Z-4.555
N14415 X1.501 Y-12.63 Z-4.56
N14420 X1.359 Y-12.646 Z-4.565
N14425 X1.217 Y-12.662 Z-4.57
N14430 X1.075 Y-12.677 Z-4.575
N14435 X0.932 Y-12.688 Z-4.58
N14440 X0.789 Y-12.699 Z-4.585
N14445 X0.646 Y-12.709 Z-4.59
N14450 X0.503 Y-12.715 Z-4.595
N14455 X0.36 Y-12.721 Z-4.6
N14460 X0.355
N14465 G02 X-0.355 Y12.722 I-0.355 J12.721
N14470 X0.605 Y-12.712 I0.355 J-12.721
N14475 G01 X0.355 Y-12.721
N14480 X0.212 Y-12.727 Z-4.605
N14485 X0.069 Y-12.728 Z-4.61
N14490 X-0.074 Y-12.729 Z-4.615
N14495 X-0.217 Z-4.62
N14500 X-0.36 Y-12.726 Z-4.625
N14505 X-0.503 Y-12.722 Z-4.63
N14510 X-0.646 Y-12.718 Z-4.635
N14515 X-0.789 Y-12.71 Z-4.64
N14520 X-1.039 Y-12.694 Z-4.649
N14525 X-1.057 Y-12.693
N14530 X-1.066 Z-4.65
N14535 X-1.075 Y-12.692
N14540 X-1.08 Y-12.691
N14545 G02 X1.08 Y12.691 I1.08 J12.691
N14550 X-1.008 Y-12.697 I-1.08 J-12.691
N14555 G01 X-1.08 Y-12.691
N14560 X-1.222 Y-12.678 Z-4.655
N14565 X-1.365 Y-12.665 Z-4.66
N14570 X-1.507 Y-12.651 Z-4.665
N14575 X-1.649 Y-12.633 Z-4.67
N14580 X-1.791 Y-12.615 Z-4.675
N14585 X-1.933 Y-12.596 Z-4.68
N14590 X-2.074 Y-12.573 Z-4.685
N14595 X-2.216 Y-12.55 Z-4.69
N14600 X-2.357 Y-12.527 Z-4.695
N14605 X-2.497 Y-12.499 Z-4.7
N14610 X-2.502 Y-12.498
N14615 G02 X2.502 Y12.499 I2.502 J12.499
N14620 X-2.486 Y-12.501 I-2.502 J-12.499
N14625 G01 X-2.502 Y-12.498
N14630 X-2.643 Y-12.47 Z-4.705
N14635 X-2.783 Y-12.442 Z-4.71
N14640 X-2.922 Y-12.41 Z-4.715
N14645 X-3.062 Y-12.377 Z-4.72
N14650 X-3.201 Y-12.344 Z-4.725
N14655 X-3.339 Y-12.307 Z-4.73
N14660 X-3.477 Y-12.27 Z-4.735
N14665 X-3.616 Y-12.232 Z-4.74
N14670 X-3.753 Y-12.191 Z-4.745
N14675 X-3.889 Y-12.149 Z-4.75
N14680 X-3.894 Y-12.147
N14685 G02 X3.894 Y12.148 I3.894 J12.148
N14690 X-3.696 Y-12.209 I-3.894 J-12.148
N14695 G01 X-3.894 Y-12.147
N14700 X-4.031 Y-12.105 Z-4.755
N14705 X-4.166 Y-12.059 Z-4.76
N14710 X-4.302 Y-12.012 Z-4.765
N14715 X-4.437 Y-11.966 Z-4.77
N14720 X-4.571 Y-11.916 Z-4.775
N14725 X-4.705 Y-11.865 Z-4.78
N14730 X-4.838 Y-11.813 Z-4.785
N14735 X-4.971 Y-11.759 Z-4.79
N14740 X-5.234 Y-11.648 Z-4.8
N14745 X-5.239 Y-11.645
N14750 G02 X5.239 Y11.645 I5.239 J11.645
N14755 X-5.174 Y-11.674 I-5.239 J-11.645
N14760 G01 X-5.239 Y-11.645
N14765 X-5.369 Y-11.586 Z-4.805
N14770 X-5.629 Y-11.467 Z-4.815
N14775 X-5.757 Y-11.403 Z-4.82
N14780 X-6.013 Y-11.274 Z-4.83
N14785 X-6.139 Y-11.207 Z-4.835
N14790 X-6.39 Y-11.069 Z-4.845
N14795 X-6.514 Y-10.998 Z-4.85
N14800 X-6.518 Y-10.995
N14805 G02 X6.519 Y10.995 I6.519 J10.995
N14810 X-6.518 Y-10.995 I-6.519 J-10.995
N14815 G01 X-6.765 Y-10.849 Z-4.86
N14820 X-6.886 Y-10.773 Z-4.865
N14825 X-7.127 Y-10.619 Z-4.875
N14830 X-7.246 Y-10.539 Z-4.88
N14835 X-7.482 Y-10.377 Z-4.89
N14840 X-7.598 Y-10.293 Z-4.895
N14845 X-7.713 Y-10.208 Z-4.9
N14850 X-7.717 Y-10.205
N14855 G02 X7.718 Y10.206 I7.717 J10.206
N14860 X-7.593 Y-10.298 I-7.717 J-10.206
N14865 G01 X-7.717 Y-10.205
N14870 X-7.832 Y-10.12 Z-4.905
N14875 X-7.945 Y-10.033 Z-4.91
N14880 X-8.17 Y-9.855 Z-4.92
N14885 X-8.28 Y-9.764 Z-4.925
N14890 X-8.498 Y-9.578 Z-4.935
N14895 X-8.605 Y-9.484 Z-4.94
N14900 X-8.817 Y-9.291 Z-4.95
N14905 X-8.821 Y-9.287
N14910 G02 X8.821 Y9.288 I8.821 J9.287
N14915 X-8.803 Y-9.304 I-8.821 J-9.287
N14920 G01 X-8.821 Y-9.287
N14925 X-8.925 Y-9.189 Z-4.955
N14930 X-9.13 Y-8.99 Z-4.965
N14935 X-9.23 Y-8.888 Z-4.97
N14940 X-9.429 Y-8.681 Z-4.98
N14945 X-9.526 Y-8.576 Z-4.985
N14950 X-9.717 Y-8.363 Z-4.995
N14955 X-9.811 Y-8.255 Z-5.
N14960 X-9.814 Y-8.251
N14965 G02 X9.814 Y8.251 I9.814 J8.251
N14970 X-9.802 Y-8.265 I-9.814 J-8.251
N14975 G01 X-9.814 Y-8.251
N14980 X-9.998 Y-8.032 Z-5.01
N14985 X-10.088 Y-7.921 Z-5.015
N14990 X-10.264 Y-7.695 Z-5.025
N14995 X-10.35 Y-7.581 Z-5.03
N15000 X-10.519 Y-7.35 Z-5.04
N15005 X-10.602 Y-7.233 Z-5.045
N15010 X-10.682 Y-7.114 Z-5.05
N15015 X-10.685 Y-7.11
N15020 G02 X10.686 Y7.111 I10.685 J7.11
N15025 X-10.631 Y-7.19 I-10.685 J-7.11
N15030 G01 X-10.685 Y-7.11
N15035 X-10.765 Y-6.991 Z-5.055
N15040 X-10.844 Y-6.872 Z-5.06
N15045 X-10.996 Y-6.63 Z-5.07
N15050 X-11.071 Y-6.508 Z-5.075
N15055 X-11.215 Y-6.26 Z-5.085
N15060 X-11.286 Y-6.136 Z-5.09
N15065 X-11.421 Y-5.884 Z-5.1
N15070 X-11.423 Y-5.879
N15075 G02 X11.424 Y5.88 I11.424 J5.879
N15080 X-11.299 Y-6.115 I-11.424 J-5.879
N15085 G01 X-11.423 Y-5.879
N15090 X-11.49 Y-5.753 Z-5.105
N15095 X-11.617 Y-5.496 Z-5.115
N15100 X-11.679 Y-5.368 Z-5.12
N15105 X-11.798 Y-5.107 Z-5.13
N15110 X-11.856 Y-4.976 Z-5.135
N15115 X-11.91 Y-4.844 Z-5.14
N15120 X-11.992 Y-4.645 Z-5.147
N15125 X-12.006 Y-4.612 Z-5.149
N15130 X-12.013 Y-4.596
N15135 X-12.019 Y-4.579 Z-5.15
N15140 X-12.021 Y-4.574
N15145 G02 X12.02 Y4.574 I12.02 J4.574
N15150 X-11.997 Y-4.637 I-12.02 J-4.574
N15155 G01 X-12.021 Y-4.574
N15160 X-12.071 Y-4.44 Z-5.155
N15165 X-12.121 Y-4.306 Z-5.16
N15170 X-12.171 Y-4.172 Z-5.165
N15175 X-12.216 Y-4.036 Z-5.17
N15180 X-12.262 Y-3.901 Z-5.175
N15185 X-12.307 Y-3.765 Z-5.18
N15190 X-12.348 Y-3.628 Z-5.185
N15195 X-12.389 Y-3.49 Z-5.19
N15200 X-12.429 Y-3.353 Z-5.195
N15205 X-12.466 Y-3.215 Z-5.2
N15210 X-12.467 Y-3.21
N15215 G02 X12.468 Y3.21 I12.468 J3.21
N15220 X-12.446 Y-3.292 I-12.468 J-3.21
N15225 G01 X-12.467 Y-3.21
N15230 X-12.503 Y-3.071 Z-5.205
N15235 X-12.539 Y-2.933 Z-5.21
N15240 X-12.571 Y-2.793 Z-5.215
N15245 X-12.603 Y-2.654 Z-5.22
N15250 X-12.634 Y-2.514 Z-5.225
N15255 X-12.661 Y-2.374 Z-5.23
N15260 X-12.688 Y-2.233 Z-5.235
N15265 X-12.714 Y-2.092 Z-5.24
N15270 X-12.737 Y-1.951 Z-5.245
N15275 X-12.759 Y-1.81 Z-5.25
N15280 X-12.76 Y-1.805
N15285 G02 X12.761 Y1.805 I12.76 J1.805
N15290 X-12.739 Y-1.949 I-12.76 J-1.805
N15295 G01 X-12.76 Y-1.805
N15300 X-12.782 Y-1.663 Z-5.255
N15305 X-12.8 Y-1.521 Z-5.26
N15310 X-12.834 Y-1.237 Z-5.27
N15315 X-12.847 Y-1.095 Z-5.275
N15320 X-12.872 Y-0.81 Z-5.285
N15325 X-12.88 Y-0.667 Z-5.29
N15330 X-12.895 Y-0.381 Z-5.3
N15335 Y-0.376
N15340 G02 X12.895 Y0.376 I12.895 J0.376
N15345 X-12.892 Y-0.47 I-12.895 J-0.376
N15350 G01 X-12.895 Y-0.376
N15355 X-12.9 Y-0.233 Z-5.305
N15360 X-12.905 Y0.053 Z-5.315
N15365 X-12.904 Y0.196 Z-5.32
N15370 X-12.9 Y0.482 Z-5.33
N15375 X-12.896 Y0.625 Z-5.335
N15380 X-12.882 Y0.911 Z-5.345
N15385 X-12.873 Y1.054 Z-5.35
