%
O1001
(T2 D=6. CR=0. - ZMIN=-11. - FLAT END MILL)
N10 G90 G94 G17 G49 G40 G80
N15 G21
N20 G28 G91 Z0.
N25 G90

(POCKET3)
N30 T3 
N32 M06
N35 S6000 M03
N40 G54
N45 G5.1 Q1
N50 G00 X2.415 Y26.166
N55 G43 Z15. H03
N60 G00 Z2.
N65 G01 Z1.65 F50.
N70 X2.405 Y26.149 Z1.498 F200.
N75 X2.376 Y26.1 Z1.356
N80 X2.332 Y26.02 Z1.233
N85 X2.278 Y25.913 Z1.137
N90 X2.22 Y25.786 Z1.075
N95 X2.166 Y25.645 Z1.05
N100 G03 X7.53 Y23.719 Z0.737 I2.682 J-0.963
N105 X2.166 Y25.645 Z0.425 I-2.682 J0.963
N110 X7.53 Y23.719 Z0.112 I2.682 J-0.963
N115 X2.166 Y25.645 Z-0.201 I-2.682 J0.963
N120 X7.53 Y23.719 Z-0.513 I2.682 J-0.963
N125 X2.166 Y25.645 Z-0.826 I-2.682 J0.963
N130 X4.374 Y21.872 Z-1. I2.682 J-0.963
N135 G02 X13.196 Y17.941 I-3.215 J-19.078 F240.
N140 X18.415 Y12.438 I-16.707 J-21.072
N145 X21.59 Y5.55 I-16.758 J-11.9
N150 X19.304 Y-10.964 I-21.585 J-5.427
N155 X6.293 Y-21.385 I-19.78 J11.363
N160 X-11.782 Y-18.962 I-6.427 J20.685
N165 X-21.955 Y-3.826 I12.265 J19.23
N170 X-21.722 Y5.359 I22.111 J4.035
N175 X-17.653 Y13.597 I19.815 J-4.665
N180 X-16.234 Y15.269 I49.67 J-40.705
N185 X-14.65 Y16.784 I9.5 J-8.344
N190 X-5.469 Y21.59 I16.796 J-20.918
N195 X-0.879 Y22.262 I4.698 J-16.057
N200 X3.749 Y21.966 I0.215 J-32.975
N205 X4.374 Y21.872 I-2.59 J-19.172
N210 X6.177 Y20.069 I-0.365 J-2.168
N215 G03 X7.759 Y18.069 I2.611 J0.44
N220 G02 X19.3 Y-3.335 I-7.538 J-17.878
N225 X10.388 Y-16.653 I-19.77 J3.59
N230 X-5.491 Y-18.807 I-10.251 J15.962
N235 X-14.564 Y-12.998 I6.03 J19.407
N240 X-19.303 Y-3.323 I14.608 J13.153
N245 X-15.29 Y12.22 I18.928 J3.403
N250 X-14.175 Y13.526 I32.604 J-26.719
N255 X-12.927 Y14.705 I7.433 J-6.615
N260 X-7.18 Y18.105 I15.24 J-19.206
N265 X-0.667 Y19.573 I7.387 J-17.589
N270 X7.759 Y18.069 I0.888 J-19.382
N275 X9.216 Y15.814 I-0.926 J-2.196
N280 G03 X10.396 Y13.403 I2.909 J-0.071
N285 G02 X15.566 Y6.549 I-8.984 J-12.155
N290 X16.279 Y-4.271 I-17.607 J-6.595
N295 X10.349 Y-13.351 I-15.33 J3.536
N300 X1.359 Y-16.877 I-10.953 J14.7
N305 X-8.078 Y-14.832 I-1.64 J15.229
N310 X-16.428 Y-3.743 I9.265 J15.665
N315 X-13.71 Y9.87 I15.406 J4.002
N320 X-9.042 Y14.309 I15.888 J-12.035
N325 X-3.027 Y16.615 I7.892 J-11.588
N330 X8.031 Y14.836 I2.588 J-19.165
N335 X10.396 Y13.403 I-6.619 J-13.588
N340 X11.308 Y10.668 I-1.491 J-2.017
N345 G03 X11.653 Y7.807 I3.463 J-1.034
N350 G01 X12.565 Y6.252
N355 X12.639 Y6.112
N360 X12.841 Y5.681
N365 X12.879 Y5.597
N370 X12.911 Y5.51
N375 X13.545 Y3.685
N380 X13.573 Y3.598
N385 X13.596 Y3.509
N390 X13.712 Y3.012
N395 X13.741 Y2.859
N400 X14. Y1.035
N405 X14.01 Y0.945
N410 X14.016 Y0.856
N415 X14.035 Y0.358
N420 X14.034 Y0.21
N425 G02 X13.923 Y-1.823 I-41.997 J1.271
N430 G01 X13.914 Y-1.917
N435 X13.9 Y-2.009
N440 X13.82 Y-2.44
N445 X13.421 Y-4.099
N450 X13.281 Y-4.566
N455 X13.251 Y-4.656
N460 X13.217 Y-4.743
N465 G02 X12.413 Y-6.543 I-49.529 J21.036
N470 G01 X12.342 Y-6.687
N475 X12.115 Y-7.102
N480 X12.065 Y-7.188
N485 X12.01 Y-7.271
N490 X10.896 Y-8.847
N495 X10.8 Y-8.97
N500 X10.519 Y-9.302
N505 X10.428 Y-9.401
N510 G02 X8.757 Y-10.977 I-20.153 J19.689
N515 G01 X8.676 Y-11.043
N520 X8.591 Y-11.105
N525 G02 X6.535 Y-12.434 I-16.869 J23.836
N530 G01 X6.404 Y-12.5
N535 G02 X3.847 Y-13.514 I-10.187 J21.949
N540 G01 X3.756 Y-13.536
N545 X3.664 Y-13.552
N550 X1.835 Y-13.913
N555 X1.694 Y-13.935
N560 X1.195 Y-13.992
N565 X1.096 Y-14.
N570 X0.998 Y-14.003
N575 X-0.998
N580 X-1.096 Y-14.
N585 X-1.195 Y-13.992
N590 X-1.694 Y-13.935
N595 X-1.828 Y-13.915
N600 G02 X-3.697 Y-13.545 I7.146 J41.086
N605 G01 X-3.845 Y-13.507
N610 G02 X-4.532 Y-13.277 I2.475 J8.571
N615 X-6.192 Y-12.599 I14.942 J38.92
N620 G01 X-6.295 Y-12.551
N625 X-6.526 Y-12.434
N630 X-6.605 Y-12.392
N635 X-6.681 Y-12.345
N640 X-7.929 Y-11.545
N645 X-7.958 Y-11.526
N650 X-8.623 Y-11.08
N655 X-8.716 Y-11.013
N660 X-8.804 Y-10.941
N665 X-8.97 Y-10.794
N670 X-8.995 Y-10.772
N675 X-9.02 Y-10.749
N680 X-10.313 Y-9.521
N685 X-10.415 Y-9.416
N690 G02 X-10.817 Y-8.95 I6.422 J5.949
N695 G01 X-10.893 Y-8.851
N700 X-11.954 Y-7.358
N705 X-12.041 Y-7.222
N710 X-12.233 Y-6.891
N715 X-12.297 Y-6.77
N720 G02 X-13.166 Y-4.871 I37.178 J18.164
N725 G01 X-13.222 Y-4.73
N730 G02 X-13.421 Y-4.099 I6.919 J2.524
N735 G01 X-13.819 Y-2.44
N740 X-13.9 Y-2.009
N745 X-13.916 Y-1.902
N750 X-13.925 Y-1.795
N755 X-14.033 Y0.196
N760 X-14.035 Y0.358
N765 X-14.016 Y0.856
N770 X-14.01 Y0.947
N775 X-13.999 Y1.037
N780 X-13.725 Y2.945
N785 X-13.711 Y3.029
N790 X-13.693 Y3.112
N795 X-13.592 Y3.526
N800 X-13.545 Y3.685
N805 X-12.911 Y5.51
N810 X-12.881 Y5.591
N815 X-12.847 Y5.67
N820 G02 X-12.439 Y6.474 I7.365 J-3.226
N825 X-11.531 Y8.015 I25.35 J-13.91
N830 G01 X-11.439 Y8.149
N835 G02 X-10.965 Y8.74 I8.278 J-6.147
N840 G01 X-10.058 Y9.786
N845 X-9.975 Y9.875
N850 X-9.628 Y10.222
N855 X-9.555 Y10.292
N860 X-9.477 Y10.358
N865 X-7.975 Y11.549
N870 X-7.86 Y11.633
N875 X-7.527 Y11.856
N880 X-7.402 Y11.932
N885 X-7.165 Y12.063
N890 X-7.142 Y12.076
N895 X-7.118 Y12.088
N900 X-5.538 Y12.9
N905 X-5.458 Y12.939
N910 X-5.375 Y12.973
N915 X-4.959 Y13.136
N920 X-4.814 Y13.185
N925 X-3.152 Y13.672
N930 X-3.125 Y13.679
N935 X-3.098 Y13.686
N940 X-2.849 Y13.751
N945 X-2.747 Y13.774
N950 X-2.645 Y13.791
N955 G02 X-0.08 Y14.046 I3.809 J-25.239
N960 G01 X0.08 Y14.044
N965 G02 X2.645 Y13.789 I-1.034 J-23.445
N970 G01 X2.771 Y13.768
N975 X2.895 Y13.738
N980 X4.808 Y13.187
N985 X4.959 Y13.136
N990 X5.375 Y12.973
N995 X5.458 Y12.939
N1000 X5.539 Y12.9
N1005 X7.237 Y12.027
N1010 X7.377 Y11.946
N1015 G02 X8.071 Y11.476 I-3.61 J-6.071
N1020 G01 X9.401 Y10.421
N1025 X9.618 Y10.233
N1030 X9.718 Y10.138
N1035 X10.058 Y9.786
N1040 G02 X11.441 Y8.151 I-20.843 J-19.028
N1045 G01 X11.5 Y8.066
N1050 X11.553 Y7.978
N1055 X11.653 Y7.807
N1060 G03 X12.102 Y7.726 I0.259 J0.152
N1065 G01 X18.459 Y12.896
N1070 G03 X18.512 Y13.305 I-0.189 J0.233
N1075 X12.848 Y18.683 I-17.279 J-12.527
N1080 X8.686 Y20.958 I-17.206 J-26.526
N1085 X4.139 Y22.308 I-7.186 J-15.867
N1090 G02 X2.111 Y22.658 I8.424 J54.96
N1095 X0.103 Y23.104 I6.534 J34.138
N1100 G01 X0.039 Y23.115
N1105 X-0.025
N1110 X-0.089 Y23.104
N1115 G02 X-4.625 Y22.148 I-14.662 J58.314
N1120 G03 X-9.061 Y20.804 I3.131 J-18.326
N1125 X-22.647 Y0.653 I9.336 J-20.95
N1130 X-2.273 Y-22.529 I22.482 J-0.786
N1135 X22.321 Y-3.884 I2.138 J22.722
N1140 X20.997 Y8.832 I-22.5 J4.086
N1145 X18.512 Y13.305 I-19.764 J-8.055
N1150 G02 X18.413 Y15.57 I1.667 J1.208
N1155 G03 X18.161 Y17.823 I-1.606 J0.961
N1160 X13.826 Y21.43 I-17.796 J-16.978
N1165 X4.264 Y25.035 I-12.891 J-19.713
N1170 G02 X0.75 Y25.726 I4.847 J33.947
N1175 G03 X-0.735 I-0.743 J-2.93
N1180 G02 X-5.501 Y24.701 I-16.541 J65.32
N1185 G03 X-10.161 Y23.272 I3.506 J-19.755
N1190 X-20.602 Y14.832 I10.602 J-23.792
N1195 X-25.293 Y2.252 I20.091 J-14.657
N1200 X24.391 Y-6.942 I25.3 J-2.121
N1205 X25.013 Y3.987 I-23.171 J6.802
N1210 X21.03 Y14.183 I-27.051 J-4.692
N1215 X18.161 Y17.823 I-20.665 J-13.337
N1220 G02 X17.729 Y19.977 I1.486 J1.418
N1225 G03 X17.134 Y22.091 I-1.715 J0.658
N1230 X6.282 Y27.357 I-18.156 J-23.6
N1235 X3.719 Y27.86 I-5.941 J-23.479
N1240 G02 X1.165 Y28.409 I2.55 J18.107
N1245 G03 X-1.205 Y28.397 I-1.165 J-4.007
N1250 G02 X-4.497 Y27.657 I-6.791 J22.518
N1255 G03 X-7.801 Y26.973 I4.581 J-30.454
N1260 X-17.443 Y22.11 I6.689 J-25.253
N1265 X-24.43 Y13.877 I17.711 J-22.114
N1270 X-27.862 Y2.998 I24.252 J-13.63
N1275 X-26.789 Y-8.358 I29.561 J-2.938
N1280 X-23.533 Y-15.249 I23.797 J7.033
N1285 X-18.574 Y-21.036 I28.048 J19.012
N1290 X-3.913 Y-27.831 I17.731 J19.044
N1295 X12.052 Y-25.338 I3.534 J29.74
N1300 X25.159 Y-12.639 I-11.307 J24.782
N1305 X27.561 Y5.451 I-25.418 J12.581
N1310 X20.094 Y19.485 I-26.95 J-5.337
N1315 X17.134 Y22.091 I-21.115 J-20.995
N1320 G02 X15.989 Y24.73 I1.812 J2.355
N1325 G03 X14.606 Y27.254 I-2.546 J0.245
N1330 G01 X14.176 Y27.473
N1335 X12.424 Y28.346
N1340 X11.681 Y28.637
N1345 X9.279 Y29.524
N1350 X8.308 Y29.784
N1355 X6.128 Y30.336
N1360 X5.388 Y30.457
N1365 X2.579 Y30.858
N1370 X2.487 Y30.874
N1375 X2.397 Y30.894
N1380 X1.981 Y31.
N1385 X1.883 Y31.028
N1390 X1.786 Y31.061
N1395 X1.613 Y31.127
N1400 X1.516 Y31.168
N1405 X1.421 Y31.215
N1410 X1.21 Y31.326
N1415 X1.109 Y31.384
N1420 X1.013 Y31.447
N1425 X0.831 Y31.577
N1430 X0.737 Y31.649
N1435 X0.648 Y31.727
N1440 X0.466 Y31.897
N1445 G02 X0.289 Y32.089 I1.197 J1.276
N1450 G01 X0.115 Y32.31
N1455 X0.054 Y32.393
N1460 X-0.003 Y32.479
N1465 X-0.06 Y32.387
N1470 G02 X-0.222 Y32.17 I-1.48 J0.934
N1475 G01 X-0.406 Y31.96
N1480 G02 X-0.587 Y31.78 I-1.318 J1.152
N1485 G01 X-0.77 Y31.625
N1490 X-0.845 Y31.564
N1495 X-0.923 Y31.508
N1500 X-1.045 Y31.425
N1505 X-1.126 Y31.374
N1510 X-1.21 Y31.326
N1515 X-1.421 Y31.215
N1520 G02 X-1.654 Y31.113 I-0.817 J1.547
N1525 G01 X-1.91 Y31.022
N1530 X-1.995 Y30.994
N1535 X-2.08 Y30.971
N1540 X-2.413 Y30.89
N1545 X-2.576 Y30.859
N1550 X-5.669 Y30.412
N1555 X-6.127 Y30.336
N1560 X-8.531 Y29.728
N1565 X-9.353 Y29.5
N1570 X-11.991 Y28.517
N1575 X-12.422 Y28.347
N1580 X-14.83 Y27.144
N1585 X-15.411 Y26.837
N1590 X-17.7 Y25.368
N1595 X-18.153 Y25.067
N1600 X-20.121 Y23.487
N1605 X-20.729 Y22.982
N1610 X-22.747 Y20.964
N1615 X-23.09 Y20.605
N1620 X-24.901 Y18.357
N1625 X-25.127 Y18.069
N1630 X-26.501 Y15.941
N1635 X-26.918 Y15.275
N1640 X-28.163 Y12.79
N1645 X-28.402 Y12.294
N1650 X-29.389 Y9.649
N1655 X-29.561 Y9.158
N1660 X-30.317 Y6.188
N1665 X-30.371 Y5.946
N1670 X-30.743 Y3.368
N1675 X-30.83 Y2.716
N1680 X-30.94 Y-0.426
N1685 X-30.944 Y-0.582
N1690 X-30.731 Y-3.558
N1695 X-30.705 Y-3.881
N1700 X-30.534 Y-4.838
N1705 X-30.121 Y-7.104
N1710 X-29.523 Y-9.166
N1715 X-29.167 Y-10.349
N1720 X-27.903 Y-13.389
N1725 X-26.34 Y-16.246
N1730 X-24.705 Y-18.61
N1735 X-24.406 Y-19.029
N1740 X-22.276 Y-21.484
N1745 X-19.827 Y-23.764
N1750 X-17.217 Y-25.716
N1755 X-17.048 Y-25.822
N1760 X-14.311 Y-27.441
N1765 X-11.331 Y-28.8
N1770 X-8.142 Y-29.857
N1775 X-4.964 Y-30.548
N1780 X-1.652 Y-30.905
N1785 X1.652
N1790 X4.963 Y-30.548
N1795 X8.194 Y-29.844
N1800 X11.33 Y-28.8
N1805 X14.311 Y-27.441
N1810 X17.152 Y-25.759
N1815 X19.265 Y-24.185
N1820 X19.826 Y-23.765
N1825 X22.276 Y-21.484
N1830 X24.403 Y-19.033
N1835 X25.164 Y-17.951
N1840 X26.34 Y-16.247
N1845 X27.903 Y-13.389
N1850 X29.166 Y-10.351
N1855 X29.716 Y-8.506
N1860 X30.121 Y-7.105
N1865 X30.698 Y-3.924
N1870 X30.707 Y-3.851
N1875 X30.922 Y-0.912
N1880 X30.944 Y-0.588
N1885 X30.897 Y0.895
N1890 X30.831 Y2.71
N1895 X30.649 Y4.027
N1900 X30.361 Y6.006
N1905 X29.896 Y7.855
N1910 X29.541 Y9.226
N1915 X29.149 Y10.301
N1920 X28.405 Y12.288
N1925 X27.836 Y13.448
N1930 X26.918 Y15.274
N1935 X26.501 Y15.941
N1940 X25.13 Y18.065
N1945 X24.241 Y19.183
N1950 X23.061 Y20.641
N1955 X22.1 Y21.616
N1960 X20.686 Y23.018
N1965 X19.847 Y23.707
N1970 X18.156 Y25.065
N1975 X17.337 Y25.604
N1980 X15.341 Y26.878
N1985 X14.606 Y27.254
N1990 G03 X14.188 Y27.09 I-0.136 J-0.267
N1995 G01 X11.974 Y21.077
N2000 X11.945 Y21.017
N2005 X11.905 Y20.965
N2010 X7.865 Y16.845
N2015 G03 X7.806 Y16.511 I0.214 J-0.21
N2020 X13. Y18.859 Z-1.313 I2.597 J1.174 F200.
N2025 X7.806 Y16.511 Z-1.625 I-2.597 J-1.174
N2030 X13. Y18.859 Z-1.938 I2.597 J1.174
N2035 X11.827 Y20.154 Z-2. I-2.597 J-1.174
N2040 X7.252 Y22.171 I-11.59 J-20.093 F240.
N2045 X3.749 Y22.992 I-7.084 J-22.331
N2050 G02 X0.215 Y23.667 I7.821 J50.552
N2055 G03 X-0.198 Y23.669 I-0.21 J-0.922
N2060 G02 X-5.222 Y22.661 I-29.844 J135.711
N2065 G03 X-10.076 Y21.019 I3.135 J-17.268
N2070 X-19.137 Y13.183 I11.45 J-22.396
N2075 X-23.245 Y1.929 I18.492 J-13.126
N2080 X-3.751 Y-23.019 I23.246 J-1.927
N2085 X22.748 Y-5.536 I3.75 J23.139
N2090 X11.827 Y20.154 I-22.511 J5.597
N2095 G02 X11.093 Y21.626 I0.745 J1.291
N2100 G03 X10.291 Y23.064 I-1.384 J0.17
N2105 X8.749 Y23.713 I-10.739 J-23.342
N2110 X4.744 Y24.803 I-7.167 J-18.432
N2115 G02 X0.669 Y25.592 I10.87 J67.102
N2120 G03 X-0.638 Y25.597 I-0.665 J-2.949
N2125 G02 X-5.898 Y24.523 I-44.379 J203.919
N2130 G03 X-10.976 Y22.78 I3.555 J-18.629
N2135 X-20.781 Y14.284 I12.352 J-24.161
N2140 X-25.218 Y2.093 I20.122 J-14.227
N2145 X-20.194 Y-15.125 I24.933 J-2.066
N2150 X-5.065 Y-24.758 I20.626 J15.697
N2155 X25.168 Y-2.28 I5.303 J24.438
N2160 X10.291 Y23.064 I-25.616 J2.002
N2165 G02 X9.046 Y25.019 I0.894 J1.944
N2170 G03 X7.674 Y26.887 I-1.944 J0.01
N2175 X6.685 Y27.174 I-9.382 J-30.488
N2180 X3.962 Y27.729 I-5.614 J-20.588
N2185 G02 X1.23 Y28.233 I4.036 J29.509
N2190 G03 X-1.179 Y28.242 I-1.224 J-5.244
N2195 G02 X-6.788 Y27.059 I-45.039 J199.642
N2200 G03 X-12.205 Y25.184 I3.975 J-20.247
N2205 X-23.026 Y15.788 I13.585 J-26.572
N2210 X-27.912 Y2.316 I22.349 J-15.729
N2215 X27.769 Y-3.658 I27.913 J-2.313
N2220 X26.808 Y8.169 I-27.926 J3.685
N2225 X21.011 Y18.521 I-26.345 J-7.954
N2230 X14.476 Y23.887 I-20.389 J-18.166
N2235 X7.674 Y26.887 I-16.184 J-27.488
N2240 G02 X6.059 Y28.765 I0.684 J2.222
N2245 G03 X4.316 Y30.528 I-2.076 J-0.31
N2250 G01 X4.053 Y30.57
N2255 X2.767 Y30.764
N2260 X2.055 Y30.842
N2265 X1.942 Y30.858
N2270 X1.831 Y30.881
N2275 X1.581 Y30.942
N2280 X1.465 Y30.975
N2285 X1.351 Y31.015
N2290 X1.101 Y31.114
N2295 X1.005 Y31.156
N2300 X0.912 Y31.203
N2305 X0.709 Y31.313
N2310 X0.622 Y31.363
N2315 X0.539 Y31.418
N2320 X0.383 Y31.527
N2325 X0.3 Y31.589
N2330 X0.22 Y31.656
N2335 X0.047 Y31.811
N2340 X0.022 Y31.834
N2345 X-0.003 Y31.857
N2350 X-0.062 Y31.798
N2355 X-0.143 Y31.72
N2360 X-0.229 Y31.648
N2365 X-0.385 Y31.526
N2370 X-0.468 Y31.464
N2375 X-0.555 Y31.408
N2380 X-0.752 Y31.288
N2385 X-0.85 Y31.233
N2390 X-0.95 Y31.184
N2395 X-1.199 Y31.073
N2400 X-1.308 Y31.029
N2405 X-1.419 Y30.992
N2410 X-1.669 Y30.919
N2415 X-1.766 Y30.893
N2420 X-1.865 Y30.873
N2425 X-2.031 Y30.844
N2430 X-2.147 Y30.829
N2435 X-2.769 Y30.764
N2440 X-4.715 Y30.463
N2445 X-6.379 Y30.195
N2450 X-7.202 Y29.987
N2455 X-9.605 Y29.328
N2460 X-10.349 Y29.051
N2465 X-12.671 Y28.139
N2470 X-13.503 Y27.722
N2475 X-15.569 Y26.646
N2480 X-16.665 Y25.936
N2485 X-18.294 Y24.855
N2490 X-19.177 Y24.142
N2495 X-20.844 Y22.759
N2500 X-21.697 Y21.902
N2505 X-23.188 Y20.364
N2510 X-23.666 Y19.772
N2515 X-25.214 Y17.794
N2520 X-25.967 Y16.61
N2525 X-26.955 Y15.029
N2530 X-27.41 Y14.118
N2535 X-28.411 Y12.049
N2540 X-29.048 Y10.311
N2545 X-29.524 Y8.988
N2550 X-29.977 Y7.172
N2555 X-30.316 Y5.771
N2560 X-30.646 Y3.374
N2565 X-30.756 Y2.552
N2570 X-30.809 Y0.903
N2575 X-30.853 Y-0.744
N2580 X-30.689 Y-2.889
N2585 X-30.596 Y-4.045
N2590 X-30.535 Y-4.381
N2595 X-29.996 Y-7.258
N2600 X-29.057 Y-10.399
N2605 X-27.983 Y-12.963
N2610 X-27.773 Y-13.457
N2615 X-26.184 Y-16.335
N2620 X-24.288 Y-19.039
N2625 X-22.154 Y-21.485
N2630 X-19.746 Y-23.716
N2635 X-17.249 Y-25.58
N2640 X-17.076 Y-25.707
N2645 X-14.224 Y-27.387
N2650 X-11.278 Y-28.726
N2655 X-8.101 Y-29.778
N2660 X-4.957 Y-30.46
N2665 X-1.652 Y-30.818
N2670 X1.652
N2675 X4.957 Y-30.46
N2680 X8.101 Y-29.778
N2685 X11.278 Y-28.726
N2690 X14.224 Y-27.387
N2695 X17.071 Y-25.71
N2700 X19.69 Y-23.762
N2705 X19.784 Y-23.681
N2710 X22.154 Y-21.485
N2715 X24.288 Y-19.039
N2720 X26.184 Y-16.335
N2725 X27.772 Y-13.46
N2730 X29.051 Y-10.416
N2735 X29.996 Y-7.259
N2740 X30.59 Y-4.072
N2745 X30.601 Y-3.999
N2750 X30.842 Y-0.907
N2755 X30.853 Y-0.751
N2760 X30.769 Y2.223
N2765 X30.757 Y2.544
N2770 X30.331 Y5.672
N2775 X30.305 Y5.828
N2780 X29.567 Y8.822
N2785 X29.526 Y8.982
N2790 X28.57 Y11.625
N2795 X28.382 Y12.117
N2800 X27.083 Y14.776
N2805 X26.957 Y15.025
N2810 X25.462 Y17.41
N2815 X25.175 Y17.849
N2820 X23.574 Y19.886
N2825 X23.141 Y20.419
N2830 X21.322 Y22.284
N2835 X20.848 Y22.756
N2840 X19.165 Y24.152
N2845 X18.295 Y24.854
N2850 X16.005 Y26.368
N2855 X15.575 Y26.643
N2860 X13.103 Y27.924
N2865 X12.599 Y28.171
N2870 X10.015 Y29.176
N2875 X9.53 Y29.352
N2880 X7.203 Y29.986
N2885 X6.379 Y30.195
N2890 X4.316 Y30.528
N2895 G03 X3.969 Y30.221 I-0.048 J-0.296
N2900 G01 X4.283 Y21.544
N2905 G03 X4.522 Y21.261 I0.3 J0.011
N2910 G02 X10.056 Y19.279 I-4.265 J-20.62
N2915 X19.379 Y9.651 I-9.991 J-19.004
N2920 X21.23 Y-3.953 I-19.825 J-9.625
N2925 X14.598 Y-15.976 I-21.306 J3.912
N2930 X1.371 Y-21.69 I-14.782 J16.051
N2935 X-12.472 Y-17.696 I-1.488 J20.83
N2940 X-20.202 Y-7.833 I13.751 J18.737
N2945 X-21.145 Y4.663 I18.61 J7.688
N2950 X-14.673 Y15.735 I21.934 J-5.392
N2955 X-3.175 Y21.416 I15.092 J-16.071
N2960 X4.522 Y21.261 I3.432 J-20.775
N2965 X5.79 Y19.924 I-0.327 J-1.58
N2970 G03 X6.944 Y18.487 I1.816 J0.276
N2975 G02 X12.308 Y15.339 I-6.972 J-18.026
N2980 X14.535 Y13.28 I-17.957 J-21.66
N2985 X16.39 Y10.88 I-9.684 J-9.404
N2990 X19.597 Y-1.045 I-18.91 J-11.478
N2995 X15.144 Y-12.564 I-18.071 J0.366
N3000 X4.453 Y-19.109 I-15.777 J13.768
N3005 X-8.028 Y-17.956 I-4.598 J18.362
N3010 X-17.019 Y9.861 I8.26 J18.031
N3015 X-3.635 Y19.448 I17.039 J-9.651
N3020 X6.944 Y18.487 I3.607 J-18.987
N3025 X8.373 Y16.354 I-0.807 J-2.086
N3030 G03 X9.533 Y14.064 I2.73 J-0.056
N3035 G02 X10.584 Y13.261 I-9.561 J-13.604
N3040 X12.491 Y11.516 I-16.895 J-20.378
N3045 X14.082 Y9.479 I-7.817 J-7.747
N3050 X16.907 Y-0.814 I-16.64 J-10.1
N3055 X13.11 Y-10.789 I-15.403 J0.153
N3060 X3.885 Y-16.469 I-13.75 J11.999
N3065 X-6.904 Y-15.501 I-4.027 J15.73
N3070 X-14.67 Y8.53 I7.136 J15.576
N3075 X-3.147 Y16.792 I14.69 J-8.321
N3080 X9.533 Y14.064 I3.119 J-16.332
N3085 X10.48 Y11.493 I-1.385 J-1.97
N3090 G03 X11.034 Y8.81 I3.016 J-0.777
N3095 G01 X11.534 Y8.164
N3100 X11.592 Y8.084
N3105 X11.646 Y8.001
N3110 X12.309 Y6.908
N3115 X12.389 Y6.779
N3120 X12.46 Y6.654
N3125 X12.591 Y6.396
N3130 X12.608 Y6.364
N3135 X12.93 Y5.7
N3140 X12.969 Y5.615
N3145 X13.003 Y5.527
N3150 X13.538 Y4.034
N3155 X13.567 Y3.948
N3160 X13.591 Y3.861
N3165 X13.835 Y2.865
N3170 X13.855 Y2.778
N3175 X13.869 Y2.689
N3180 X14.077 Y1.196
N3185 X14.087 Y1.107
N3190 X14.093 Y1.018
N3195 G02 X14.115 Y-0.379 I-18.272 J-0.993
N3200 G01 X14.111 Y-0.491
N3205 G02 X14.009 Y-1.857 I-31.806 J1.708
N3210 G01 X13.986 Y-2.021
N3215 G02 X13.705 Y-3.403 I-22.307 J3.822
N3220 G01 X13.676 Y-3.515
N3225 G02 X13.336 Y-4.675 I-18.348 J4.747
N3230 G01 X13.289 Y-4.808
N3235 X13.243 Y-4.924
N3240 X12.753 Y-6.048
N3245 X12.643 Y-6.299
N3250 X12.571 Y-6.445
N3255 X12.091 Y-7.312
N3260 X12.043 Y-7.394
N3265 X11.99 Y-7.473
N3270 X11.074 Y-8.773
N3275 X11.019 Y-8.847
N3280 X10.96 Y-8.918
N3285 X10.295 Y-9.676
N3290 X10.181 Y-9.795
N3295 X9.516 Y-10.423
N3300 X9.499 Y-10.439
N3305 X9.068 Y-10.836
N3310 X8.951 Y-10.934
N3315 G02 X8.018 Y-11.628 I-15.034 J19.253
N3320 G01 X7.911 Y-11.701
N3325 G02 X6.529 Y-12.531 I-13.256 J20.472
N3330 G01 X6.454 Y-12.573
N3335 X6.377 Y-12.61
N3340 G02 X4.993 Y-13.211 I-9.908 J20.912
N3345 G01 X4.878 Y-13.254
N3350 X3.88 Y-13.588
N3355 X3.783 Y-13.617
N3360 X3.685 Y-13.64
N3365 X2.189 Y-13.955
N3370 X2.103 Y-13.971
N3375 X2.016 Y-13.982
N3380 X0.935 Y-14.098
N3385 X0.842 Y-14.106
N3390 X0.748 Y-14.108
N3395 X-0.748
N3400 X-0.842 Y-14.106
N3405 X-0.935 Y-14.098
N3410 X-2.016 Y-13.982
N3415 X-2.16 Y-13.961
N3420 G02 X-3.7 Y-13.637 I5.777 J31.353
N3425 G01 X-3.79 Y-13.615
N3430 X-3.88 Y-13.588
N3435 X-4.878 Y-13.254
N3440 X-4.993 Y-13.211
N3445 G02 X-6.437 Y-12.58 I8.166 J20.649
N3450 G01 X-6.537 Y-12.531
N3455 X-6.633 Y-12.475
N3460 X-7.226 Y-12.106
N3465 X-7.873 Y-11.723
N3470 X-7.947 Y-11.677
N3475 X-8.019 Y-11.627
N3480 G02 X-8.967 Y-10.922 I10.428 J15.013
N3485 G01 X-9.078 Y-10.826
N3490 X-10.174 Y-9.801
N3495 X-10.236 Y-9.74
N3500 X-10.295 Y-9.676
N3505 X-10.96 Y-8.918
N3510 X-11.017 Y-8.849
N3515 X-11.071 Y-8.777
N3520 X-11.906 Y-7.6
N3525 X-11.97 Y-7.504
N3530 G02 X-12.527 Y-6.529 I11.156 J7.02
N3535 G01 X-12.583 Y-6.419
N3540 G02 X-13.251 Y-4.904 I21.103 J10.223
N3545 G01 X-13.302 Y-4.77
N3550 G02 X-13.677 Y-3.512 I18.475 J6.193
N3555 G01 X-13.705 Y-3.403
N3560 G02 X-13.998 Y-1.935 I19.896 J4.734
N3565 G01 X-14.014 Y-1.826
N3570 X-14.023 Y-1.716
N3575 X-14.051 Y-1.201
N3580 X-14.122 Y-0.255
N3585 X-14.126 Y-0.163
N3590 Y-0.07
N3595 X-14.093 Y1.008
N3600 X-14.088 Y1.102
N3605 X-14.077 Y1.196
N3610 X-13.869 Y2.689
N3615 X-13.855 Y2.778
N3620 X-13.835 Y2.865
N3625 X-13.591 Y3.861
N3630 X-13.543 Y4.021
N3635 X-13.253 Y4.85
N3640 X-13.242 Y4.88
N3645 X-12.996 Y5.544
N3650 X-12.965 Y5.623
N3655 X-12.93 Y5.7
N3660 G02 X-11.633 Y8.017 I14.471 J-6.577
N3665 G01 X-11.585 Y8.092
N3670 X-11.534 Y8.164
N3675 G02 X-9.7 Y10.277 I13.566 J-9.922
N3680 G01 X-9.629 Y10.345
N3685 X-9.555 Y10.409
N3690 X-8.339 Y11.401
N3695 X-8.272 Y11.454
N3700 X-8.202 Y11.503
N3705 X-7.364 Y12.059
N3710 X-7.284 Y12.11
N3715 X-7.201 Y12.155
N3720 X-5.794 Y12.885
N3725 X-5.711 Y12.926
N3730 X-5.626 Y12.961
N3735 X-4.712 Y13.319
N3740 X-4.576 Y13.366
N3745 G02 X-3.041 Y13.799 I10.452 J-34.164
N3750 G01 X-2.952 Y13.821
N3755 X-2.862 Y13.838
N3760 G02 X-0.091 Y14.13 I3.059 J-15.745
N3765 G01 X0. Y14.133
N3770 X0.091 Y14.131
N3775 G02 X2.863 Y13.839 I-0.325 J-16.401
N3780 G01 X2.958 Y13.82
N3785 X3.051 Y13.796
N3790 X4.548 Y13.374
N3795 X4.631 Y13.349
N3800 X4.712 Y13.319
N3805 X5.626 Y12.961
N3810 X5.711 Y12.926
N3815 X5.794 Y12.885
N3820 X7.201 Y12.155
N3825 X7.282 Y12.111
N3830 X7.36 Y12.062
N3835 G02 X9.567 Y10.397 I-9.071 J-14.32
N3840 G01 X9.635 Y10.339
N3845 X9.7 Y10.277
N3850 G02 X11.034 Y8.81 I-11.039 J-11.386
N3855 G01 X11.079 Y8.764
N3860 X11.133 Y8.728
N3865 X11.193 Y8.704
N3870 X11.257 Y8.694
N3875 X11.322 Y8.698
N3880 X11.384 Y8.716
N3885 X11.441 Y8.747
N3890 X11.49 Y8.789
N3895 X15.147 Y12.707
N3900 X15.193 Y12.75
N3905 X15.247 Y12.782
N3910 X19.671 Y14.85
N3915 G03 X19.842 Y15.152 I-0.127 J0.272
N3920 X14.172 Y14.568 Z-2.313 I-2.835 J-0.292 F200.
N3925 X19.842 Y15.152 Z-2.625 I2.835 J0.292
N3930 X14.172 Y14.568 Z-2.938 I-2.835 J-0.292
N3935 X14.875 Y12.969 Z-3. I2.835 J0.292
N3940 G02 X18.112 Y8.13 I-16.036 J-14.227 F240.
N3945 X19.72 Y-2.225 I-16.012 J-7.79
N3950 X15.844 Y-11.962 I-22.329 J3.25
N3955 X2.786 Y-19.656 I-15.028 J10.576
N3960 X-12.388 Y-15.514 I-2.326 J21.34
N3965 X-18.529 Y-7.121 I10.581 J14.186
N3970 X-19.588 Y3.224 I21.418 J7.421
N3975 X-11.304 Y16.314 I18.234 J-2.372
N3980 X3.862 Y19.472 I11.697 J-18.176
N3985 X6.65 Y18.705 I-2.171 J-13.348
N3990 X14.875 Y12.969 I-7.811 J-19.963
N3995 X15.17 Y10.478 I-1.643 J-1.457
N4000 G03 X15.171 Y7.971 I2.351 J-1.254
N4005 G02 X16.12 Y5.834 I-14.363 J-7.663
N4010 X16.689 Y-3.494 I-15.607 J-5.632
N4015 X12.436 Y-11.815 I-18.568 J4.242
N4020 X0.665 Y-17.141 I-11.761 J10.321
N4025 X-12.098 Y-12.162 J18.846
N4030 X-16.591 Y-4.336 I10.208 J11.063
N4035 X-16.501 Y4.688 I19.6 J4.316
N4040 X-12.493 Y11.767 I14.386 J-3.471
N4045 X-5.667 Y16.191 I14.209 J-14.444
N4050 X7.274 Y15.535 I5.742 J-14.676
N4055 X12.612 Y11.519 I-9.302 J-17.919
N4060 X15.171 Y7.971 I-11.804 J-11.211
N4065 X14.813 Y5.258 I-2.074 J-1.107
N4070 G03 X14.065 Y2.626 I2.185 J-2.043
N4075 G01 X14.085 Y2.508
N4080 X14.257 Y1.181
N4085 X14.267 Y1.088
N4090 X14.271 Y0.996
N4095 X14.302 Y-0.331
N4100 Y-0.424
N4105 X14.297 Y-0.517
N4110 X14.187 Y-1.844
N4115 X14.177 Y-1.937
N4120 X14.162 Y-2.03
N4125 X13.907 Y-3.357
N4130 X13.887 Y-3.446
N4135 X13.863 Y-3.535
N4140 X13.485 Y-4.779
N4145 X13.456 Y-4.867
N4150 X13.422 Y-4.954
N4155 X12.894 Y-6.198
N4160 X12.856 Y-6.283
N4165 X12.812 Y-6.365
N4170 X12.167 Y-7.527
N4175 X12.12 Y-7.606
N4180 X12.068 Y-7.683
N4185 X11.305 Y-8.767
N4190 X11.249 Y-8.843
N4195 X11.19 Y-8.915
N4200 X10.294 Y-9.935
N4205 X10.231 Y-10.003
N4210 X10.165 Y-10.067
N4215 X9.209 Y-10.949
N4220 X9.141 Y-11.008
N4225 X9.069 Y-11.065
N4230 X8.03 Y-11.84
N4235 X7.955 Y-11.893
N4240 X7.878 Y-11.941
N4245 X6.751 Y-12.612
N4250 X6.635 Y-12.676
N4255 G02 X5.308 Y-13.285 I-9.514 J18.941
N4260 G01 X5.225 Y-13.321
N4265 X5.14 Y-13.351
N4270 X3.877 Y-13.771
N4275 X3.788 Y-13.798
N4280 X3.697 Y-13.821
N4285 X2.367 Y-14.109
N4290 X2.274 Y-14.127
N4295 X2.181 Y-14.139
N4300 X0.851 Y-14.281
N4305 X0.758 Y-14.289
N4310 X0.665 Y-14.291
N4315 X-0.665
N4320 X-0.758 Y-14.289
N4325 X-0.851 Y-14.281
N4330 X-2.181 Y-14.139
N4335 X-2.274 Y-14.127
N4340 X-2.367 Y-14.109
N4345 X-3.697 Y-13.821
N4350 X-3.788 Y-13.798
N4355 X-3.877 Y-13.771
N4360 X-5.14 Y-13.351
N4365 X-5.226 Y-13.32
N4370 X-5.31 Y-13.285
N4375 X-6.477 Y-12.756
N4380 X-6.555 Y-12.719
N4385 X-6.631 Y-12.677
N4390 X-7.195 Y-12.351
N4395 X-7.218 Y-12.337
N4400 X-7.883 Y-11.938
N4405 X-7.958 Y-11.891
N4410 X-8.03 Y-11.84
N4415 X-9.069 Y-11.065
N4420 X-9.141 Y-11.008
N4425 X-9.209 Y-10.949
N4430 X-10.165 Y-10.067
N4435 X-10.231 Y-10.003
N4440 X-10.294 Y-9.935
N4445 X-11.19 Y-8.915
N4450 X-11.249 Y-8.843
N4455 X-11.305 Y-8.767
N4460 X-12.068 Y-7.683
N4465 X-12.12 Y-7.606
N4470 X-12.167 Y-7.527
N4475 X-12.812 Y-6.365
N4480 X-12.856 Y-6.283
N4485 X-12.894 Y-6.198
N4490 X-13.422 Y-4.954
N4495 X-13.456 Y-4.867
N4500 X-13.485 Y-4.779
N4505 X-13.863 Y-3.535
N4510 X-13.886 Y-3.452
N4515 X-13.905 Y-3.367
N4520 X-14.021 Y-2.782
N4525 X-14.024 Y-2.764
N4530 X-14.163 Y-2.021
N4535 X-14.177 Y-1.933
N4540 X-14.187 Y-1.844
N4545 X-14.297 Y-0.517
N4550 X-14.302 Y-0.424
N4555 Y-0.331
N4560 X-14.271 Y0.996
N4565 X-14.267 Y1.088
N4570 X-14.257 Y1.181
N4575 X-14.085 Y2.508
N4580 X-14.07 Y2.6
N4585 X-14.05 Y2.692
N4590 X-13.73 Y4.019
N4595 X-13.706 Y4.109
N4600 X-13.677 Y4.198
N4605 G02 X-13.178 Y5.572 I25.448 J-8.47
N4610 G01 X-13.119 Y5.706
N4615 X-12.546 Y6.876
N4620 X-12.504 Y6.956
N4625 X-12.458 Y7.034
N4630 X-11.793 Y8.099
N4635 X-11.743 Y8.174
N4640 X-11.689 Y8.247
N4645 X-10.846 Y9.329
N4650 X-10.785 Y9.404
N4655 X-10.72 Y9.474
N4660 X-9.759 Y10.461
N4665 X-9.693 Y10.525
N4670 X-9.624 Y10.586
N4675 G02 X-8.534 Y11.484 I19.59 J-22.681
N4680 G01 X-8.415 Y11.57
N4685 X-7.368 Y12.263
N4690 X-7.289 Y12.313
N4695 X-7.208 Y12.358
N4700 X-5.961 Y13.005
N4705 X-5.877 Y13.046
N4710 X-5.792 Y13.082
N4715 X-4.628 Y13.537
N4720 X-4.543 Y13.568
N4725 X-4.457 Y13.594
N4730 X-3.156 Y13.954
N4735 X-3.064 Y13.977
N4740 X-2.971 Y13.994
N4745 X-1.611 Y14.215
N4750 X-1.517 Y14.228
N4755 X-1.423 Y14.236
N4760 X-0.093 Y14.306
N4765 X0. Y14.309
N4770 X0.093 Y14.306
N4775 X1.423 Y14.236
N4780 X1.517 Y14.228
N4785 X1.611 Y14.215
N4790 X2.971 Y13.994
N4795 X3.064 Y13.977
N4800 X3.156 Y13.954
N4805 X4.457 Y13.594
N4810 X4.543 Y13.568
N4815 X4.628 Y13.537
N4820 X5.792 Y13.082
N4825 X5.877 Y13.046
N4830 X5.961 Y13.005
N4835 X7.208 Y12.358
N4840 X7.289 Y12.313
N4845 X7.368 Y12.263
N4850 X8.415 Y11.57
N4855 X8.488 Y11.518
N4860 X8.559 Y11.463
N4865 G02 X9.616 Y10.592 I-15.662 J-20.092
N4870 G01 X9.744 Y10.476
N4875 X9.826 Y10.397
N4880 X10.723 Y9.471
N4885 X10.786 Y9.402
N4890 X10.846 Y9.329
N4895 X11.689 Y8.247
N4900 X11.743 Y8.174
N4905 X11.793 Y8.099
N4910 X12.458 Y7.034
N4915 X12.504 Y6.956
N4920 X12.546 Y6.876
N4925 X13.119 Y5.706
N4930 X13.155 Y5.626
N4935 X13.188 Y5.545
N4940 X13.434 Y4.881
N4945 X13.443 Y4.858
N4950 X13.678 Y4.194
N4955 X13.706 Y4.108
N4960 X13.73 Y4.019
N4965 X14.05 Y2.692
N4970 X14.058 Y2.659
N4975 X14.065 Y2.626
N4980 G03 X14.415 Y2.39 I0.294 J0.059
N4985 G01 X24.449 Y4.297
N4990 G03 X24.688 Y4.647 I-0.056 J0.295
N4995 X14.965 Y20.184 I-24.697 J-4.644
N5000 X7.954 Y23.74 I-13.875 J-18.672
N5005 X0.261 Y25.356 I-12.568 J-40.701
N5010 X-0.304 Y25.35 I-0.259 J-2.248
N5015 X-6.394 Y24.159 I7.302 J-53.476
N5020 X-12.19 Y21.944 I6.752 J-26.364
N5025 X-18.438 Y17.042 I9.902 J-19.057
N5030 X-22.832 Y10.426 I22.452 J-19.676
N5035 X-24.205 Y-6.639 I21.149 J-10.289
N5040 X-15.697 Y-19.478 I25.521 J7.672
N5045 X-1.354 Y-25.091 I15.656 J18.874
N5050 X24.688 Y4.647 I1.345 J25.094
N5055 G02 X25.583 Y6.835 I2.139 J0.402
N5060 G03 X26.315 Y9.082 I-1.121 J1.608
N5065 X5.844 Y27.21 I-26.295 J-9.072
N5070 X3.23 Y27.691 I-9.091 J-42.066
N5075 X0.594 Y28.036 I-9.567 J-62.844
N5080 X-0.722 Y28.018 I-0.587 J-5.353
N5085 X-7.237 Y26.726 I7.486 J-54.819
N5090 X-13.435 Y24.34 I7.539 J-28.822
N5095 X-20.373 Y18.926 I11.124 J-21.408
N5100 X-25.26 Y11.607 I24.302 J-21.519
N5105 X-26.79 Y-7.416 I23.576 J-11.47
N5110 X-21.565 Y-17.468 I29.115 J8.752
N5115 X-12.84 Y-24.693 I21.123 J16.626
N5120 X26.186 Y-9.426 I12.838 J24.698
N5125 X26.315 Y9.082 I-26.167 J9.436
N5130 G02 X26.895 Y11.459 I2.137 J0.737
N5135 G03 X27.331 Y13.866 I-1.426 J1.501
N5140 G01 X26.84 Y14.874
N5145 X25.125 Y17.615
N5150 X23.108 Y20.189
N5155 X20.841 Y22.52
N5160 X18.28 Y24.646
N5165 X15.572 Y26.441
N5170 X12.648 Y27.956
N5175 X9.667 Y29.122
N5180 X6.447 Y29.999
N5185 X3.416 Y30.488
N5190 X2.811 Y30.559
N5195 X0.922 Y30.731
N5200 X0.829 Y30.742
N5205 X0.737 Y30.758
N5210 X0.238 Y30.858
N5215 X0.084 Y30.896
N5220 X0. Y30.921
N5225 G02 X-0.647 Y30.773 I-1.731 J6.045
N5230 G01 X-0.761 Y30.753
N5235 X-1.093 Y30.708
N5240 X-1.226 Y30.695
N5245 X-1.531 Y30.677
N5250 X-2.81 Y30.559
N5255 X-3.415 Y30.488
N5260 X-6.528 Y29.982
N5265 X-9.665 Y29.123
N5270 X-12.713 Y27.927
N5275 X-15.571 Y26.442
N5280 X-18.28 Y24.646
N5285 X-20.841 Y22.52
N5290 X-23.108 Y20.189
N5295 X-25.125 Y17.615
N5300 X-26.84 Y14.874
N5305 X-28.254 Y11.968
N5310 X-29.388 Y8.826
N5315 X-30.154 Y5.689
N5320 X-30.585 Y2.473
N5325 X-30.675 Y-0.824
N5330 X-30.512 Y-2.853
N5335 X-30.406 Y-4.118
N5340 X-29.815 Y-7.256
N5345 X-28.871 Y-10.395
N5350 X-27.576 Y-13.457
N5355 X-26.032 Y-16.245
N5360 X-24.16 Y-18.916
N5365 X-22.016 Y-21.373
N5370 X-21.718 Y-21.654
N5375 X-19.58 Y-23.627
N5380 X-16.947 Y-25.581
N5385 X-14.156 Y-27.225
N5390 X-11.181 Y-28.576
N5395 X-8.101 Y-29.596
N5400 X-4.875 Y-30.295
N5405 X-1.652 Y-30.641
N5410 X1.651
N5415 X4.956 Y-30.281
N5420 X8.1 Y-29.596
N5425 X11.181 Y-28.576
N5430 X14.156 Y-27.225
N5435 X16.947 Y-25.581
N5440 X19.58 Y-23.627
N5445 X21.976 Y-21.417
N5450 X21.993 Y-21.399
N5455 X24.16 Y-18.916
N5460 X26.032 Y-16.245
N5465 X27.576 Y-13.457
N5470 X28.871 Y-10.395
N5475 X29.814 Y-7.257
N5480 X30.417 Y-4.039
N5485 X30.675 Y-0.824
N5490 X30.585 Y2.473
N5495 X30.154 Y5.689
N5500 X29.388 Y8.826
N5505 X28.254 Y11.968
N5510 X27.331 Y13.866
N5515 G03 X26.876 Y13.97 I-0.27 J-0.131
N5520 G01 X22.547 Y10.57
N5525 X22.537 Y10.561
N5530 X22.527 Y10.553
N5535 X22.485 Y10.52
N5540 X22.439 Y10.495
N5545 X22.388 Y10.479
N5550 X17.725 Y9.412
N5555 G03 X17.5 Y9.186 I0.067 J-0.292
N5560 X23.057 Y7.92 Z-3.313 I2.779 J-0.633 F200.
N5565 X17.5 Y9.186 Z-3.625 I-2.779 J0.633
N5570 X23.057 Y7.92 Z-3.938 I2.779 J-0.633
N5575 X22.905 Y9.66 Z-4. I-2.779 J0.633
N5580 X2.333 Y24.755 I-22.911 J-9.66 F240.
N5585 X-6.531 Y-23.984 I-2.247 J-24.767
N5590 X24.638 Y-3.3 I6.543 J23.967
N5595 X22.905 Y9.66 I-24.644 J3.301
N5600 G02 X23.313 Y11.976 I1.997 J0.842
N5605 G03 X23.55 Y14.315 I-1.43 J1.327
N5610 X14.055 Y23.775 I-23.978 J-14.571
N5615 X0.051 Y27.586 I-13.711 J-22.748
N5620 X-15.586 Y22.78 I0.32 J-28.88
N5625 X-25.683 Y9.909 I14.353 J-21.655
N5630 X-27.439 Y1.748 I29.629 J-10.645
N5635 X-26.764 Y-6.573 I26.145 J-2.069
N5640 X10.044 Y-25.666 I26.763 J6.569
N5645 X24.125 Y13.323 I-10.034 J25.661
N5650 X23.55 Y14.315 I-24.553 J-13.579
N5655 G02 X23.61 Y16.767 I1.94 J1.179
N5660 G03 X23.523 Y19.218 I-1.723 J1.166
N5665 G01 X22.869 Y20.051
N5670 X20.665 Y22.314
N5675 X20.044 Y22.835
N5680 X18.139 Y24.415
N5685 X15.406 Y26.223
N5690 X12.578 Y27.692
N5695 X9.51 Y28.888
N5700 X6.408 Y29.732
N5705 X3.414 Y30.214
N5710 X2.835 Y30.284
N5715 X1.563 Y30.361
N5720 X0.258 Y30.431
N5725 X0.019 Y30.439
N5730 X-2.84 Y30.284
N5735 X-3.413 Y30.214
N5740 X-6.457 Y29.721
N5745 X-9.591 Y28.862
N5750 X-12.577 Y27.693
N5755 X-15.406 Y26.223
N5760 X-18.139 Y24.415
N5765 X-20.606 Y22.37
N5770 X-20.7 Y22.279
N5775 X-22.914 Y19.999
N5780 X-24.901 Y17.463
N5785 X-26.623 Y14.705
N5790 X-28.024 Y11.822
N5795 X-29.129 Y8.745
N5800 X-29.893 Y5.608
N5805 X-30.32 Y2.392
N5810 X-30.404 Y-0.823
N5815 X-30.146 Y-4.038
N5820 X-29.872 Y-5.492
N5825 X-29.536 Y-7.254
N5830 X-28.613 Y-10.316
N5835 X-27.355 Y-13.297
N5840 X-25.8 Y-16.105
N5845 X-23.924 Y-18.781
N5850 X-21.759 Y-21.249
N5855 X-19.435 Y-23.394
N5860 X-16.822 Y-25.339
N5865 X-13.991 Y-27.005
N5870 X-11.084 Y-28.324
N5875 X-7.995 Y-29.346
N5880 X-4.875 Y-30.022
N5885 X-1.652 Y-30.369
N5890 X1.652
N5895 X4.875 Y-30.022
N5900 X7.995 Y-29.346
N5905 X11.084 Y-28.324
N5910 X13.991 Y-27.005
N5915 X16.822 Y-25.339
N5920 X19.435 Y-23.394
N5925 X21.759 Y-21.249
N5930 X23.924 Y-18.781
N5935 X25.8 Y-16.105
N5940 X27.355 Y-13.297
N5945 X28.612 Y-10.317
N5950 X29.555 Y-7.174
N5955 X30.146 Y-4.038
N5960 X30.404 Y-0.824
N5965 X30.313 Y2.472
N5970 X29.883 Y5.659
N5975 X29.105 Y8.825
N5980 X28.024 Y11.821
N5985 X26.623 Y14.705
N5990 X24.902 Y17.463
N5995 X23.523 Y19.218
N6000 G03 X23.065 Y19.234 I-0.236 J-0.185
N6005 G01 X16.456 Y11.973
N6010 G03 X16.428 Y11.606 I0.222 J-0.202
N6015 G02 X19.152 Y6.176 I-21.096 J-13.983
N6020 X17.803 Y-9.387 I-17.589 J-6.316
N6025 X5.723 Y-19.292 I-18.945 J10.788
N6030 X-3.819 Y-19.759 I-5.61 J16.909
N6035 X-12.501 Y-15.769 I5.102 J22.542
N6040 X-13.07 Y-15.3 I4.353 J5.86
N6045 X-18.673 Y-7.501 I15.699 J17.19
N6050 X-20.023 Y2.007 I16.226 J7.153
N6055 X-14.125 Y14.325 I21.955 J-2.941
N6060 X-1.725 Y20.049 I13.4 J-12.734
N6065 X11.687 Y16.382 I1.192 J-21.996
N6070 X16.243 Y11.881 I-9.231 J-13.901
N6075 G01 X16.428 Y11.606
N6080 G02 X16.434 Y9.124 I-1.879 J-1.246
N6085 G03 X16.21 Y6.652 I2.205 J-1.446
N6090 G02 X17.409 Y-0.743 I-14.57 J-6.156
N6095 X15.525 Y-7.668 I-19.463 J1.575
N6100 X11.174 Y-13.374 I-16.164 J7.815
N6105 X-0.657 Y-17.443 I-10.91 J12.489
N6110 X-12.144 Y-12.488 I1.007 J18.13
N6115 X-17.203 Y2.799 I11.722 J12.36
N6120 X-7.561 Y15.695 I17.534 J-3.058
N6125 X4.223 Y16.821 I7.37 J-14.899
N6130 X14.079 Y10.266 I-5.025 J-18.243
N6135 X16.21 Y6.652 I-12.44 J-9.77
N6140 X15.568 Y3.876 I-2.237 J-0.945
N6145 G03 X14.527 Y1.223 I2.025 J-2.325
N6150 G01 X14.537 Y1.083
N6155 X14.573 Y-0.327
N6160 Y-0.42
N6165 X14.568 Y-0.514
N6170 X14.461 Y-1.841
N6175 X14.451 Y-1.932
N6180 X14.436 Y-2.022
N6185 X14.187 Y-3.349
N6190 X14.168 Y-3.441
N6195 X14.143 Y-3.531
N6200 X13.744 Y-4.858
N6205 X13.715 Y-4.947
N6210 X13.681 Y-5.034
N6215 X13.153 Y-6.285
N6220 X13.114 Y-6.37
N6225 X13.071 Y-6.453
N6230 X12.396 Y-7.669
N6235 X12.349 Y-7.75
N6240 X12.298 Y-7.827
N6245 X11.524 Y-8.927
N6250 X11.47 Y-9.
N6255 X11.411 Y-9.071
N6260 X10.531 Y-10.079
N6265 X10.469 Y-10.146
N6270 X10.404 Y-10.21
N6275 G02 X9.299 Y-11.227 I-18.047 J18.501
N6280 G01 X9.191 Y-11.314
N6285 X8.178 Y-12.067
N6290 X8.106 Y-12.117
N6295 X8.032 Y-12.164
N6300 X7.216 Y-12.652
N6305 X7.196 Y-12.664
N6310 X6.781 Y-12.905
N6315 X6.703 Y-12.947
N6320 X6.624 Y-12.985
N6325 X5.377 Y-13.549
N6330 X5.293 Y-13.585
N6335 X5.207 Y-13.616
N6340 X3.975 Y-14.024
N6345 X3.817 Y-14.069
N6350 X3.386 Y-14.168
N6355 X3.353 Y-14.175
N6360 X2.356 Y-14.385
N6365 X2.267 Y-14.402
N6370 X2.178 Y-14.413
N6375 X0.847 Y-14.553
N6380 X0.756 Y-14.56
N6385 X0.665 Y-14.562
N6390 X-0.665
N6395 X-0.756 Y-14.56
N6400 X-0.847 Y-14.553
N6405 X-2.178 Y-14.413
N6410 X-2.268 Y-14.401
N6415 X-2.358 Y-14.385
N6420 X-3.643 Y-14.112
N6425 X-3.772 Y-14.08
N6430 G02 X-5.208 Y-13.615 I6.062 J21.182
N6435 G01 X-5.293 Y-13.585
N6440 X-5.377 Y-13.549
N6445 X-6.624 Y-12.985
N6450 X-6.707 Y-12.945
N6455 X-6.787 Y-12.901
N6460 G02 X-8.073 Y-12.139 I10.958 J19.962
N6465 G01 X-8.178 Y-12.067
N6470 X-9.191 Y-11.314
N6475 X-9.261 Y-11.26
N6480 X-9.327 Y-11.202
N6485 X-10.159 Y-10.442
N6490 X-10.183 Y-10.42
N6495 X-10.417 Y-10.198
N6500 X-10.531 Y-10.079
N6505 X-11.411 Y-9.071
N6510 X-11.47 Y-9.
N6515 X-11.524 Y-8.927
N6520 X-12.298 Y-7.827
N6525 X-12.349 Y-7.75
N6530 X-12.396 Y-7.669
N6535 X-13.071 Y-6.453
N6540 X-13.114 Y-6.37
N6545 X-13.153 Y-6.285
N6550 X-13.681 Y-5.034
N6555 X-13.713 Y-4.95
N6560 X-13.742 Y-4.864
N6565 X-13.978 Y-4.091
N6570 X-13.983 Y-4.075
N6575 X-14.146 Y-3.521
N6580 X-14.169 Y-3.436
N6585 X-14.187 Y-3.349
N6590 X-14.436 Y-2.022
N6595 X-14.451 Y-1.932
N6600 X-14.461 Y-1.841
N6605 X-14.568 Y-0.514
N6610 X-14.573 Y-0.42
N6615 Y-0.327
N6620 X-14.537 Y1.083
N6625 X-14.532 Y1.177
N6630 X-14.522 Y1.27
N6635 X-14.344 Y2.597
N6640 X-14.329 Y2.689
N6645 X-14.31 Y2.78
N6650 X-13.982 Y4.124
N6655 X-13.958 Y4.213
N6660 X-13.929 Y4.3
N6665 X-13.488 Y5.527
N6670 X-13.457 Y5.608
N6675 X-13.421 Y5.688
N6680 X-13.106 Y6.351
N6685 X-13.093 Y6.378
N6690 X-12.763 Y7.041
N6695 X-12.723 Y7.117
N6700 X-12.68 Y7.191
N6705 G02 X-11.913 Y8.403 I19.264 J-11.343
N6710 G01 X-11.836 Y8.508
N6715 X-11.018 Y9.545
N6720 X-10.96 Y9.614
N6725 X-10.899 Y9.681
N6730 X-10.005 Y10.601
N6735 X-9.898 Y10.702
N6740 G02 X-8.762 Y11.65 I19.567 J-22.285
N6745 G01 X-8.691 Y11.706
N6750 X-8.617 Y11.758
N6755 X-7.496 Y12.503
N6760 X-7.418 Y12.551
N6765 X-7.339 Y12.595
N6770 G02 X-6.03 Y13.272 I15.964 J-29.262
N6775 G01 X-5.892 Y13.333
N6780 X-4.718 Y13.792
N6785 X-4.635 Y13.822
N6790 X-4.55 Y13.848
N6795 G02 X-3.091 Y14.246 I9.615 J-32.392
N6800 G01 X-2.933 Y14.278
N6805 X-1.603 Y14.489
N6810 X-1.513 Y14.5
N6815 X-1.421 Y14.508
N6820 X-0.091 Y14.577
N6825 X0. Y14.579
N6830 X0.091 Y14.577
N6835 X1.421 Y14.508
N6840 X1.513 Y14.5
N6845 X1.603 Y14.489
N6850 X2.933 Y14.278
N6855 X3.023 Y14.262
N6860 X3.112 Y14.24
N6865 G02 X4.582 Y13.839 I-6.471 J-26.583
N6870 G01 X4.718 Y13.792
N6875 X5.892 Y13.333
N6880 X5.974 Y13.299
N6885 X6.054 Y13.26
N6890 X7.118 Y12.714
N6895 X7.148 Y12.698
N6900 X7.357 Y12.586
N6905 X7.496 Y12.503
N6910 X8.617 Y11.758
N6915 X8.691 Y11.706
N6920 X8.763 Y11.65
N6925 G02 X9.813 Y10.78 I-15.731 J-20.068
N6930 G01 X10.005 Y10.601
N6935 X10.899 Y9.681
N6940 X10.96 Y9.614
N6945 X11.018 Y9.545
N6950 X11.836 Y8.508
N6955 X11.887 Y8.44
N6960 X11.934 Y8.37
N6965 X12.254 Y7.872
N6970 X12.265 Y7.854
N6975 X12.68 Y7.191
N6980 X12.724 Y7.115
N6985 X12.765 Y7.038
N6990 X13.208 Y6.141
N6995 X13.223 Y6.11
N7000 X13.425 Y5.68
N7005 X13.488 Y5.527
N7010 X13.929 Y4.3
N7015 X13.958 Y4.213
N7020 X13.982 Y4.124
N7025 X14.31 Y2.78
N7030 X14.329 Y2.689
N7035 X14.344 Y2.597
N7040 X14.522 Y1.27
N7045 X14.525 Y1.247
N7050 X14.527 Y1.223
N7055 G03 X14.867 Y0.958 I0.298 J0.032
N7060 G01 X20.286 Y1.707
N7065 X20.336 Y1.706
N7070 X20.386 Y1.696
N7075 X25.33 Y0.297
N7080 G03 X25.672 Y0.436 I0.082 J0.289
N7085 X20.739 Y3.293 Z-4.313 I-2.466 J1.429 F200.
N7090 X25.672 Y0.436 Z-4.625 I2.466 J-1.429
N7095 X20.739 Y3.293 Z-4.938 I-2.466 J1.429
N7100 X20.369 Y1.585 Z-5. I2.466 J-1.429
N7105 G02 X20.469 Y0.077 I-23.56 J-2.316 F240.
N7110 X18.169 Y-9.484 I-18.408 J-0.629
N7115 X12.093 Y-16.382 I-18.772 J10.41
N7120 X3.712 Y-20.16 I-13.077 J17.828
N7125 X-9.988 Y-17.897 I-3.999 J18.397
N7130 X-19.106 Y-7.424 I11.614 J19.316
N7135 X-19.53 Y6.39 I17.466 J7.449
N7140 X-11.018 Y17.278 I20.59 J-7.325
N7145 X-0.58 Y20.447 I10.513 J-15.854
N7150 X10.023 Y17.881 I0.09 J-22.815
N7155 X18.099 Y9.621 I-8.517 J-16.407
N7160 X20.369 Y1.585 I-21.291 J-10.352
N7165 X19.077 Y-0.678 I-2.242 J-0.22
N7170 G03 X17.54 Y-2.782 I1.136 J-2.443
N7175 G02 X17.375 Y-3.858 I-20.25 J2.563
N7180 X14.175 Y-10.751 I-14.939 J2.747
N7185 X8.402 Y-15.692 I-16.829 J13.818
N7190 X3.031 Y-17.595 I-7.581 J12.863
N7195 X-2.666 Y-17.602 I-2.87 J19.171
N7200 X-17.497 Y-3.212 I2.58 J17.496
N7205 X-16.506 Y6.352 I17.065 J3.066
N7210 X-10.839 Y14.119 I18.291 J-7.394
N7215 X-4.93 Y17.105 I9.429 J-11.323
N7220 X1.662 Y17.723 I5.374 J-21.85
N7225 X2.147 Y17.67 I-0.249 J-4.593
N7230 X10.835 Y14.124 I-3.32 J-20.547
N7235 X16.511 Y6.65 I-8.979 J-12.711
N7240 X17.54 Y-2.782 I-19.221 J-6.869
N7245 X15.667 Y-4.788 I-2.326 J0.294
N7250 G03 X13.487 Y-6.456 I0.599 J-3.041
N7255 G01 X13.479 Y-6.471
N7260 G02 X12.721 Y-7.859 I-19.024 J9.488
N7265 G01 X12.676 Y-7.937
N7270 X12.626 Y-8.012
N7275 X11.859 Y-9.107
N7280 X11.769 Y-9.225
N7285 G02 X10.807 Y-10.334 I-24.471 J20.24
N7290 G01 X10.747 Y-10.4
N7295 X10.683 Y-10.462
N7300 X9.671 Y-11.403
N7305 X9.554 Y-11.503
N7310 G02 X8.364 Y-12.395 I-20.387 J25.949
N7315 G01 X8.289 Y-12.448
N7320 X8.211 Y-12.497
N7325 X6.955 Y-13.237
N7330 X6.874 Y-13.282
N7335 X6.791 Y-13.322
N7340 G02 X5.447 Y-13.927 I-13.426 J28.063
N7345 G01 X5.31 Y-13.978
N7350 X4.04 Y-14.397
N7355 X3.953 Y-14.423
N7360 X3.866 Y-14.445
N7365 X2.536 Y-14.736
N7370 X2.371 Y-14.764
N7375 X1.872 Y-14.824
N7380 X1.84 Y-14.827
N7385 X0.843 Y-14.929
N7390 X0.754 Y-14.936
N7395 X0.665 Y-14.938
N7400 X-0.665
N7405 X-0.755 Y-14.936
N7410 X-0.845 Y-14.929
N7415 G02 X-2.251 Y-14.782 I2.268 J28.519
N7420 G01 X-2.417 Y-14.757
N7425 X-2.536 Y-14.736
N7430 X-3.866 Y-14.445
N7435 X-3.953 Y-14.423
N7440 X-4.04 Y-14.397
N7445 X-5.31 Y-13.978
N7450 X-5.394 Y-13.948
N7455 X-5.477 Y-13.913
N7460 X-6.644 Y-13.39
N7465 X-6.665 Y-13.381
N7470 X-6.803 Y-13.317
N7475 X-6.88 Y-13.279
N7480 X-6.955 Y-13.237
N7485 X-8.211 Y-12.497
N7490 X-8.289 Y-12.448
N7495 X-8.364 Y-12.395
N7500 G02 X-9.571 Y-11.489 I13.072 J18.678
N7505 G01 X-9.671 Y-11.403
N7510 X-10.683 Y-10.462
N7515 X-10.747 Y-10.399
N7520 X-10.808 Y-10.334
N7525 G02 X-11.785 Y-9.205 I15.559 J14.464
N7530 G01 X-11.859 Y-9.107
N7535 X-12.626 Y-8.012
N7540 X-12.676 Y-7.936
N7545 X-12.722 Y-7.858
N7550 X-13.386 Y-6.662
N7555 X-13.429 Y-6.582
N7560 X-13.467 Y-6.499
N7565 X-14.001 Y-5.246
N7570 X-14.044 Y-5.135
N7575 G02 X-14.488 Y-3.697 I18.178 J6.406
N7580 G01 X-14.518 Y-3.584
N7585 G02 X-14.817 Y-2.009 I20.434 J4.694
N7590 G01 X-14.83 Y-1.924
N7595 X-14.839 Y-1.838
N7600 X-14.944 Y-0.511
N7605 X-14.949 Y-0.421
N7610 Y-0.331
N7615 G02 X-14.914 Y1.078 I26.776 J0.031
N7620 G01 X-14.902 Y1.244
N7625 X-14.89 Y1.359
N7630 X-14.703 Y2.722
N7635 X-14.688 Y2.811
N7640 X-14.669 Y2.899
N7645 X-14.354 Y4.19
N7650 X-14.33 Y4.278
N7655 X-14.302 Y4.364
N7660 X-13.827 Y5.691
N7665 X-13.793 Y5.78
N7670 X-13.753 Y5.867
N7675 X-13.108 Y7.194
N7680 X-13.065 Y7.278
N7685 X-13.017 Y7.359
N7690 X-12.288 Y8.52
N7695 X-12.238 Y8.596
N7700 X-12.184 Y8.669
N7705 X-11.339 Y9.748
N7710 X-11.28 Y9.818
N7715 X-11.218 Y9.886
N7720 X-10.236 Y10.9
N7725 X-10.169 Y10.966
N7730 X-10.098 Y11.028
N7735 X-9.016 Y11.929
N7740 X-8.943 Y11.986
N7745 X-8.868 Y12.039
N7750 X-7.956 Y12.649
N7755 X-7.928 Y12.668
N7760 X-7.604 Y12.875
N7765 X-7.465 Y12.956
N7770 X-6.293 Y13.564
N7775 X-6.211 Y13.604
N7780 X-6.127 Y13.64
N7785 X-4.797 Y14.163
N7790 X-4.709 Y14.194
N7795 X-4.62 Y14.222
N7800 X-3.291 Y14.586
N7805 X-3.201 Y14.608
N7810 X-3.11 Y14.626
N7815 X-1.695 Y14.857
N7820 X-1.601 Y14.869
N7825 X-1.507 Y14.877
N7830 X-0.094 Y14.953
N7835 X0. Y14.955
N7840 X0.094 Y14.953
N7845 X1.507 Y14.877
N7850 X1.601 Y14.869
N7855 X1.695 Y14.857
N7860 X3.11 Y14.626
N7865 X3.201 Y14.608
N7870 X3.291 Y14.586
N7875 X4.62 Y14.222
N7880 X4.709 Y14.194
N7885 X4.797 Y14.163
N7890 X6.127 Y13.64
N7895 X6.211 Y13.604
N7900 X6.293 Y13.564
N7905 X7.465 Y12.956
N7910 X7.544 Y12.912
N7915 X7.62 Y12.865
N7920 X8.775 Y12.106
N7925 X8.877 Y12.034
N7930 X9.041 Y11.908
N7935 X9.071 Y11.885
N7940 X9.099 Y11.861
N7945 X10.1 Y11.026
N7950 X10.169 Y10.965
N7955 X10.236 Y10.9
N7960 X11.218 Y9.886
N7965 X11.28 Y9.818
N7970 X11.339 Y9.748
N7975 X12.184 Y8.669
N7980 X12.238 Y8.596
N7985 X12.288 Y8.52
N7990 X13.017 Y7.359
N7995 X13.065 Y7.278
N8000 X13.108 Y7.194
N8005 X13.753 Y5.867
N8010 X13.793 Y5.78
N8015 X13.827 Y5.691
N8020 X14.302 Y4.364
N8025 X14.33 Y4.278
N8030 X14.354 Y4.19
N8035 X14.669 Y2.899
N8040 X14.688 Y2.811
N8045 X14.703 Y2.722
N8050 X14.89 Y1.359
N8055 X14.902 Y1.244
N8060 X14.914 Y1.078
N8065 G02 X14.949 Y-0.331 I-26.188 J-1.366
N8070 G01 Y-0.421
N8075 X14.944 Y-0.511
N8080 X14.839 Y-1.838
N8085 X14.83 Y-1.927
N8090 X14.816 Y-2.016
N8095 G02 X14.556 Y-3.418 I-28.223 J4.497
N8100 G01 X14.518 Y-3.584
N8105 X14.488 Y-3.699
N8110 X14.105 Y-4.963
N8115 X14.077 Y-5.049
N8120 X14.045 Y-5.132
N8125 X13.532 Y-6.356
N8130 X13.518 Y-6.39
N8135 X13.503 Y-6.423
N8140 X13.487 Y-6.456
N8145 G03 X13.621 Y-6.857 I0.269 J-0.133
N8150 G01 X21.624 Y-10.89
N8155 G03 X22.026 Y-10.758 I0.135 J0.268
N8160 X24.312 Y2.627 I-20.238 J10.344
N8165 X19.75 Y14.297 I-26.29 J-3.55
N8170 X10.107 Y22.297 I-19.436 J-13.614
N8175 X-23.441 Y7.062 I-10.105 J-22.303
N8180 X-24.425 Y-2.281 I24.198 J-7.274
N8185 X-21.702 Y-11.272 I22.23 J1.826
N8190 X-17.008 Y-17.551 I25.378 J14.073
N8195 X-10.582 Y-22.042 I15.301 J15.056
N8200 X-0.516 Y-24.443 I11.21 J24.689
N8205 X9.641 Y-22.468 I0.941 J22.274
N8210 X21.131 Y-12.349 I-10.854 J23.905
N8215 X22.026 Y-10.758 I-19.343 J11.935
N8220 G02 X23.934 Y-9.623 I1.857 J-0.949
N8225 G03 X25.743 Y-8.335 I0.045 J1.851
N8230 X27.121 Y1.316 I-27.812 J8.896
N8235 X21.695 Y16.509 I-25.86 J-0.669
N8240 X8.518 Y25.816 I-21.86 J-16.969
N8245 X-26.72 Y4.998 I-8.525 J-25.802
N8250 X-26.419 Y-6.057 I25.731 J-4.831
N8255 X-21.848 Y-16.126 I29.018 J7.102
N8260 X-7.913 Y-25.974 I20.744 J14.571
N8265 X9.146 Y-25.569 I7.864 J28.199
N8270 X22.578 Y-15.098 I-7.96 J24.061
N8275 X25.743 Y-8.335 I-24.646 J15.658
N8280 G02 X27.718 Y-6.7 I2.264 J-0.724
N8285 G03 X29.589 Y-4.947 I-0.264 J2.157
N8290 G01 X29.777 Y-3.955
N8295 X30.027 Y-0.823
N8300 X29.944 Y2.39
N8305 X29.51 Y5.606
N8310 X28.764 Y8.659
N8315 X27.657 Y11.719
N8320 X26.286 Y14.538
N8325 X24.577 Y17.273
N8330 X22.584 Y19.806
N8335 X20.368 Y22.08
N8340 X17.91 Y24.116
N8345 X15.227 Y25.893
N8350 X12.401 Y27.36
N8355 X9.413 Y28.526
N8360 X6.363 Y29.357
N8365 X3.221 Y29.865
N8370 X0. Y30.04
N8375 X-3.221 Y29.865
N8380 X-6.362 Y29.358
N8385 X-9.463 Y28.508
N8390 X-12.451 Y27.336
N8395 X-15.226 Y25.894
N8400 X-17.932 Y24.099
N8405 X-20.367 Y22.08
N8410 X-22.626 Y19.757
N8415 X-24.576 Y17.274
N8420 X-26.286 Y14.539
N8425 X-27.691 Y11.638
N8430 X-28.763 Y8.662
N8435 X-29.525 Y5.525
N8440 X-29.944 Y2.392
N8445 X-30.027 Y-0.823
N8450 X-29.777 Y-3.955
N8455 X-29.17 Y-7.166
N8460 X-28.243 Y-10.228
N8465 X-27.02 Y-13.125
N8470 X-25.45 Y-15.956
N8475 X-23.64 Y-18.533
N8480 X-21.496 Y-20.981
N8485 X-19.167 Y-23.129
N8490 X-16.574 Y-25.052
N8495 X-13.877 Y-26.641
N8500 X-10.917 Y-27.984
N8505 X-7.935 Y-28.971
N8510 X-4.792 Y-29.654
N8515 X-1.571 Y-29.997
N8520 X1.651 Y-29.992
N8525 X4.791 Y-29.655
N8530 X7.935 Y-28.971
N8535 X10.917 Y-27.984
N8540 X13.877 Y-26.641
N8545 X16.574 Y-25.052
N8550 X19.167 Y-23.129
N8555 X21.496 Y-20.981
N8560 X23.64 Y-18.533
N8565 X25.45 Y-15.956
N8570 X27.019 Y-13.126
N8575 X28.272 Y-10.147
N8580 X29.17 Y-7.168
N8585 X29.589 Y-4.947
N8590 G03 X29.346 Y-4.595 I-0.295 J0.056
N8595 G01 X23.896 Y-3.657
N8600 X23.841 Y-3.642
N8605 X23.789 Y-3.616
N8610 X19.274 Y-0.837
N8615 G03 X18.898 Y-0.887 I-0.157 J-0.255
N8620 X23.046 Y-4.797 Z-5.313 I2.074 J-1.955 F200.
N8625 X18.898 Y-0.887 Z-5.625 I-2.074 J1.955
N8630 X23.046 Y-4.797 Z-5.938 I2.074 J-1.955
N8635 X23.797 Y-3.219 Z-6. I-2.074 J1.955
N8640 X0. Y24.016 I-23.837 J3.186 F240.
N8645 X-6.28 Y-23.178 J-24.015
N8650 X23.797 Y-3.219 I6.294 J23.157
N8655 G02 X25.323 Y-1.435 I2.144 J-0.288
N8660 G03 X26.71 Y0.46 I-0.555 J1.861
N8665 X23.393 Y12.906 I-26.722 J-0.457
N8670 X-25.959 Y-6.328 I-23.378 J-12.946
N8675 X9.713 Y-24.89 I25.972 J6.354
N8680 X26.71 Y0.46 I-9.725 J24.893
N8685 G02 X27.998 Y2.55 I2.277 J0.039
N8690 G03 X29.161 Y4.712 I-0.908 J1.882
N8695 G01 X29.051 Y5.521
N8700 X28.3 Y8.576
N8705 X27.249 Y11.492
N8710 X25.89 Y14.289
N8715 X24.172 Y17.034
N8720 X22.233 Y19.498
N8725 X20.049 Y21.739
N8730 X17.66 Y23.72
N8735 X14.994 Y25.489
N8740 X12.245 Y26.918
N8745 X9.26 Y28.085
N8750 X6.28 Y28.898
N8755 X3.138 Y29.406
N8760 X0. Y29.574
N8765 X-3.138 Y29.406
N8770 X-6.28 Y28.898
N8775 X-9.26 Y28.085
N8780 X-12.245 Y26.918
N8785 X-14.994 Y25.489
N8790 X-17.66 Y23.72
N8795 X-20.049 Y21.739
N8800 X-22.233 Y19.498
N8805 X-24.216 Y16.973
N8810 X-25.889 Y14.29
N8815 X-27.249 Y11.493
N8820 X-28.324 Y8.497
N8825 X-29.067 Y5.442
N8830 X-29.475 Y2.391
N8835 X-29.56 Y-0.822
N8840 X-29.306 Y-3.954
N8845 X-28.731 Y-7.006
N8850 X-27.807 Y-10.061
N8855 X-26.581 Y-12.959
N8860 X-25.062 Y-15.699
N8865 X-23.243 Y-18.283
N8870 X-21.185 Y-20.635
N8875 X-18.864 Y-22.775
N8880 X-16.31 Y-24.667
N8885 X-13.621 Y-26.249
N8890 X-10.753 Y-27.548
N8895 X-7.738 Y-28.541
N8900 X-4.709 Y-29.195
N8905 X-1.569 Y-29.531
N8910 X1.569
N8915 X4.709 Y-29.195
N8920 X7.794 Y-28.527
N8925 X10.752 Y-27.549
N8930 X13.621 Y-26.249
N8935 X16.378 Y-24.622
N8940 X18.863 Y-22.775
N8945 X21.185 Y-20.635
N8950 X23.243 Y-18.283
N8955 X25.062 Y-15.699
N8960 X26.581 Y-12.959
N8965 X27.807 Y-10.061
N8970 X28.731 Y-7.006
N8975 X29.306 Y-3.956
N8980 X29.562 Y-0.742
N8985 X29.475 Y2.389
N8990 X29.161 Y4.712
N8995 G03 X28.838 Y4.971 I-0.297 J-0.04
N9000 G01 X20.959 Y4.291
N9005 G03 X20.69 Y3.934 I0.026 J-0.299
N9010 G02 X21.009 Y1.389 I-18.263 J-3.578
N9015 X20.126 Y-5.837 I-20.639 J-1.147
N9020 X15.521 Y-13.905 I-20.325 J6.254
N9025 X8.011 Y-19.374 I-17.076 J15.558
N9030 X-5.964 Y-20.098 I-7.907 J17.38
N9035 X-15.332 Y-14.295 I7.535 J22.626
N9040 X-20.466 Y-4.545 I13.285 J13.223
N9045 X-17.378 Y11.727 I22.279 J4.2
N9050 X-8.991 Y18.939 I15.741 J-9.822
N9055 X1.899 Y20.878 I9.56 J-22.144
N9060 X12.244 Y17.019 I-1.024 J-18.541
N9065 X19.191 Y8.438 I-14.74 J-19.036
N9070 X20.69 Y3.934 I-16.764 J-8.081
N9075 X19.598 Y1.484 I-2.29 J-0.449
N9080 G03 X18.224 Y-0.821 I1.453 J-2.428
N9085 G02 X14.502 Y-11.108 I-18.286 J0.799
N9090 X8.445 Y-16.302 I-14.93 J11.282
N9095 X0.708 Y-18.253 I-7.737 J14.365
N9100 X-7.713 Y-16.542 J21.576
N9105 X-14.438 Y-11.191 I6.263 J14.774
N9110 X-17.028 Y-6.431 I16.999 J12.333
N9115 X-18.221 Y-1.146 I17.271 J6.677
N9120 X-16.94 Y6.665 I16.749 J1.263
N9125 X-12.563 Y13.26 I19.771 J-8.37
N9130 X-4.87 Y17.711 I11.735 J-11.408
N9135 X4.018 Y17.821 I4.671 J-18.331
N9140 X18.224 Y-0.821 I-4.08 J-17.843
N9145 X16.551 Y-2.954 I-2.326 J0.102
N9150 G03 X14.621 Y-4.857 I0.802 J-2.744
N9155 G01 X14.516 Y-5.2
N9160 X14.487 Y-5.284
N9165 X14.455 Y-5.367
N9170 X13.916 Y-6.641
N9175 X13.879 Y-6.724
N9180 X13.837 Y-6.804
N9185 X13.172 Y-8.012
N9190 X13.105 Y-8.124
N9195 G02 X12.111 Y-9.545 I-19.001 J12.226
N9200 G01 X12.032 Y-9.642
N9205 X11.151 Y-10.649
N9210 X11.052 Y-10.753
N9215 G02 X9.892 Y-11.828 I-21.271 J21.786
N9220 G01 X9.824 Y-11.887
N9225 X9.753 Y-11.943
N9230 G02 X8.51 Y-12.86 I-14.471 J18.318
N9235 G01 X8.404 Y-12.927
N9240 X7.206 Y-13.632
N9245 X7.125 Y-13.677
N9250 X7.043 Y-13.717
N9255 X5.713 Y-14.322
N9260 X5.628 Y-14.358
N9265 X5.541 Y-14.389
N9270 X4.211 Y-14.832
N9275 X4.124 Y-14.859
N9280 X4.037 Y-14.881
N9285 G02 X2.498 Y-15.217 I-8.059 J33.18
N9290 G01 X2.345 Y-15.24
N9295 X0.892 Y-15.393
N9300 X0.801 Y-15.401
N9305 X0.708 Y-15.403
N9310 X-0.708
N9315 X-0.801 Y-15.401
N9320 X-0.892 Y-15.393
N9325 X-2.345 Y-15.24
N9330 X-2.436 Y-15.228
N9335 X-2.525 Y-15.211
N9340 X-3.356 Y-15.035
N9345 X-3.38 Y-15.03
N9350 X-4.045 Y-14.879
N9355 X-4.129 Y-14.858
N9360 X-4.211 Y-14.832
N9365 X-5.541 Y-14.389
N9370 X-5.628 Y-14.358
N9375 X-5.713 Y-14.322
N9380 X-7.043 Y-13.717
N9385 X-7.125 Y-13.677
N9390 X-7.206 Y-13.632
N9395 X-8.404 Y-12.927
N9400 X-8.479 Y-12.881
N9405 X-8.552 Y-12.83
N9410 X-9.349 Y-12.245
N9415 X-9.361 Y-12.236
N9420 X-9.756 Y-11.941
N9425 X-9.825 Y-11.886
N9430 X-9.892 Y-11.828
N9435 G02 X-11.056 Y-10.75 I18.523 J21.15
N9440 G01 X-11.151 Y-10.649
N9445 X-12.032 Y-9.642
N9450 X-12.131 Y-9.517
N9455 X-12.39 Y-9.16
N9460 X-12.406 Y-9.138
N9465 X-12.995 Y-8.299
N9470 X-13.078 Y-8.169
N9475 X-13.243 Y-7.883
N9480 X-13.261 Y-7.851
N9485 X-13.837 Y-6.803
N9490 X-13.879 Y-6.723
N9495 X-13.916 Y-6.641
N9500 X-14.455 Y-5.367
N9505 X-14.488 Y-5.283
N9510 X-14.516 Y-5.198
N9515 X-14.923 Y-3.871
N9520 X-14.932 Y-3.837
N9525 X-14.942 Y-3.804
N9530 X-14.985 Y-3.638
N9535 X-15.013 Y-3.517
N9540 X-15.263 Y-2.19
N9545 X-15.277 Y-2.102
N9550 X-15.287 Y-2.015
N9555 X-15.378 Y-0.95
N9560 X-15.379 Y-0.932
N9565 X-15.412 Y-0.504
N9570 X-15.416 Y-0.414
N9575 Y-0.324
N9580 X-15.375 Y1.169
N9585 X-15.37 Y1.262
N9590 X-15.36 Y1.354
N9595 X-15.17 Y2.764
N9600 X-15.155 Y2.855
N9605 X-15.135 Y2.945
N9610 X-14.791 Y4.355
N9615 X-14.767 Y4.444
N9620 X-14.739 Y4.532
N9625 X-14.262 Y5.859
N9630 X-14.229 Y5.944
N9635 X-14.192 Y6.028
N9640 X-13.552 Y7.355
N9645 X-13.508 Y7.439
N9650 X-13.46 Y7.521
N9655 X-12.669 Y8.789
N9660 X-12.618 Y8.867
N9665 X-12.562 Y8.942
N9670 X-11.686 Y10.059
N9675 X-11.627 Y10.131
N9680 X-11.564 Y10.199
N9685 X-10.52 Y11.273
N9690 X-10.452 Y11.339
N9695 X-10.382 Y11.401
N9700 X-9.281 Y12.314
N9705 X-9.209 Y12.37
N9710 X-9.134 Y12.423
N9715 X-7.954 Y13.209
N9720 X-7.875 Y13.259
N9725 X-7.794 Y13.304
N9730 X-6.464 Y13.999
N9735 X-6.379 Y14.04
N9740 X-6.292 Y14.077
N9745 X-4.962 Y14.599
N9750 X-4.876 Y14.63
N9755 X-4.789 Y14.657
N9760 G02 X-3.383 Y15.043 I8.331 J-27.558
N9765 G01 X-3.217 Y15.081
N9770 X-3.104 Y15.103
N9775 X-1.774 Y15.317
N9780 X-1.684 Y15.329
N9785 X-1.593 Y15.336
N9790 X-0.096 Y15.419
N9795 X0. Y15.422
N9800 X0.096 Y15.419
N9805 X1.593 Y15.336
N9810 X1.684 Y15.329
N9815 X1.774 Y15.317
N9820 X3.104 Y15.103
N9825 X3.217 Y15.081
N9830 X3.383 Y15.043
N9835 G02 X4.789 Y14.657 I-6.698 J-27.126
N9840 G01 X4.876 Y14.63
N9845 X4.962 Y14.599
N9850 X6.292 Y14.077
N9855 X6.379 Y14.04
N9860 X6.464 Y13.999
N9865 X7.794 Y13.304
N9870 X7.875 Y13.259
N9875 X7.954 Y13.209
N9880 X9.134 Y12.423
N9885 X9.209 Y12.37
N9890 X9.281 Y12.314
N9895 X10.382 Y11.401
N9900 X10.452 Y11.339
N9905 X10.52 Y11.273
N9910 X11.564 Y10.199
N9915 X11.627 Y10.131
N9920 X11.686 Y10.059
N9925 X12.562 Y8.942
N9930 X12.618 Y8.867
N9935 X12.669 Y8.789
N9940 X13.46 Y7.521
N9945 X13.508 Y7.439
N9950 X13.552 Y7.355
N9955 X14.192 Y6.028
N9960 X14.229 Y5.944
N9965 X14.262 Y5.859
N9970 X14.739 Y4.532
N9975 X14.767 Y4.444
N9980 X14.791 Y4.355
N9985 X15.135 Y2.945
N9990 X15.155 Y2.855
N9995 X15.17 Y2.764
N10000 X15.36 Y1.354
N10005 X15.37 Y1.262
N10010 X15.375 Y1.169
N10015 X15.416 Y-0.324
N10020 Y-0.417
N10025 X15.411 Y-0.509
N10030 G02 X15.282 Y-2.067 I-23.317 J1.156
N10035 G01 X15.263 Y-2.19
N10040 X15.013 Y-3.517
N10045 X14.974 Y-3.678
N10050 X14.83 Y-4.176
N10055 X14.822 Y-4.205
N10060 X14.621 Y-4.857
N10065 G03 X14.818 Y-5.231 I0.287 J-0.088
N10070 G01 X20.164 Y-6.911
N10075 X20.221 Y-6.936
N10080 X20.272 Y-6.972
N10085 X24.283 Y-10.511
N10090 G03 X24.657 Y-10.53 I0.198 J0.225
N10095 X21.334 Y-5.899 Z-6.313 I-1.661 J2.316 F200.
N10100 X24.657 Y-10.53 Z-6.625 I1.661 J-2.316
N10105 X21.334 Y-5.899 Z-6.938 I-1.661 J2.316
N10110 X20.295 Y-7.303 Z-7. I1.661 J-2.316
N10115 G02 X19.695 Y-8.886 I-21.7 J7.322 F240.
N10120 X11.432 Y-18.313 I-18.336 J7.738
N10125 X-0.665 Y-21.6 I-12.097 J20.613
N10130 X-15.227 Y-15.361 J20.114
N10135 X-21.597 Y-0.857 I16.843 J16.049
N10140 X-20.129 Y7.919 I19.288 J1.283
N10145 X-15.215 Y15.337 I22.057 J-9.275
N10150 X-4.146 Y21.187 I14.587 J-14.203
N10155 X8.312 Y19.943 I4.009 J-22.851
N10160 X20.087 Y7.93 I-7.467 J-19.097
N10165 X20.295 Y-7.303 I-21.491 J-7.912
N10170 X18.345 Y-8.716 I-1.968 J0.664
N10175 G03 X16.247 Y-9.896 I0.021 J-2.494
N10180 G02 X9.141 Y-16.546 I-15.854 J9.821
N10185 X2.226 Y-18.807 I-9.958 J18.744
N10190 X-5.028 Y-18.231 I-2.357 J16.275
N10195 X-16.134 Y-9.762 I6.078 J19.486
N10200 X-18.477 Y4.007 I15.043 J9.644
N10205 X-9.441 Y16.274 I18.946 J-4.495
N10210 X5.693 Y18.035 I9.548 J-16.149
N10215 X18.937 Y1.894 I-5.66 J-18.149
N10220 X16.247 Y-9.896 I-18.545 J-1.969
N10225 X13.643 Y-11.005 I-2.088 J1.294
N10230 G03 X10.918 Y-11.764 I-0.639 J-2.98
N10235 G01 X10.842 Y-11.835
N10240 X10.83 Y-11.846
N10245 X10.364 Y-12.276
N10250 X10.298 Y-12.334
N10255 X10.229 Y-12.388
N10260 G02 X8.632 Y-13.539 I-13.271 J16.734
N10265 G01 X8.537 Y-13.599
N10270 G02 X5.654 Y-15.028 I-8.731 J13.989
N10275 G01 X5.538 Y-15.074
N10280 X4.839 Y-15.305
N10285 X4.809 Y-15.314
N10290 X4.178 Y-15.511
N10295 X4.027 Y-15.55
N10300 X2.697 Y-15.838
N10305 X2.609 Y-15.854
N10310 X2.52 Y-15.866
N10315 X1.024 Y-16.032
N10320 X0.857 Y-16.043
N10325 G02 X-0.909 Y-16.044 I-0.921 J37.84
N10330 G01 X-1.024 Y-16.032
N10335 X-2.52 Y-15.866
N10340 X-2.609 Y-15.854
N10345 X-2.697 Y-15.838
N10350 X-4.027 Y-15.55
N10355 X-4.179 Y-15.51
N10360 X-4.844 Y-15.303
N10365 X-4.873 Y-15.294
N10370 X-5.538 Y-15.074
N10375 X-5.655 Y-15.03
N10380 G02 X-8.537 Y-13.599 I5.955 J15.606
N10385 G01 X-8.634 Y-13.538
N10390 G02 X-10.229 Y-12.388 I11.95 J18.265
N10395 G01 X-10.298 Y-12.334
N10400 X-10.364 Y-12.275
N10405 X-11.084 Y-11.612
N10410 X-11.102 Y-11.595
N10415 X-11.514 Y-11.204
N10420 X-11.626 Y-11.087
N10425 X-12.445 Y-10.151
N10430 X-12.534 Y-10.041
N10435 G02 X-13.519 Y-8.677 I26.774 J20.383
N10440 G01 X-13.607 Y-8.539
N10445 X-13.986 Y-7.875
N10450 X-13.997 Y-7.856
N10455 X-14.364 Y-7.192
N10460 X-14.424 Y-7.074
N10465 G02 X-15.016 Y-5.698 I23.209 J10.807
N10470 G01 X-15.067 Y-5.564
N10475 G02 X-15.937 Y-1.968 I15.955 J5.767
N10480 G01 X-15.954 Y-1.839
N10485 X-16.044 Y-0.723
N10490 X-16.045 Y-0.699
N10495 X-16.059 Y-0.489
N10500 X-16.063 Y-0.328
N10505 X-16.029 Y0.999
N10510 X-16.021 Y1.135
N10515 G02 X-15.348 Y4.725 I16.949 J-1.316
N10520 G01 X-15.305 Y4.871
N10525 X-14.822 Y6.199
N10530 X-14.788 Y6.283
N10535 X-14.751 Y6.366
N10540 X-14.105 Y7.693
N10545 X-14.061 Y7.776
N10550 X-14.014 Y7.856
N10555 X-13.182 Y9.183
N10560 X-13.132 Y9.259
N10565 X-13.077 Y9.333
N10570 G02 X-11.96 Y10.719 I17.218 J-12.735
N10575 G01 X-11.884 Y10.802
N10580 X-11.238 Y11.465
N10585 X-11.213 Y11.49
N10590 X-10.873 Y11.826
N10595 X-10.761 Y11.928
N10600 X-10.096 Y12.479
N10605 X-10.067 Y12.502
N10610 X-9.514 Y12.942
N10615 X-9.393 Y13.03
N10620 X-8.393 Y13.693
N10625 X-8.292 Y13.755
N10630 G02 X-6.291 Y14.775 I8.988 J-15.165
N10635 G01 X-5.221 Y15.192
N10640 X-5.105 Y15.233
N10645 X-4.844 Y15.314
N10650 X-4.811 Y15.324
N10655 X-4.778 Y15.333
N10660 X-3.448 Y15.691
N10665 X-3.361 Y15.713
N10670 X-3.272 Y15.729
N10675 X-1.887 Y15.953
N10680 X-1.8 Y15.965
N10685 X-1.713 Y15.972
N10690 X-0.438 Y16.05
N10695 G02 X0.438 I0.441 J-11.686
N10700 G01 X1.713 Y15.972
N10705 X1.8 Y15.965
N10710 X1.887 Y15.953
N10715 X3.272 Y15.729
N10720 X3.361 Y15.713
N10725 X3.448 Y15.691
N10730 X4.778 Y15.333
N10735 X4.811 Y15.324
N10740 X4.844 Y15.314
N10745 X5.105 Y15.233
N10750 X5.221 Y15.192
N10755 G02 X6.998 Y14.452 I-5.745 J-16.296
N10760 X8.292 Y13.755 I-8.811 J-17.914
N10765 G01 X8.393 Y13.693
N10770 X9.393 Y13.03
N10775 X9.524 Y12.934
N10780 X10.347 Y12.27
N10785 X10.366 Y12.255
N10790 X10.761 Y11.928
N10795 X10.824 Y11.872
N10800 X10.885 Y11.814
N10805 X11.55 Y11.145
N10810 X11.563 Y11.132
N10815 X11.884 Y10.802
N10820 X11.96 Y10.719
N10825 G02 X13.077 Y9.333 I-16.079 J-14.104
N10830 G01 X13.132 Y9.259
N10835 X13.182 Y9.183
N10840 X14.014 Y7.856
N10845 X14.061 Y7.776
N10850 X14.105 Y7.693
N10855 X14.751 Y6.366
N10860 X14.788 Y6.283
N10865 X14.822 Y6.199
N10870 X15.305 Y4.871
N10875 X15.351 Y4.726
N10880 G02 X16.019 Y1.135 I-16.393 J-4.905
N10885 G01 X16.029 Y0.999
N10890 X16.063 Y-0.328
N10895 Y-0.418
N10900 X16.058 Y-0.508
N10905 X15.955 Y-1.835
N10910 X15.939 Y-1.969
N10915 G02 X15.063 Y-5.565 I-16.734 J2.17
N10920 G01 X15.017 Y-5.698
N10925 G02 X14.424 Y-7.074 I-23.854 J9.454
N10930 G01 X14.364 Y-7.192
N10935 G02 X13.598 Y-8.554 I-31.067 J16.58
N10940 G01 X13.519 Y-8.677
N10945 G02 X12.533 Y-10.042 I-26.807 J18.332
N10950 G01 X12.445 Y-10.151
N10955 X11.626 Y-11.087
N10960 X11.568 Y-11.15
N10965 X11.507 Y-11.21
N10970 X10.918 Y-11.764
N10975 G03 X10.937 Y-12.217 I0.205 J-0.219
N10980 G01 X16.24 Y-16.422
N10985 G03 X16.637 Y-16.401 I0.186 J0.235
N10990 X21.054 Y10.096 I-16.039 J16.291
N10995 X-2.372 Y23.243 I-21.392 J-10.673
N11000 X-17.445 Y15.462 I1.892 J-22.154
N11005 X-23.356 Y-0.438 I19.032 J-16.124
N11010 X-19.235 Y-13.254 I21.388 J-0.193
N11015 X-8.725 Y-21.667 I20.787 J15.197
N11020 X4.762 Y-22.916 I8.638 J19.845
N11025 X16.637 Y-16.401 I-5.57 J24.233
N11030 G02 X18.931 Y-15.924 I1.517 J-1.541
N11035 G03 X21.18 Y-15.265 I0.693 J1.801
N11040 X25.652 Y-4.94 I-20.395 J14.964
N11045 X24.023 Y10.134 I-25.878 J4.828
N11050 X-1.938 Y26.039 I-24.088 J-10.178
N11055 X-25.228 Y6.432 I1.855 J-25.84
N11060 X-25.843 Y3.033 I26.168 J-6.485
N11065 X-26.056 Y-0.414 I32.46 J-3.741
N11070 X-21.5 Y-14.724 I24.069 J-0.217
N11075 X-9.803 Y-24.143 I23.042 J16.642
N11080 X5.255 Y-25.571 I9.713 J22.313
N11085 X18.532 Y-18.326 I-6.05 J26.876
N11090 X21.18 Y-15.265 I-17.747 J18.026
N11095 G02 X23.427 Y-14.387 I1.815 J-1.332
N11100 G03 X25.613 Y-13.368 I0.393 J2.013
N11105 G01 X26.025 Y-12.625
N11110 X26.998 Y-10.319
N11115 X27.233 Y-9.742
N11120 X27.999 Y-7.202
N11125 X28.145 Y-6.629
N11130 X28.625 Y-4.082
N11135 X28.697 Y-3.511
N11140 X28.902 Y-0.958
N11145 X28.907 Y-0.388
N11150 X28.839 Y2.165
N11155 X28.777 Y2.736
N11160 X28.437 Y5.281
N11165 X28.144 Y6.514
N11170 X27.675 Y8.409
N11175 X26.652 Y11.245
N11180 X25.29 Y14.039
N11185 X23.714 Y16.559
N11190 X23.548 Y16.784
N11195 X21.774 Y19.044
N11200 X19.746 Y21.126
N11205 X19.152 Y21.644
N11210 X17.245 Y23.224
N11215 X14.738 Y24.887
N11220 X12.717 Y25.945
N11225 X12.208 Y26.21
N11230 X11.628 Y26.469
N11235 X9.093 Y27.46
N11240 X6.545 Y28.156
N11245 X5.971 Y28.297
N11250 X3.416 Y28.708
N11255 X2.844 Y28.775
N11260 X0.286 Y28.912
N11265 X-0.286
N11270 X-2.844 Y28.775
N11275 X-3.416 Y28.708
N11280 X-5.971 Y28.297
N11285 X-6.545 Y28.156
N11290 X-9.093 Y27.46
N11295 X-11.628 Y26.469
N11300 X-12.208 Y26.21
N11305 X-14.15 Y25.2
N11310 X-14.733 Y24.89
N11315 X-17.245 Y23.224
N11320 X-19.299 Y21.522
N11325 X-19.742 Y21.131
N11330 X-21.774 Y19.044
N11335 X-23.548 Y16.784
N11340 X-23.714 Y16.559
N11345 X-25.29 Y14.039
N11350 X-26.652 Y11.245
N11355 X-27.675 Y8.409
N11360 X-28.144 Y6.514
N11365 X-28.437 Y5.281
N11370 X-28.777 Y2.736
N11375 X-28.839 Y2.165
N11380 X-28.907 Y-0.388
N11385 X-28.902 Y-0.958
N11390 X-28.697 Y-3.511
N11395 X-28.625 Y-4.082
N11400 X-28.145 Y-6.629
N11405 X-27.999 Y-7.202
N11410 X-27.235 Y-9.736
N11415 X-26.72 Y-10.977
N11420 X-26.025 Y-12.625
N11425 X-24.505 Y-15.368
N11430 X-22.747 Y-17.869
N11435 X-20.988 Y-19.88
N11440 X-20.532 Y-20.358
N11445 X-18.486 Y-22.247
N11450 X-15.955 Y-24.127
N11455 X-13.472 Y-25.59
N11460 X-12.891 Y-25.871
N11465 X-10.94 Y-26.756
N11470 X-10.361 Y-26.998
N11475 X-7.685 Y-27.883
N11480 X-7.261 Y-27.984
N11485 X-4.703 Y-28.538
N11490 X-3.465 Y-28.679
N11495 X-1.569 Y-28.883
N11500 X1.569
N11505 X4.124 Y-28.609
N11510 X4.697 Y-28.539
N11515 X7.261 Y-27.984
N11520 X7.685 Y-27.883
N11525 X10.361 Y-26.998
N11530 X10.94 Y-26.756
N11535 X12.891 Y-25.871
N11540 X13.472 Y-25.59
N11545 X15.99 Y-24.106
N11550 X18.5 Y-22.234
N11555 X20.532 Y-20.358
N11560 X20.988 Y-19.88
N11565 X22.747 Y-17.869
N11570 X24.505 Y-15.368
N11575 X25.613 Y-13.368
N11580 G03 X25.492 Y-12.958 I-0.262 J0.145
N11585 G01 X20.839 Y-10.488
N11590 X20.791 Y-10.456
N11595 X20.75 Y-10.416
N11600 X17.511 Y-6.544
N11605 G03 X17.139 Y-6.473 I-0.23 J-0.192
N11610 X19.846 Y-11.489 Z-7.313 I1.354 J-2.508 F200.
N11615 X17.139 Y-6.473 Z-7.625 I-1.354 J2.508
N11620 X19.846 Y-11.489 Z-7.938 I1.354 J-2.508
N11625 X21.055 Y-10.228 Z-8. I-1.354 J2.508
N11630 X21.11 Y9.871 I-20.771 J10.107 F240.
N11635 X12.774 Y19.359 I-21.352 J-10.354
N11640 X0.773 Y23.295 I-13.291 J-20.261
N11645 X-16.425 Y16.634 I-1.196 J-22.442
N11650 X-23.322 Y-0.47 I17.058 J-16.822
N11655 X-13.358 Y-19.099 I22.9 J0.269
N11660 X7.564 Y-22.043 I13.429 J19.62
N11665 X21.055 Y-10.228 I-7.28 J21.922
N11670 G02 X22.493 Y-9.376 I1.364 J-0.664
N11675 G03 X23.887 Y-8.453 I0.069 J1.409
N11680 X24.564 Y-6.175 I-17.669 J6.487
N11685 X25.071 Y-3.604 I-41.305 J9.479
N11690 X20.068 Y15.406 I-23.725 J3.919
N11695 X2.995 Y25.148 I-20.952 J-16.887
N11700 X-10.363 Y23.215 I-3.421 J-23.485
N11705 X-20.721 Y14.562 I10.83 J-23.49
N11710 X-24.554 Y-5.83 I20.606 J-14.43
N11715 X-11.961 Y-22.32 I25.12 J6.129
N11720 X9.03 Y-23.657 I11.907 J21.5
N11725 X23.801 Y-8.683 I-9.671 J24.312
N11730 G01 X23.887 Y-8.453
N11735 G02 X25.833 Y-6.962 I2.149 J-0.789
N11740 G03 X27.648 Y-5.315 I-0.181 J2.023
N11745 G01 X27.883 Y-4.068
N11750 X27.964 Y-3.497
N11755 X28.168 Y-0.956
N11760 X28.174 Y-0.385
N11765 X28.107 Y2.157
N11770 X28.04 Y2.726
N11775 X27.694 Y5.273
N11780 X27.076 Y7.801
N11785 X26.909 Y8.375
N11790 X25.986 Y10.934
N11795 X24.726 Y13.532
N11800 X24.462 Y13.983
N11805 X23.256 Y15.911
N11810 X22.842 Y16.498
N11815 X21.342 Y18.409
N11820 X21.002 Y18.788
N11825 X19.097 Y20.739
N11830 X17.197 Y22.314
N11835 X16.606 Y22.77
N11840 X14.689 Y24.042
N11845 X14.103 Y24.4
N11850 X12.171 Y25.404
N11855 X11.589 Y25.699
N11860 X9.061 Y26.687
N11865 X8.486 Y26.868
N11870 X5.948 Y27.559
N11875 X3.406 Y27.969
N11880 X2.833 Y28.043
N11885 X0.286 Y28.179
N11890 X-0.286
N11895 X-2.833 Y28.043
N11900 X-3.406 Y27.969
N11905 X-5.948 Y27.559
N11910 X-8.486 Y26.868
N11915 X-9.061 Y26.687
N11920 X-11.584 Y25.7
N11925 X-12.831 Y25.061
N11930 X-14.102 Y24.4
N11935 X-14.706 Y24.03
N11940 X-16.627 Y22.756
N11945 X-17.195 Y22.316
N11950 X-19.097 Y20.739
N11955 X-21.002 Y18.788
N11960 X-21.342 Y18.409
N11965 X-22.87 Y16.463
N11970 X-23.254 Y15.913
N11975 X-24.462 Y13.983
N11980 X-24.726 Y13.532
N11985 X-25.986 Y10.934
N11990 X-26.909 Y8.375
N11995 X-27.076 Y7.801
N12000 X-27.694 Y5.273
N12005 X-28.04 Y2.726
N12010 X-28.107 Y2.157
N12015 X-28.174 Y-0.385
N12020 X-28.168 Y-0.956
N12025 X-27.965 Y-3.493
N12030 X-27.87 Y-4.139
N12035 X-27.405 Y-6.605
N12040 X-27.241 Y-7.179
N12045 X-26.6 Y-9.306
N12050 X-26.465 Y-9.701
N12055 X-25.36 Y-12.319
N12060 X-24.023 Y-14.734
N12065 X-23.645 Y-15.319
N12070 X-22.227 Y-17.338
N12075 X-21.623 Y-18.043
N12080 X-20.313 Y-19.54
N12085 X-20.161 Y-19.705
N12090 X-18.093 Y-21.614
N12095 X-17.876 Y-21.793
N12100 X-15.626 Y-23.464
N12105 X-13.429 Y-24.765
N12110 X-12.847 Y-25.087
N12115 X-10.331 Y-26.229
N12120 X-9.092 Y-26.647
N12125 X-7.359 Y-27.214
N12130 X-4.639 Y-27.803
N12135 X-4.465 Y-27.836
N12140 X-1.567 Y-28.147
N12145 X0.991 Y-28.154
N12150 X1.56 Y-28.148
N12155 X4.449 Y-27.838
N12160 X5.289 Y-27.662
N12165 X7.359 Y-27.214
N12170 X9.092 Y-26.647
N12175 X10.331 Y-26.229
N12180 X12.846 Y-25.088
N12185 X13.484 Y-24.733
N12190 X15.626 Y-23.464
N12195 X17.876 Y-21.793
N12200 X18.093 Y-21.614
N12205 X20.161 Y-19.705
N12210 X20.313 Y-19.54
N12215 X21.828 Y-17.809
N12220 X22.225 Y-17.341
N12225 X23.645 Y-15.319
N12230 X24.023 Y-14.734
N12235 X25.36 Y-12.319
N12240 X26.465 Y-9.701
N12245 X26.6 Y-9.306
N12250 X27.251 Y-7.146
N12255 X27.405 Y-6.606
N12260 X27.648 Y-5.315
N12265 G03 X27.357 Y-4.959 I-0.295 J0.056
N12270 G01 X21.435 Y-4.887
N12275 G03 X21.139 Y-5.118 I-0.004 J-0.3
N12280 G02 X7.061 Y-20.45 I-20.792 J4.962
N12285 X-8.614 Y-19.925 I-7.125 J21.539
N12290 X-19.737 Y-8.869 I7.662 J18.832
N12295 X-21.514 Y-0.555 I21.706 J8.984
N12300 X-20.17 Y7.839 I22.813 J0.652
N12305 X-15.86 Y14.714 I17.991 J-6.488
N12310 X-9.33 Y19.531 I18.033 J-17.613
N12315 X2.692 Y21.546 I9.181 J-17.903
N12320 X13.844 Y16.623 I-3.18 J-22.296
N12325 X21.39 Y-3.915 I-13.797 J-16.725
N12330 X21.139 Y-5.118 I-21.043 J3.759
N12335 X19.625 Y-6.481 I-1.746 J0.417
N12340 G03 X18.018 Y-7.734 I0.259 J-1.99
N12345 G02 X17.584 Y-8.761 I-22.432 J8.86
N12350 X12.403 Y-15.235 I-15.137 J6.803
N12355 X2.821 Y-19.416 I-13.641 J18.191
N12360 X-7.554 Y-18.131 I-3.13 J17.252
N12365 X-18.127 Y-7.518 I8.756 J19.296
N12370 X-18.166 Y7.463 I16.771 J7.534
N12375 X-14.126 Y13.666 I21.204 J-9.393
N12380 X-8.063 Y17.913 I12.438 J-11.302
N12385 X2.652 Y19.353 I8.113 J-19.789
N12390 X12.58 Y15.072 I-2.338 J-19.076
N12395 X18.03 Y8.032 I-13.03 J-15.716
N12400 X19.633 Y-0.726 I-15.8 J-7.418
N12405 X18.018 Y-7.734 I-24.047 J1.852
N12410 X15.716 Y-9.204 I-2.167 J0.856
N12415 G03 X13.229 Y-10.333 I-0.17 J-2.931
N12420 G01 X12.956 Y-10.678
N12425 X12.256 Y-11.478
N12430 X12.16 Y-11.58
N12435 G02 X10.83 Y-12.841 I-24.841 J24.849
N12440 G01 X10.763 Y-12.9
N12445 X10.694 Y-12.955
N12450 X9.678 Y-13.716
N12455 X9.662 Y-13.728
N12460 X9.347 Y-13.959
N12465 X9.277 Y-14.008
N12470 X9.203 Y-14.054
N12475 X7.873 Y-14.839
N12480 X7.794 Y-14.883
N12485 X7.713 Y-14.923
N12490 X6.382 Y-15.533
N12495 X6.25 Y-15.587
N12500 G02 X4.128 Y-16.276 I-7.46 J19.355
N12505 G01 X4.019 Y-16.301
N12510 X2.688 Y-16.581
N12515 X2.602 Y-16.597
N12520 X2.514 Y-16.609
N12525 X1.184 Y-16.751
N12530 X1.053 Y-16.76
N12535 G02 X-1.053 I-1.053 J22.825
N12540 G01 X-1.184 Y-16.751
N12545 X-2.514 Y-16.609
N12550 X-2.602 Y-16.597
N12555 X-2.688 Y-16.581
N12560 X-4.019 Y-16.301
N12565 X-4.128 Y-16.274
N12570 G02 X-6.249 Y-15.585 I4.854 J18.552
N12575 G01 X-6.382 Y-15.533
N12580 X-7.713 Y-14.923
N12585 X-7.794 Y-14.883
N12590 X-7.873 Y-14.839
N12595 X-9.203 Y-14.054
N12600 X-9.28 Y-14.005
N12605 X-9.355 Y-13.953
N12610 X-10.563 Y-13.059
N12615 X-10.589 Y-13.039
N12620 X-10.615 Y-13.019
N12625 X-10.737 Y-12.921
N12630 X-10.83 Y-12.841
N12635 G02 X-12.202 Y-11.532 I19.589 J21.909
N12640 G01 X-12.291 Y-11.438
N12645 G02 X-15.196 Y-7.133 I12.394 J11.497
N12650 G01 X-15.255 Y-7.014
N12655 X-15.805 Y-5.686
N12660 X-15.836 Y-5.605
N12665 X-15.863 Y-5.522
N12670 X-16.263 Y-4.195
N12675 X-16.301 Y-4.047
N12680 G02 X-16.714 Y-1.58 I18.309 J4.332
N12685 G01 X-16.791 Y-0.505
N12690 X-16.796 Y-0.416
N12695 Y-0.327
N12700 X-16.761 Y1.
N12705 X-16.754 Y1.119
N12710 G02 X-16.481 Y3.221 I21.656 J-1.742
N12715 G01 X-16.455 Y3.361
N12720 X-16.13 Y4.688
N12725 X-16.083 Y4.847
N12730 X-15.853 Y5.511
N12735 X-15.846 Y5.53
N12740 X-15.607 Y6.193
N12745 X-15.56 Y6.308
N12750 G02 X-14.451 Y8.545 I16.965 J-7.021
N12755 G01 X-13.785 Y9.601
N12760 X-13.735 Y9.676
N12765 X-13.682 Y9.748
N12770 G02 X-11.562 Y12.18 I15.999 J-11.8
N12775 G01 X-11.447 Y12.29
N12780 X-10.733 Y12.901
N12785 X-10.708 Y12.922
N12790 X-10.092 Y13.43
N12795 X-10.021 Y13.486
N12800 X-9.947 Y13.538
N12805 X-8.616 Y14.421
N12810 X-8.539 Y14.47
N12815 X-8.458 Y14.514
N12820 X-7.128 Y15.209
N12825 X-6.982 Y15.276
N12830 X-6.317 Y15.549
N12835 X-6.29 Y15.56
N12840 X-5.534 Y15.855
N12845 X-5.411 Y15.898
N12850 G02 X-3.403 Y16.445 I7.048 J-21.947
N12855 G01 X-3.271 Y16.471
N12860 X-1.941 Y16.686
N12865 X-1.853 Y16.697
N12870 X-1.765 Y16.705
N12875 X-0.435 Y16.783
N12880 G02 X0.435 I0.435 J-13.122
N12885 G01 X1.765 Y16.705
N12890 X1.853 Y16.697
N12895 X1.941 Y16.686
N12900 X3.271 Y16.471
N12905 X3.403 Y16.445
N12910 G02 X5.411 Y15.899 I-5.163 J-22.949
N12915 G01 X5.534 Y15.855
N12920 X6.29 Y15.56
N12925 X6.317 Y15.549
N12930 X6.982 Y15.276
N12935 X7.128 Y15.209
N12940 X8.458 Y14.514
N12945 X8.539 Y14.47
N12950 X8.616 Y14.421
N12955 X9.947 Y13.538
N12960 X10.021 Y13.486
N12965 X10.092 Y13.43
N12970 X10.757 Y12.881
N12975 X10.783 Y12.859
N12980 X11.448 Y12.288
N12985 X11.563 Y12.181
N12990 G02 X13.681 Y9.747 I-14.061 J-14.377
N12995 G01 X13.735 Y9.675
N13000 X13.785 Y9.601
N13005 X14.464 Y8.523
N13010 G02 X15.562 Y6.302 I-15.323 J-8.958
N13015 G01 X15.607 Y6.193
N13020 X15.946 Y5.253
N13025 X15.957 Y5.221
N13030 X16.088 Y4.834
N13035 X16.13 Y4.688
N13040 X16.455 Y3.361
N13045 X16.483 Y3.222
N13050 G02 X16.764 Y1. I-20.592 J-3.733
N13055 G01 X16.796 Y-0.327
N13060 Y-0.417
N13065 X16.791 Y-0.507
N13070 X16.689 Y-1.834
N13075 G02 X16.298 Y-4.047 I-19.137 J2.238
N13080 G01 X16.263 Y-4.195
N13085 X15.863 Y-5.522
N13090 X15.836 Y-5.605
N13095 X15.805 Y-5.686
N13100 X15.255 Y-7.014
N13105 X15.2 Y-7.135
N13110 G02 X13.231 Y-10.334 I-15.623 J7.409
N13115 G01 X13.198 Y-10.385
N13120 X13.177 Y-10.442
N13125 X13.167 Y-10.501
N13130 X13.17 Y-10.562
N13135 X13.185 Y-10.62
N13140 X13.211 Y-10.675
N13145 X13.248 Y-10.723
N13150 X13.294 Y-10.763
N13155 X16.926 Y-13.297
N13160 X16.964 Y-13.334
N13165 X16.994 Y-13.377
N13170 X19.076 Y-16.944
N13175 G03 X19.42 Y-17.081 I0.259 J0.151
N13180 X17.816 Y-11.611 Z-8.313 I-0.802 J2.735 F200.
N13185 X19.42 Y-17.081 Z-8.625 I0.802 J-2.735
N13190 X17.816 Y-11.611 Z-8.938 I-0.802 J2.735
N13195 X16.371 Y-12.593 Z-9. I0.802 J-2.735
N13200 G02 X14.093 Y-15.067 I-16.297 J12.717 F240.
N13205 X-1.309 Y-20.624 I-14.292 J15.487
N13210 X-15.887 Y-13.167 I1.058 J20.046
N13215 X-20.508 Y1.867 I16.53 J13.308
N13220 X-13.245 Y15.818 I20.196 J-1.649
N13225 X-6.787 Y19.528 I13.98 J-16.862
N13230 X0.579 Y20.629 I6.371 J-17.424
N13235 X8.428 Y18.736 I-1.19 J-22.155
N13240 X15.049 Y14.117 I-8.727 J-19.565
N13245 X20.73 Y-0.677 I-14.393 J-14.015
N13250 X16.371 Y-12.593 I-20.656 J0.801
N13255 X13.782 Y-13.417 I-1.897 J1.48
N13260 G03 X11.107 Y-13.892 I-0.867 J-2.888
N13265 G01 X10.028 Y-14.7
N13270 X9.894 Y-14.792
N13275 G02 X8.1 Y-15.849 I-17.012 J26.826
N13280 G01 X7.982 Y-15.903
N13285 X6.504 Y-16.567
N13290 X6.421 Y-16.602
N13295 X6.337 Y-16.632
N13300 X4.873 Y-17.116
N13305 X4.717 Y-17.16
N13310 G02 X2.636 Y-17.597 I-6.93 J27.807
N13315 G01 X2.514 Y-17.613
N13320 X1.184 Y-17.755
N13325 X1.038 Y-17.765
N13330 G02 X-1.038 I-1.038 J30.808
N13335 G01 X-1.184 Y-17.755
N13340 X-2.514 Y-17.613
N13345 X-2.636 Y-17.596
N13350 G02 X-4.721 Y-17.158 I4.271 J25.507
N13355 G01 X-4.873 Y-17.116
N13360 X-6.337 Y-16.632
N13365 X-6.421 Y-16.602
N13370 X-6.504 Y-16.567
N13375 X-7.982 Y-15.903
N13380 X-8.099 Y-15.846
N13385 G02 X-9.898 Y-14.787 I12.302 J22.962
N13390 G01 X-10.03 Y-14.699
N13395 X-11.36 Y-13.699
N13400 X-11.429 Y-13.645
N13405 X-11.496 Y-13.586
N13410 G02 X-12.858 Y-12.298 I25.264 J28.074
N13415 G01 X-12.956 Y-12.195
N13420 G02 X-14.167 Y-10.759 I17.451 J15.947
N13425 G01 X-14.239 Y-10.662
N13430 X-15.07 Y-9.469
N13435 X-15.12 Y-9.393
N13440 X-15.166 Y-9.314
N13445 X-15.973 Y-7.853
N13450 X-16.014 Y-7.773
N13455 X-16.052 Y-7.69
N13460 X-16.614 Y-6.363
N13465 X-16.657 Y-6.25
N13470 G02 X-17.3 Y-4.163 I22.993 J8.232
N13475 G01 X-17.337 Y-4.014
N13480 X-17.587 Y-2.687
N13485 X-17.606 Y-2.568
N13490 G02 X-17.791 Y-0.504 I25.149 J3.3
N13495 G01 X-17.795 Y-0.415
N13500 Y-0.326
N13505 G02 X-17.755 Y1.096 I24.053 J0.035
N13510 X-17.692 Y1.852 I13.44 J-0.754
N13515 G01 X-17.513 Y3.179
N13520 X-17.498 Y3.268
N13525 X-17.48 Y3.356
N13530 G02 X-17.136 Y4.771 I24.724 J-5.253
N13535 X-16.906 Y5.534 I12.287 J-3.286
N13540 G01 X-16.423 Y6.861
N13545 X-16.39 Y6.945
N13550 X-16.353 Y7.027
N13555 X-15.709 Y8.354
N13560 X-15.639 Y8.484
N13565 G02 X-14.347 Y10.522 I19.494 J-10.925
N13570 X-12.226 Y12.928 I15.862 J-11.846
N13575 G01 X-12.111 Y13.039
N13580 X-11.445 Y13.607
N13585 X-11.421 Y13.628
N13590 X-10.665 Y14.25
N13595 X-10.595 Y14.305
N13600 X-10.522 Y14.356
N13605 X-9.282 Y15.18
N13610 X-9.163 Y15.252
N13615 G02 X-6.949 Y16.376 I10.601 J-18.137
N13620 G01 X-5.618 Y16.888
N13625 X-5.534 Y16.918
N13630 X-5.449 Y16.944
N13635 X-4.119 Y17.307
N13640 G02 X-3.265 Y17.484 I2.815 J-11.432
N13645 G01 X-1.934 Y17.693
N13650 X-1.846 Y17.705
N13655 X-1.757 Y17.712
N13660 G02 X-0.333 Y17.786 I1.978 J-24.277
N13665 X0.426 Y17.783 I0.336 J-13.106
N13670 G01 X1.757 Y17.712
N13675 X1.846 Y17.705
N13680 X1.934 Y17.693
N13685 G02 X4.047 Y17.325 I-2.952 J-23.169
N13690 G01 X4.083 Y17.316
N13695 X4.119 Y17.307
N13700 X5.449 Y16.944
N13705 X5.534 Y16.918
N13710 X5.618 Y16.888
N13715 X6.948 Y16.375
N13720 G02 X9.161 Y15.25 I-7.729 J-17.944
N13725 G01 X9.282 Y15.18
N13730 X10.522 Y14.356
N13735 X10.595 Y14.305
N13740 X10.665 Y14.25
N13745 X11.471 Y13.586
N13750 X11.497 Y13.564
N13755 X12.112 Y13.038
N13760 X12.228 Y12.93
N13765 G02 X14.789 Y9.892 I-13.319 J-13.828
N13770 X15.645 Y8.475 I-29.251 J-18.637
N13775 G01 X15.709 Y8.354
N13780 X16.353 Y7.027
N13785 X16.39 Y6.945
N13790 X16.423 Y6.861
N13795 X16.906 Y5.534
N13800 G02 X17.16 Y4.683 I-11.796 J-3.98
N13805 G01 X17.48 Y3.356
N13810 X17.498 Y3.268
N13815 X17.513 Y3.179
N13820 G02 X17.701 Y1.76 I-24.401 J-3.968
N13825 X17.76 Y1.001 I-13.141 J-1.404
N13830 G01 X17.795 Y-0.326
N13835 Y-0.415
N13840 X17.791 Y-0.504
N13845 G02 X17.606 Y-2.568 I-25.352 J1.238
N13850 G01 X17.587 Y-2.687
N13855 X17.337 Y-4.014
N13860 X17.302 Y-4.164
N13865 G02 X16.659 Y-6.251 I-25.439 J6.701
N13870 G01 X16.614 Y-6.363
N13875 X16.052 Y-7.69
N13880 X16.014 Y-7.773
N13885 X15.973 Y-7.853
N13890 X15.166 Y-9.314
N13895 X15.12 Y-9.393
N13900 X15.07 Y-9.469
N13905 X14.239 Y-10.662
N13910 X14.163 Y-10.763
N13915 G02 X12.956 Y-12.195 I-19.867 J15.533
N13920 G01 X12.856 Y-12.299
N13925 G02 X11.478 Y-13.602 I-28.172 J28.42
N13930 G01 X11.411 Y-13.661
N13935 X11.341 Y-13.717
N13940 X11.107 Y-13.892
N13945 G03 X11. Y-14.22 I0.18 J-0.24
N13950 G01 X12.805 Y-20.089
N13955 G03 X13.255 Y-20.252 I0.287 J0.088
N13960 X24.329 Y-0.679 I-13.321 J20.455
N13965 X21.934 Y10.463 I-23.398 J0.799
N13970 X14.771 Y19.326 I-23.205 J-11.427
N13975 X-3.679 Y24.097 I-14.625 J-18.499
N13980 X-19.871 Y14.049 I4.04 J-24.583
N13985 X-16.624 Y-17.733 I19.568 J-14.058
N13990 X13.255 Y-20.252 I16.558 J17.936
N13995 G02 X15.825 Y-20.228 I1.304 J-2.002
N14000 G03 X18.383 Y-19.987 I1.122 J1.797
N14005 G01 X19.411 Y-19.038
N14010 X19.65 Y-18.781
N14015 X21.068 Y-17.161
N14020 X21.548 Y-16.568
N14025 X22.88 Y-14.671
N14030 X23.24 Y-14.087
N14035 X24.301 Y-12.173
N14040 X24.582 Y-11.593
N14045 X25.396 Y-9.665
N14050 X25.623 Y-9.088
N14055 X26.38 Y-6.578
N14060 X26.549 Y-5.755
N14065 X26.87 Y-4.05
N14070 X26.964 Y-3.479
N14075 X27.18 Y-0.776
N14080 X27.176 Y-0.406
N14085 X27.108 Y2.143
N14090 X26.772 Y4.671
N14095 X26.674 Y5.242
N14100 X26.058 Y7.761
N14105 X25.861 Y8.337
N14110 X25.163 Y10.271
N14115 X24.92 Y10.849
N14120 X23.986 Y12.771
N14125 X23.679 Y13.352
N14130 X22.477 Y15.272
N14135 X22.188 Y15.714
N14140 X20.587 Y17.753
N14145 X20.329 Y18.047
N14150 X18.432 Y19.993
N14155 X16.539 Y21.563
N14160 X15.948 Y22.008
N14165 X13.929 Y23.347
N14170 X13.469 Y23.604
N14175 X11.536 Y24.608
N14180 X10.958 Y24.873
N14185 X8.489 Y25.832
N14190 X5.92 Y26.533
N14195 X5.347 Y26.644
N14200 X3.391 Y26.959
N14205 X2.818 Y27.044
N14210 X0.286 Y27.179
N14215 X-0.286
N14220 X-2.812 Y27.044
N14225 X-4.05 Y26.853
N14230 X-5.347 Y26.644
N14235 X-5.92 Y26.533
N14240 X-8.489 Y25.832
N14245 X-10.956 Y24.874
N14250 X-11.558 Y24.597
N14255 X-13.469 Y23.604
N14260 X-13.929 Y23.347
N14265 X-15.948 Y22.008
N14270 X-16.539 Y21.563
N14275 X-18.432 Y19.993
N14280 X-20.329 Y18.047
N14285 X-20.587 Y17.753
N14290 X-22.188 Y15.714
N14295 X-22.477 Y15.272
N14300 X-23.677 Y13.355
N14305 X-24.043 Y12.654
N14310 X-24.92 Y10.849
N14315 X-25.163 Y10.271
N14320 X-25.947 Y8.098
N14325 X-26.056 Y7.77
N14330 X-26.674 Y5.242
N14335 X-26.772 Y4.671
N14340 X-27.108 Y2.143
N14345 X-27.181 Y-0.598
N14350 Y-0.766
N14355 X-26.964 Y-3.479
N14360 X-26.87 Y-4.05
N14365 X-26.503 Y-6.001
N14370 X-26.381 Y-6.573
N14375 X-25.624 Y-9.083
N14380 X-25.317 Y-9.852
N14385 X-24.582 Y-11.593
N14390 X-24.301 Y-12.173
N14395 X-23.24 Y-14.087
N14400 X-22.88 Y-14.671
N14405 X-21.546 Y-16.57
N14410 X-21.068 Y-17.161
N14415 X-19.65 Y-18.781
N14420 X-19.411 Y-19.038
N14425 X-17.372 Y-20.921
N14430 X-15.282 Y-22.476
N14435 X-14.832 Y-22.779
N14440 X-12.681 Y-24.047
N14445 X-12.219 Y-24.276
N14450 X-9.976 Y-25.294
N14455 X-9.732 Y-25.383
N14460 X-7.186 Y-26.226
N14465 X-4.657 Y-26.777
N14470 X-4.085 Y-26.873
N14475 X-1.457 Y-27.155
N14480 X1.457
N14485 X4.085 Y-26.873
N14490 X4.657 Y-26.777
N14495 X7.186 Y-26.226
N14500 X9.732 Y-25.383
N14505 X9.976 Y-25.294
N14510 X12.219 Y-24.276
N14515 X12.681 Y-24.047
N14520 X14.832 Y-22.779
N14525 X15.282 Y-22.476
N14530 X17.372 Y-20.921
N14535 X18.383 Y-19.987
N14540 G03 X18.202 Y-19.468 I-0.203 J0.22
N14545 G01 X14.203 Y-19.169
N14550 G03 X13.881 Y-19.468 I-0.022 J-0.299
N14555 X14.202 Y-19.768 I0.3
N14560 X13.791 Y-14.083 Z-9.313 I-0.206 J2.843 F200.
N14565 X14.202 Y-19.768 Z-9.625 I0.206 J-2.843
N14570 X13.791 Y-14.083 Z-9.938 I-0.206 J2.843
N14575 X12.171 Y-14.737 Z-10. I0.206 J-2.843
N14580 X14.715 Y-17.786 I1.272 J-1.525
N14585 X22.837 Y-3.077 I-14.847 J17.795 F240.
N14590 X18.826 Y13.136 I-22.538 J3.027
N14595 X4.988 Y22.485 I-19.411 J-13.814
N14600 X-11.569 Y19.936 I-5.167 J-21.481
N14605 X-22. Y6.828 I12.353 J-20.534
N14610 X-21.304 Y-8.797 I21.132 J-6.887
N14615 X-10.773 Y-20.361 I21.894 J9.361
N14620 X10.572 Y-20.547 I10.846 J19.974
N14625 X14.715 Y-17.786 I-10.704 J20.555
N14630 G02 X17.127 Y-17.476 I1.449 J-1.737
N14635 G03 X19.508 Y-16.978 I0.86 J1.828
N14640 G01 X20.273 Y-16.103
N14645 X20.428 Y-15.91
N14650 X21.767 Y-14.005
N14655 X22.13 Y-13.42
N14660 X23.192 Y-11.503
N14665 X23.349 Y-11.186
N14670 X24.259 Y-9.03
N14675 X24.462 Y-8.455
N14680 X25.042 Y-6.531
N14685 X25.194 Y-5.958
N14690 X25.665 Y-3.457
N14695 X25.868 Y-0.946
N14700 X25.88 Y-0.377
N14705 X25.829 Y1.561
N14710 X25.807 Y2.131
N14715 X25.471 Y4.637
N14720 X25.349 Y5.209
N14725 X24.878 Y7.137
N14730 X24.711 Y7.711
N14735 X23.969 Y9.767
N14740 X23.797 Y10.2
N14745 X22.722 Y12.411
N14750 X22.576 Y12.674
N14755 X21.381 Y14.585
N14760 X20.968 Y15.172
N14765 X19.491 Y17.053
N14770 X17.672 Y18.921
N14775 X16.97 Y19.524
N14780 X15.453 Y20.782
N14785 X13.377 Y22.16
N14790 X12.793 Y22.496
N14795 X10.887 Y23.487
N14800 X10.308 Y23.737
N14805 X8.311 Y24.518
N14810 X7.82 Y24.673
N14815 X5.883 Y25.201
N14820 X5.309 Y25.339
N14825 X2.799 Y25.744
N14830 X2.227 Y25.779
N14835 X0.286 Y25.883
N14840 X-0.286
N14845 X-2.707 Y25.754
N14850 X-3.386 Y25.649
N14855 X-5.309 Y25.339
N14860 X-5.883 Y25.201
N14865 X-7.82 Y24.673
N14870 X-8.311 Y24.518
N14875 X-10.308 Y23.737
N14880 X-10.887 Y23.487
N14885 X-12.793 Y22.496
N14890 X-13.377 Y22.16
N14895 X-15.453 Y20.782
N14900 X-17.157 Y19.369
N14905 X-17.669 Y18.924
N14910 X-19.491 Y17.053
N14915 X-20.968 Y15.172
N14920 X-21.381 Y14.585
N14925 X-22.576 Y12.674
N14930 X-22.722 Y12.411
N14935 X-23.794 Y10.206
N14940 X-24.019 Y9.629
N14945 X-24.711 Y7.711
N14950 X-24.878 Y7.137
N14955 X-25.349 Y5.209
N14960 X-25.471 Y4.637
N14965 X-25.806 Y2.137
N14970 X-25.852 Y0.703
N14975 X-25.88 Y-0.377
N14980 X-25.868 Y-0.947
N14985 X-25.857 Y-1.091
N14990 X-25.665 Y-3.457
N14995 X-25.194 Y-5.958
N15000 X-25.042 Y-6.531
N15005 X-24.462 Y-8.455
N15010 X-24.259 Y-9.03
N15015 X-23.349 Y-11.186
N15020 X-23.192 Y-11.503
N15025 X-22.103 Y-13.469
N15030 X-21.769 Y-14.002
N15035 X-20.428 Y-15.91
N15040 X-20.273 Y-16.103
N15045 X-18.812 Y-17.774
N15050 X-18.39 Y-18.219
N15055 X-16.507 Y-19.954
N15060 X-14.438 Y-21.491
N15065 X-14.05 Y-21.738
N15070 X-12.134 Y-22.867
N15075 X-11.552 Y-23.157
N15080 X-9.639 Y-24.025
N15085 X-9.061 Y-24.242
N15090 X-7.137 Y-24.879
N15095 X-6.561 Y-25.04
N15100 X-4.63 Y-25.459
N15105 X-4.057 Y-25.574
N15110 X-1.543 Y-25.844
N15115 X-0.972 Y-25.861
N15120 X0.972
N15125 X1.543 Y-25.844
N15130 X4.057 Y-25.574
N15135 X4.63 Y-25.459
N15140 X6.561 Y-25.04
N15145 X7.137 Y-24.879
N15150 X9.061 Y-24.242
N15155 X9.639 Y-24.025
N15160 X11.552 Y-23.157
N15165 X12.134 Y-22.867
N15170 X14.05 Y-21.738
N15175 X14.438 Y-21.491
N15180 X16.507 Y-19.954
N15185 X18.39 Y-18.219
N15190 X18.812 Y-17.774
N15195 X19.508 Y-16.978
N15200 G03 X19.409 Y-16.509 I-0.226 J0.198
N15205 G01 X16.247 Y-15.031
N15210 G03 X15.903 Y-15.095 I-0.127 J-0.272
N15215 G02 X6.327 Y-20.89 I-15.557 J14.895
N15220 X-5.297 Y-21.286 I-6.596 J22.816
N15225 X-18.326 Y-12.06 I4.312 J19.902
N15230 X-21.645 Y3.556 I20.24 J12.462
N15235 X-18.759 Y11.325 I18.616 J-2.493
N15240 X-13.234 Y17.501 I22.951 J-14.972
N15245 X-11.051 Y19.01 I10.01 J-12.148
N15250 X-8.659 Y20.156 I8.94 J-15.599
N15255 X8.143 Y20.344 I8.649 J-22.119
N15260 X20.175 Y8.616 I-7.038 J-19.257
N15265 X21.551 Y-3.642 I-21.964 J-8.672
N15270 X16.214 Y-14.763 I-20.964 J3.221
N15275 G01 X15.903 Y-15.095
N15280 G02 X13.274 Y-15.641 I-1.712 J1.639
N15285 G03 X10.6 Y-15.884 I-1.108 J-2.643
N15290 G01 X10.539 Y-15.922
N15295 X9.209 Y-16.714
N15300 G02 X8.369 Y-17.149 I-6.581 J11.664
N15305 G01 X7.039 Y-17.75
N15310 X6.956 Y-17.786
N15315 X6.871 Y-17.816
N15320 G02 X4.809 Y-18.472 I-9.569 J26.532
N15325 G01 X4.693 Y-18.501
N15330 X3.363 Y-18.789
N15335 X3.243 Y-18.81
N15340 G02 X1.184 Y-19.057 I-4.468 J28.578
N15345 G01 X1.096 Y-19.064
N15350 X1.008 Y-19.067
N15355 X-0.322 Y-19.075
N15360 X-0.353
N15365 X-1.018 Y-19.067
N15370 X-1.184 Y-19.057
N15375 G02 X-3.243 Y-18.81 I2.41 J28.839
N15380 G01 X-3.363 Y-18.789
N15385 X-4.693 Y-18.501
N15390 X-4.809 Y-18.472
N15395 G02 X-6.871 Y-17.816 I7.504 J27.173
N15400 G01 X-6.956 Y-17.786
N15405 X-7.039 Y-17.75
N15410 X-8.369 Y-17.149
N15415 G02 X-9.209 Y-16.714 I6.062 J12.728
N15420 G01 X-10.539 Y-15.922
N15425 X-10.614 Y-15.874
N15430 X-10.687 Y-15.823
N15435 X-12.017 Y-14.835
N15440 X-12.142 Y-14.733
N15445 X-12.807 Y-14.137
N15450 X-12.826 Y-14.12
N15455 X-13.491 Y-13.506
N15460 X-13.6 Y-13.397
N15465 X-14.265 Y-12.664
N15470 X-14.288 Y-12.638
N15475 X-14.953 Y-11.876
N15480 X-15.01 Y-11.807
N15485 X-15.064 Y-11.735
N15490 G02 X-16.284 Y-9.959 I26.394 J19.438
N15495 G01 X-16.352 Y-9.846
N15500 G02 X-17.123 Y-8.45 I27.09 J15.88
N15505 G01 X-17.242 Y-8.204
N15510 X-17.907 Y-6.628
N15515 X-17.957 Y-6.496
N15520 G02 X-18.458 Y-4.859 I32.867 J10.969
N15525 G01 X-18.491 Y-4.733
N15530 G02 X-18.904 Y-2.687 I32.263 J7.581
N15535 G01 X-18.919 Y-2.6
N15540 X-18.928 Y-2.511
N15545 X-19.041 Y-1.184
N15550 X-19.044 Y-1.151
N15555 X-19.087 Y-0.487
N15560 X-19.09 Y-0.326
N15565 G02 X-19.009 Y1.731 I28.1 J-0.078
N15570 G01 X-18.997 Y1.851
N15575 X-18.82 Y3.178
N15580 G02 X-18.329 Y5.351 I23.733 J-4.221
N15585 G01 X-18.305 Y5.436
N15590 X-18.278 Y5.52
N15595 G02 X-17.524 Y7.569 I29.918 J-9.845
N15600 G01 X-17.47 Y7.692
N15605 X-16.825 Y9.019
N15610 X-16.756 Y9.147
N15615 G02 X-15.783 Y10.737 I35.043 J-20.351
N15620 G01 X-15.716 Y10.837
N15625 G02 X-14.325 Y12.618 I22.768 J-16.345
N15630 G01 X-14.223 Y12.736
N15635 X-13.522 Y13.456
N15640 X-13.497 Y13.481
N15645 X-12.868 Y14.101
N15650 X-12.752 Y14.206
N15655 X-11.422 Y15.302
N15660 X-11.35 Y15.358
N15665 X-11.277 Y15.409
N15670 X-9.864 Y16.347
N15675 X-9.729 Y16.428
N15680 G02 X-7.745 Y17.448 I16.349 J-29.356
N15685 G01 X-7.621 Y17.502
N15690 X-6.29 Y18.022
N15695 X-6.17 Y18.064
N15700 G02 X-4.115 Y18.647 I9.471 J-29.484
N15705 G01 X-4.027 Y18.668
N15710 X-3.939 Y18.685
N15715 G02 X-1.891 Y18.996 I6.324 J-34.701
N15720 G01 X-1.756 Y19.008
N15725 G02 X-0.333 Y19.082 I1.926 J-23.476
N15730 X0.426 Y19.08 I0.337 J-13.149
N15735 G01 X1.756 Y19.008
N15740 X1.891 Y18.996
N15745 G02 X3.939 Y18.685 I-4.275 J-35.003
N15750 G01 X4.027 Y18.668
N15755 X4.115 Y18.647
N15760 G02 X6.17 Y18.064 I-7.42 J-30.077
N15765 G01 X6.29 Y18.022
N15770 X7.621 Y17.502
N15775 X7.745 Y17.447
N15780 G02 X9.728 Y16.427 I-13.58 J-28.845
N15785 G01 X9.864 Y16.347
N15790 X11.277 Y15.409
N15795 X11.35 Y15.358
N15800 X11.422 Y15.302
N15805 X12.752 Y14.206
N15810 X12.869 Y14.1
N15815 X13.534 Y13.443
N15820 X13.558 Y13.419
N15825 X14.223 Y12.736
N15830 X14.332 Y12.613
N15835 G02 X15.718 Y10.838 I-25.72 J-21.525
N15840 G01 X15.783 Y10.737
N15845 G02 X16.763 Y9.134 I-25.49 J-16.695
N15850 G01 X16.825 Y9.019
N15855 X17.47 Y7.692
N15860 X17.524 Y7.569
N15865 G02 X18.278 Y5.52 I-29.152 J-11.89
N15870 G01 X18.305 Y5.436
N15875 X18.329 Y5.351
N15880 G02 X18.677 Y3.92 I-28.056 J-7.579
N15885 X18.82 Y3.178 I-11.624 J-2.631
N15890 G01 X18.997 Y1.851
N15895 X19.009 Y1.731
N15900 G02 X19.09 Y-0.326 I-28.004 J-2.134
N15905 G01 X19.091 Y-0.413
N15910 X19.086 Y-0.5
N15915 X18.99 Y-1.827
N15920 X18.987 Y-1.857
N15925 X18.927 Y-2.52
N15930 X18.918 Y-2.604
N15935 X18.904 Y-2.687
N15940 G02 X18.489 Y-4.744 I-27.637 J4.515
N15945 G01 X18.458 Y-4.859
N15950 G02 X17.957 Y-6.496 I-33.462 J9.36
N15955 G01 X17.907 Y-6.628
N15960 X17.242 Y-8.204
N15965 X17.087 Y-8.519
N15970 X16.352 Y-9.846
N15975 X16.279 Y-9.966
N15980 G02 X15.063 Y-11.735 I-31.662 J20.452
N15985 G01 X15.01 Y-11.807
N15990 X14.953 Y-11.876
N15995 G02 X13.593 Y-13.403 I-32.011 J27.125
N16000 G01 X13.491 Y-13.506
N16005 X12.668 Y-14.266
N16010 X12.643 Y-14.288
N16015 X12.136 Y-14.739
N16020 X12.017 Y-14.835
N16025 X10.687 Y-15.823
N16030 X10.659 Y-15.844
N16035 X10.629 Y-15.864
N16040 X10.6 Y-15.884
N16045 G03 X10.913 Y-16.396 I0.164 J-0.251
N16050 G01 X14.191 Y-14.522
N16055 G02 X14.544 Y-15.003 I0.149 J-0.26
N16060 G01 X13.491 Y-15.975 Z-10.05 F200.
N16065 X13.365 Y-16.081 Z-10.056
N16070 X12.7 Y-16.588 Z-10.085
N16075 X12.683 Y-16.601 Z-10.086
N16080 X12.018 Y-17.095 Z-10.115
N16085 X11.997 Y-17.11 Z-10.116
N16090 X11.976 Y-17.125
N16095 X11.955 Y-17.139 Z-10.117
N16100 X11.29 Y-17.589 Z-10.145
N16105 X11.259 Y-17.609 Z-10.147
N16110 X11.228 Y-17.629 Z-10.148
N16115 X11.197 Y-17.648 Z-10.149
N16120 X9.804 Y-18.469 Z-10.206
N16125 X9.662 Y-18.544 Z-10.211
N16130 X9.06 Y-18.828 Z-10.235
N16135 X9.035 Y-18.839 Z-10.236
N16140 X7.705 Y-19.441 Z-10.286
N16145 X7.618 Y-19.477 Z-10.29
N16150 X7.53 Y-19.509 Z-10.293
N16155 X5.535 Y-20.165 Z-10.366
N16160 X5.444 Y-20.192 Z-10.37
N16165 X5.353 Y-20.214 Z-10.373
N16170 X3.358 Y-20.639 Z-10.444
N16175 X3.267 Y-20.656 Z-10.447
N16180 X3.176 Y-20.668 Z-10.451
N16185 X1.181 Y-20.878 Z-10.521
N16190 X1.089 Y-20.885 Z-10.524
N16195 X0.998 Y-20.888 Z-10.527
N16200 X-0.998 Z-10.597
N16205 X-1.089 Y-20.885 Z-10.6
N16210 X-1.181 Y-20.878 Z-10.603
N16215 X-3.176 Y-20.668 Z-10.673
N16220 X-3.267 Y-20.656 Z-10.676
N16225 X-3.358 Y-20.639 Z-10.68
N16230 X-5.353 Y-20.214 Z-10.751
N16235 X-5.444 Y-20.192 Z-10.754
N16240 X-5.535 Y-20.165 Z-10.757
N16245 X-7.53 Y-19.509 Z-10.831
N16250 X-7.618 Y-19.477 Z-10.834
N16255 X-7.705 Y-19.441 Z-10.837
N16260 X-9.035 Y-18.839 Z-10.888
N16265 X-9.06 Y-18.828 Z-10.889
N16270 X-9.662 Y-18.544 Z-10.913
N16275 X-9.804 Y-18.469 Z-10.918
N16280 X-11.197 Y-17.648 Z-10.975
N16285 X-11.296 Y-17.585 Z-10.979
N16290 X-11.798 Y-17.242 Z-11.
N16295 G02 X-13.378 Y-16.068 I14.403 J21.032 F240.
N16300 G01 X-13.491 Y-15.975
N16305 X-14.821 Y-14.747
N16310 X-14.935 Y-14.632
N16315 G02 X-16.639 Y-12.662 I21.223 J20.085
N16320 G01 X-17.568 Y-11.331
N16325 X-17.585 Y-11.306
N16330 X-17.602 Y-11.28
N16335 X-17.761 Y-11.036
N16340 X-17.828 Y-10.925
N16345 X-18.789 Y-9.179
N16350 X-18.831 Y-9.098
N16355 X-18.868 Y-9.016
N16360 G02 X-19.706 Y-6.985 I41.419 J18.275
N16365 G01 X-19.753 Y-6.85
N16370 G02 X-20.346 Y-4.807 I33.753 J10.906
N16375 G01 X-20.375 Y-4.678
N16380 X-20.675 Y-3.089
N16385 G02 X-20.756 Y-2.503 I8.762 J1.512
N16390 X-20.903 Y-0.473 I47.243 J4.442
N16395 G01 X-20.905 Y-0.326
N16400 X-20.87 Y1.001
N16405 X-20.869 Y1.026
N16410 X-20.842 Y1.69
N16415 X-20.827 Y1.856
N16420 X-20.554 Y3.847
N16425 X-20.539 Y3.936
N16430 X-20.52 Y4.024
N16435 X-20.196 Y5.351
N16440 X-20.191 Y5.37
N16445 X-20.021 Y6.034
N16450 X-19.972 Y6.193
N16455 X-19.494 Y7.52
N16460 X-19.486 Y7.541
N16465 X-19.263 Y8.135
N16470 X-19.199 Y8.286
N16475 X-18.519 Y9.683
N16480 G02 X-18.066 Y10.509 I13.433 J-6.834
N16485 X-17.194 Y11.9 I28.908 J-17.165
N16490 G01 X-17.006 Y12.166
N16495 G02 X-15.645 Y13.868 I31.481 J-23.788
N16500 G01 X-15.55 Y13.973
N16505 X-14.22 Y15.332
N16510 X-14.155 Y15.395
N16515 X-14.086 Y15.455
N16520 X-12.756 Y16.559
N16525 G02 X-11.144 Y17.675 I11.408 J-14.757
N16530 G01 X-11.12 Y17.69
N16535 X-10.587 Y18.031
N16540 X-10.451 Y18.11
N16545 X-9.12 Y18.802
N16550 X-9.088 Y18.818
N16555 X-9.054 Y18.834
N16560 X-8.389 Y19.145
N16565 X-8.281 Y19.191
N16570 X-6.612 Y19.839
N16575 X-6.526 Y19.869
N16580 X-6.44 Y19.895
N16585 X-4.784 Y20.347
N16590 G02 X-2.606 Y20.738 I5.219 J-22.797
N16595 X-1.756 Y20.825 I1.633 J-11.82
N16600 X-0.333 Y20.899 I1.983 J-24.523
N16605 X0.426 Y20.896 I0.336 J-13.367
N16610 X2.572 Y20.744 I-0.555 J-23.038
N16615 X4.784 Y20.348 I-3.212 J-24.349
N16620 G01 X6.44 Y19.895
N16625 X6.527 Y19.869
N16630 X6.612 Y19.838
N16635 X8.322 Y19.175
N16640 X8.437 Y19.126
N16645 G02 X10.451 Y18.11 I-12.698 J-27.689
N16650 G01 X10.592 Y18.028
N16655 G02 X12.758 Y16.561 I-14.977 J-24.449
N16660 G01 X14.086 Y15.455
N16665 X14.155 Y15.395
N16670 X14.22 Y15.332
N16675 X15.55 Y13.973
N16680 X15.645 Y13.868
N16685 G02 X17.239 Y11.839 I-22.296 J-19.161
N16690 G01 X18.065 Y10.509
N16695 G02 X18.533 Y9.654 I-12.115 J-7.182
N16700 G01 X19.199 Y8.286
N16705 X19.235 Y8.206
N16710 X19.267 Y8.124
N16715 X19.729 Y6.867
N16720 X19.733 Y6.857
N16725 X19.972 Y6.193
N16730 X20. Y6.109
N16735 X20.024 Y6.024
N16740 X20.356 Y4.697
N16745 X20.358 Y4.687
N16750 X20.52 Y4.024
N16755 X20.539 Y3.936
N16760 X20.554 Y3.847
N16765 X20.827 Y1.856
N16770 X20.837 Y1.767
N16775 X20.842 Y1.677
N16780 X20.887 Y0.35
N16785 Y0.338
N16790 X20.905 Y-0.326
N16795 X20.903 Y-0.473
N16800 G02 X20.679 Y-3.09 I-27.677 J1.05
N16805 G01 X20.375 Y-4.678
N16810 X20.346 Y-4.807
N16815 G02 X19.753 Y-6.85 I-34.334 J8.861
N16820 G01 X19.706 Y-6.985
N16825 G02 X18.868 Y-9.016 I-42.248 J16.241
N16830 G01 X18.831 Y-9.098
N16835 X18.789 Y-9.179
N16840 X17.828 Y-10.925
N16845 X17.761 Y-11.036
N16850 X17.602 Y-11.28
N16855 G02 X16.588 Y-12.723 I-33.584 J22.526
N16860 G01 X16.282 Y-13.115
N16865 G02 X14.926 Y-14.642 I-36.901 J31.398
N16870 G01 X14.821 Y-14.747
N16875 X13.491 Y-15.975
N16880 X13.365 Y-16.081
N16885 G02 X11.198 Y-17.65 I-18.237 J22.9
N16890 G01 X9.804 Y-18.469
N16895 X9.662 Y-18.544
N16900 X9.06 Y-18.828
N16905 X9.035 Y-18.839
N16910 X7.705 Y-19.441
N16915 X7.618 Y-19.477
N16920 X7.53 Y-19.509
N16925 X5.535 Y-20.165
N16930 X5.444 Y-20.192
N16935 X5.353 Y-20.214
N16940 X3.358 Y-20.639
N16945 X3.267 Y-20.656
N16950 X3.176 Y-20.668
N16955 X1.181 Y-20.878
N16960 X1.089 Y-20.885
N16965 X0.998 Y-20.888
N16970 X-0.998
N16975 X-1.089 Y-20.885
N16980 X-1.181 Y-20.878
N16985 X-3.176 Y-20.668
N16990 X-3.267 Y-20.656
N16995 X-3.358 Y-20.639
N17000 X-5.353 Y-20.214
N17005 X-5.444 Y-20.192
N17010 X-5.535 Y-20.165
N17015 X-7.53 Y-19.509
N17020 X-7.618 Y-19.477
N17025 X-7.705 Y-19.441
N17030 X-9.035 Y-18.839
N17035 X-9.06 Y-18.828
N17040 X-9.662 Y-18.544
N17045 X-9.804 Y-18.469
N17050 X-11.197 Y-17.648
N17055 X-11.296 Y-17.585
N17060 X-11.798 Y-17.242
N17065 G03 X-12.23 Y-17.344 I-0.169 J-0.248
N17070 G01 X-13.49 Y-19.611
N17075 G03 X-13.406 Y-19.997 I0.262 J-0.146
N17080 G01 X-13.331 Y-20.054
N17085 X-11.083 Y-21.378
N17090 X-8.975 Y-22.335
N17095 X-8.397 Y-22.551
N17100 X-6.336 Y-23.233
N17105 X-4.016 Y-23.735
N17110 X-3.443 Y-23.815
N17115 X-1.529 Y-24.021
N17120 X-0.958 Y-24.047
N17125 X0.958
N17130 X1.529 Y-24.021
N17135 X3.443 Y-23.815
N17140 X4.016 Y-23.735
N17145 X6.336 Y-23.233
N17150 X8.397 Y-22.551
N17155 X8.975 Y-22.335
N17160 X11.083 Y-21.378
N17165 X13.331 Y-20.054
N17170 X15.204 Y-18.662
N17175 X15.622 Y-18.306
N17180 X17.055 Y-16.983
N17185 X17.657 Y-16.339
N17190 X18.908 Y-14.909
N17195 X20.178 Y-13.11
N17200 X20.442 Y-12.724
N17205 X21.485 Y-10.842
N17210 X21.77 Y-10.262
N17215 X22.629 Y-8.227
N17220 X22.957 Y-7.161
N17225 X23.338 Y-5.899
N17230 X23.467 Y-5.327
N17235 X23.869 Y-3.191
N17240 X24.049 Y-0.94
N17245 X24.066 Y-0.37
N17250 X24.015 Y1.541
N17255 X23.979 Y2.111
N17260 X23.724 Y4.019
N17265 X23.633 Y4.591
N17270 X23.168 Y6.493
N17275 X23.015 Y7.066
N17280 X22.332 Y8.96
N17285 X22.102 Y9.537
N17290 X21.186 Y11.42
N17295 X20.857 Y12.001
N17300 X19.676 Y13.88
N17305 X18.216 Y15.739
N17310 X17.659 Y16.335
N17315 X16.427 Y17.6
N17320 X15.73 Y18.195
N17325 X14.544 Y19.179
N17330 X14.208 Y19.432
N17335 X12.296 Y20.701
N17340 X12.127 Y20.799
N17345 X9.969 Y21.92
N17350 X7.736 Y22.795
N17355 X7.16 Y22.973
N17360 X5.256 Y23.492
N17365 X4.683 Y23.603
N17370 X2.772 Y23.911
N17375 X2.2 Y23.964
N17380 X0.286 Y24.066
N17385 X-0.286
N17390 X-2.2 Y23.964
N17395 X-2.772 Y23.911
N17400 X-4.683 Y23.603
N17405 X-5.256 Y23.492
N17410 X-7.16 Y22.973
N17415 X-7.736 Y22.795
N17420 X-9.969 Y21.92
N17425 X-12.127 Y20.799
N17430 X-12.296 Y20.701
N17435 X-14.208 Y19.432
N17440 X-14.544 Y19.179
N17445 X-15.83 Y18.113
N17450 X-16.432 Y17.595
N17455 X-17.688 Y16.304
N17460 X-18.215 Y15.74
N17465 X-19.676 Y13.88
N17470 X-20.857 Y12.001
N17475 X-21.186 Y11.42
N17480 X-22.102 Y9.537
N17485 X-22.332 Y8.96
N17490 X-23.013 Y7.072
N17495 X-23.244 Y6.184
N17500 X-23.633 Y4.591
N17505 X-23.724 Y4.019
N17510 X-23.979 Y2.111
N17515 X-24.015 Y1.541
N17520 X-24.066 Y-0.37
N17525 X-24.049 Y-0.94
N17530 X-23.869 Y-3.191
N17535 X-23.467 Y-5.327
N17540 X-23.338 Y-5.899
N17545 X-22.759 Y-7.818
N17550 X-22.632 Y-8.221
N17555 X-21.77 Y-10.262
N17560 X-21.485 Y-10.842
N17565 X-20.446 Y-12.717
N17570 X-19.518 Y-14.049
N17575 X-18.909 Y-14.907
N17580 X-17.562 Y-16.447
N17585 X-17.059 Y-16.979
N17590 X-15.622 Y-18.306
N17595 X-15.204 Y-18.662
N17600 X-13.406 Y-19.997
N17605 X-13.351 Y-20.034 Z-10.992
N17610 X-13.291 Y-20.064 Z-10.985
N17615 X-13.232 Y-20.087 Z-10.963
N17620 X-13.171 Y-20.103 Z-10.941
N17625 X-13.115 Y-20.112 Z-10.905
N17630 X-13.058 Y-20.116 Z-10.869
N17635 X-12.963 Y-20.11 Z-10.774
N17640 X-12.893 Y-20.095 Z-10.66
N17645 X-12.851 Y-20.082 Z-10.534
N17650 X-12.837 Y-20.077 Z-10.4
N17655 G00 Z15.

N17660 G28 G91 Z0.
N17665 G90
N17670 G49
N17675 G5.1 Q0
N17680 G28 G91 X0. Y0.
N17685 G90
N17690 M30
%
