%
O1001
(T1 D=50. CR=0. - ZMIN=-0.5 - FACE MILL)
(T2 D=6. CR=0. - ZMIN=-5.5 - FLAT END MILL)
(T5 D=3. CR=0. TAPER=118DEG - ZMIN=-17.051 - DRILL)
N10 G90 G94 G17 G49 G40 G80
N15 G21
N20 G28 G91 Z0.
N25 G90

(FACE2)
N30 T1 
N35 M06
N40 S1000 M03
N45 G54
N50 G5.1 Q1
N55 G00 X78.405 Y-48.313
N60 G43 Z15. H01
N65 G00 Z5.
N70 G01 Z4.5 F150.
N75 G18 G03 X73.405 Z-0.5 I-5.
N80 G01 X52.5
N85 X-52.5
N90 G17 G02 Y-24.375 J11.969
N95 G01 X52.5
N100 G03 Y-0.438 J11.969
N105 G01 X-52.5
N110 G02 Y23.5 J11.969
N115 G01 X52.5
N120 G18 G02 X57.5 Z4.5 K5.
N125 G00 Z15.
N130 G17
N135 M05
N140 G28 G91 Z0.
N145 G90
N150 G49
N155 G5.1 Q0

(DRILL2)
N160 M01
N165 T2 
N170 M06
N175 S3500 M03
N180 G54
N185 G00 X30.5 Y-30.5
N190 G43 Z15. H02
N195 G00 Z5.
N200 G98 G73 X30.5 Y-30.5 Z-6.401 R4.5 Q0.75 F5.
N205 G80
N210 X0. Y0. Z5.
N215 Z4.5
N220 Z1.5
N225 G01 Z-1.25 F5.
N230 G00 Z-1.15
N235 G01 Z-2. F5.
N240 G00 Z-1.9
N245 G01 Z-2.75 F5.
N250 G00 Z-2.65
N255 G01 Z-3.5 F5.
N260 G00 Z-3.4
N265 G01 Z-4.25 F5.
N270 G00 Z-4.15
N275 G01 Z-5. F5.
N280 G00 Z-4.9
N285 G01 Z-5.75 F5.
N290 G00 Z-5.65
N295 G01 Z-6.5 F5.
N300 G00 Z-6.4
N305 G01 Z-7.25 F5.
N310 G00 Z-7.15
N315 G01 Z-8. F5.
N320 G00 Z-7.9
N325 G01 Z-8.75 F5.
N330 G00 Z5.
N335 Z-6.75
N340 G01 Z-9.5 F5.
N345 G00 Z-9.4
N350 G01 Z-10.25 F5.
N355 G00 Z-10.15
N360 G01 Z-11. F5.
N365 G00 Z-10.9
N370 G01 Z-11.75 F5.
N375 G00 Z-11.65
N380 G01 Z-12.5 F5.
N385 G00 Z-12.4
N390 G01 Z-13.25 F5.
N395 G00 Z-13.15
N400 G01 Z-14. F5.
N405 G00 Z-13.9
N410 G01 Z-14.75 F5.
N415 G00 Z-14.65
N420 G01 Z-15.5 F5.
N425 G00 Z-15.4
N430 G01 Z-16.25 F5.
N435 G00 Z-16.15
N440 G01 Z-17. F5.
N445 G00 Z5.
N450 Z-15.
N455 G01 Z-17.051 F5.
N460 G00 Z5.
N465 X-30.5 Y30.5
N470 G73 X-30.5 Y30.5 Z-6.401 R4.5 Q0.75 F5.
N475 G80
N480 Z15.
N485 M05
N490 G28 G91 Z0.
N495 G90
N500 G49

(BORE1)
N505 M01
N510 T3 
N515 M06
N520 S6000 M03
N525 G54
N530 G5.1 Q1
N535 G00 X30.5 Y-30.5
N540 G43 Z15. H03
N545 G00 Z1.5
N550 G01 Z-0.5 F125.
N555 X30.75 Y-30.75
N560 G03 X31. Y-30.5 J0.25
N565 X30. Z-1. I-0.5
N570 X31. Z-1.5 I0.5
N575 X30. Z-2. I-0.5
N580 X31. Z-2.5 I0.5
N585 X30. Z-3. I-0.5
N590 X31. Z-3.5 I0.5
N595 X30. Z-4. I-0.5
N600 X31. Z-4.5 I0.5
N605 X30. Z-5. I-0.5
N610 X31. Z-5.5 I0.5
N615 X30. I-0.5
N620 X31. I0.5
N625 X30.75 Y-30.25 I-0.25
N630 G01 X30.5 Y-30.5
N635 G00 Z5.
N640 Z15.
N645 Z-3.5
N650 G01 Z-5.5 F125.
N655 X31. Y-31.
N660 G03 X31.5 Y-30.5 J0.5
N665 X29.5 I-1.
N670 X31.5 I1.
N675 X31. Y-30. I-0.5
N680 G01 X30.5 Y-30.5
N685 G00 Z5.
N690 X-30.5 Y30.5
N695 Z1.5
N700 G01 Z-0.5 F125.
N705 X-30.25 Y30.25
N710 G03 X-30. Y30.5 J0.25
N715 X-31. Z-1. I-0.5
N720 X-30. Z-1.5 I0.5
N725 X-31. Z-2. I-0.5
N730 X-30. Z-2.5 I0.5
N735 X-31. Z-3. I-0.5
N740 X-30. Z-3.5 I0.5
N745 X-31. Z-4. I-0.5
N750 X-30. Z-4.5 I0.5
N755 X-31. Z-5. I-0.5
N760 X-30. Z-5.5 I0.5
N765 X-31. I-0.5
N770 X-30. I0.5
N775 X-30.25 Y30.75 I-0.25
N780 G01 X-30.5 Y30.5
N785 G00 Z5.
N790 Z-3.5
N795 G01 Z-5.5 F125.
N800 X-30. Y30.
N805 G03 X-29.5 Y30.5 J0.5
N810 X-31.5 I-1.
N815 X-29.5 I1.
N820 X-30. Y31. I-0.5
N825 G01 X-30.5 Y30.5
N830 G00 Z15.

N835 G28 G91 Z0.
N840 G90
N845 G49
N850 G5.1 Q0
N855 G28 G91 X0. Y0.
N860 G90
N865 M30
%
