%
O1001
(T3 D=4. CR=2. - ZMIN=-12.45 - BALL END MILL)
N10 G90 G94 G17 G49 G40 G80
N15 G21
N20 G28 G91 Z0.
N25 G90

(CONTOUR2)
N30 T4 
N32 M06
N35 S8000 M03
N40 G54
N45 G5.1 Q1
N50 G00 X-2.556 Y34.568
N55 G43 Z15. H04
N60 G00 Z0.517
N65 G01 Z-0.55 F250.
N70 Y34.408 F800.
N75 G02 X-2.957 Y33.927 I-0.447 J-0.036
N80 G03 X2.957 Y-33.926 I2.957 J-33.926
N85 Y33.927 I-2.957 J33.926
N90 G02 X2.556 Y34.408 I0.045 J0.445
N95 G01 Y34.568
N100 X-2.376 F250.
N105 Z-0.6
N110 G02 X-2.551 Y33.93 I-0.79 J-0.126 F800.
N115 X-2.957 Y33.746 I-0.464 J0.483
N120 G03 X2.957 Y-33.745 I2.957 J-33.745
N125 Y33.746 I-2.957 J33.745
N130 G02 X2.376 Y34.408 I0.046 J0.626
N135 G01 Y34.568
N140 X-2.24 F250.
N145 Z-0.65
N150 G02 X-2.425 Y33.869 I-0.905 J-0.134 F800.
N155 X-2.957 Y33.61 I-0.584 J0.522
N160 G03 X2.957 Y-33.609 I2.957 J-33.609
N165 X2.822 Y33.621 I-2.957 J33.609
N170 G02 X2.248 Y34.566 I0.223 J0.783
N175 G01 X-2.128 Y34.568 F250.
N180 Z-0.7
N185 G02 X-2.398 Y33.734 I-0.993 J-0.139 F800.
N190 X-2.957 Y33.497 I-0.619 J0.684
N195 G03 X2.957 Y-33.497 I2.957 J-33.497
N200 X2.822 Y33.509 I-2.957 J33.497
N205 G02 X2.136 Y34.566 I0.213 J0.889
N210 G01 X-2.032 Y34.568 F250.
N215 Z-0.75
N220 G02 X-2.283 Y33.715 I-1.094 J-0.141 F800.
N225 X-2.957 Y33.4 I-0.731 J0.687
N230 G03 X2.957 Y-33.4 I2.957 J-33.4
N235 X2.822 Y33.412 I-2.957 J33.4
N240 G02 X2.04 Y34.567 I0.205 J0.981
N245 G01 X-1.946 Y34.568 F250.
N250 Z-0.8
N255 G02 X-2.283 Y33.594 I-1.148 J-0.148 F800.
N260 X-2.957 Y33.315 I-0.734 J0.818
N265 G03 X2.957 Y-33.314 I2.957 J-33.314
N270 X2.809 Y33.327 I-2.957 J33.314
N275 G02 X1.954 Y34.567 I0.216 J1.063
N280 G01 X-1.87 Y34.568 F250.
N285 Z-0.85
N290 G02 X-2.317 Y33.465 I-1.211 J-0.152 F800.
N295 X-2.957 Y33.237 I-0.709 J0.98
N300 G03 X2.957 Y-33.237 I2.957 J-33.237
N305 X2.822 Y33.249 I-2.957 J33.237
N310 G02 X1.878 Y34.567 I0.197 J1.138
N315 G01 X-1.8 Y34.568 F250.
N320 Z-0.9
N325 G02 X-2.283 Y33.403 I-1.273 J-0.155 F800.
N330 X-2.957 Y33.167 I-0.746 J1.052
N335 G03 X2.957 Y-33.167 I2.957 J-33.167
N340 X2.822 Y33.179 I-2.957 J33.167
N345 G02 X1.808 Y34.567 I0.195 J1.207
N350 G01 X-1.736 Y34.568 F250.
N355 Z-0.95
N360 G02 X-2.283 Y33.325 I-1.33 J-0.157 F800.
N365 X-2.957 Y33.103 I-0.744 J1.13
N370 G03 X2.957 Y-33.103 I2.957 J-33.103
N375 X2.822 Y33.115 I-2.957 J33.103
N380 G02 X1.745 Y34.567 I0.192 J1.268
N385 G01 X-1.677 Y34.568 F250.
N390 Z-1.
N395 G02 X-2.382 Y33.195 I-1.374 J-0.162 F800.
N400 X-2.957 Y33.044 I-0.667 J1.362
N405 G03 X2.957 Y-33.044 I2.957 J-33.044
N410 X2.783 Y33.059 I-2.957 J33.044
N415 G02 X1.684 Y34.567 I0.239 J1.328
N420 G01 X-1.623 Y34.568 F250.
N425 Z-1.05
N430 G02 X-2.418 Y33.117 I-1.422 J-0.164 F800.
N435 X-2.957 Y32.989 I-0.639 J1.49
N440 G03 X2.957 Y-32.989 I2.957 J-32.989
N445 X2.822 Y33.001 I-2.957 J32.989
N450 G02 X1.63 Y34.567 I0.191 J1.382
N455 G01 X-1.572 Y34.568 F250.
N460 Z-1.1
N465 G02 X-2.418 Y33.062 I-1.468 J-0.166 F800.
N470 X-2.957 Y32.938 I-0.637 J1.542
N475 G03 X2.957 Y-32.938 I2.957 J-32.938
N480 X2.822 Y32.95 I-2.957 J32.938
N485 G02 X1.58 Y34.567 I0.189 J1.431
N490 G01 X-1.524 Y34.568 F250.
N495 Z-1.15
N500 G02 X-2.553 Y32.959 I-1.509 J-0.168 F800.
N505 X-2.957 Y32.89 I-0.561 J2.066
N510 G03 X2.957 Y-32.891 I2.957 J-32.89
N515 X2.822 Y32.902 I-2.957 J32.89
N520 G02 X1.532 Y34.567 I0.189 J1.479
N525 G01 X-1.48 Y34.568 F250.
N530 Z-1.2
N535 G02 X-2.553 Y32.914 I-1.549 J-0.17 F800.
N540 G01 X-2.688 Y32.882
N545 G03 X-6.198 Y32.393 I3.88 J-40.732
N550 X6.198 Y-32.391 I6.198 J-32.392
N555 X2.823 Y32.86 I-6.198 J32.392
N560 G02 X1.488 Y34.567 I0.182 J1.517
N565 G01 X-1.439 Y34.568 F250.
N570 Z-1.25
N575 G02 X-2.687 Y32.836 I-1.588 J-0.171 F800.
N580 G03 X-12.635 Y30.419 I2.821 J-33.298
N585 X12.634 Y-30.418 I12.634 J-30.419
N590 X2.823 Y32.818 I-12.634 J30.419
N595 G02 X1.447 Y34.567 I0.183 J1.56
N600 G01 X-1.4 Y34.568 F250.
N605 Z-1.3
N610 G02 X-2.957 Y32.765 I-1.621 J-0.174 F800.
N615 G03 X2.957 Y-32.766 I2.957 J-32.765
N620 X2.711 Y32.786 I-2.957 J32.765
N625 G02 X1.405 Y34.567 I0.32 J1.604
N630 G01 X-1.364 Y34.568 F250.
N635 Z-1.35
N640 G02 X-2.957 Y32.729 I-1.657 J-0.174 F800.
N645 G03 X2.957 Y-32.729 I2.957 J-32.729
N650 X2.822 Y32.74 I-2.957 J32.729
N655 G02 X1.371 Y34.567 I0.188 J1.639
N660 G01 X-1.33 Y34.568 F250.
N665 Z-1.4
N670 G02 X-2.822 Y32.705 I-1.692 J-0.174 F800.
N675 G03 X2.822 Y-32.708 I2.822 J-32.706
N680 Y32.705 I-2.822 J32.706
N685 G02 X1.337 Y34.567 I0.191 J1.676
N690 G01 X-1.298 Y34.568 F250.
N695 Z-1.45
N700 G02 X-2.822 Y32.673 I-1.724 J-0.174 F800.
N705 G03 X2.822 Y-32.676 I2.822 J-32.674
N710 Y32.673 I-2.822 J32.674
N715 G02 X1.304 Y34.567 I0.191 J1.708
N720 G01 X-1.269 Y34.568 F250.
N725 Z-1.5
N730 G02 X-2.822 Y32.645 I-1.75 J-0.176 F800.
N735 G03 X2.822 Y-32.647 I2.822 J-32.646
N740 X2.721 Y32.653 I-2.822 J32.646
N745 G02 X1.274 Y34.567 I0.305 J1.734
N750 G01 X-1.24 Y34.568 F250.
N755 Z-1.55
N760 G02 X-2.822 Y32.615 I-1.78 J-0.176 F800.
N765 G03 X2.822 Y-32.618 I2.822 J-32.616
N770 Y32.615 I-2.822 J32.616
N775 G02 X1.247 Y34.567 I0.19 J1.765
N780 G01 X-1.214 Y34.568 F250.
N785 Z-1.6
N790 G02 X-2.822 Y32.589 I-1.806 J-0.176 F800.
N795 G03 X2.822 Y-32.591 I2.822 J-32.59
N800 Y32.589 I-2.822 J32.59
N805 G02 X1.22 Y34.567 I0.19 J1.791
N810 G01 X-1.192 Y34.568 F250.
N815 Z-1.65
N820 G02 X-2.822 Y32.566 I-1.828 J-0.176 F800.
N825 G03 X2.822 Y-32.569 I2.822 J-32.568
N830 Y32.567 I-2.822 J32.568
N835 G02 X1.199 Y34.567 I0.19 J1.813
N840 G01 X-1.167 Y34.568 F250.
N845 Z-1.7
N850 G02 X-2.822 Y32.541 I-1.853 J-0.176 F800.
N855 G03 X2.822 Y-32.544 I2.822 J-32.543
N860 Y32.541 I-2.822 J32.543
N865 G02 X1.173 Y34.567 I0.19 J1.839
N870 G01 X-1.146 Y34.568 F250.
N875 Z-1.75
N880 G02 X-2.822 Y32.521 I-1.872 J-0.177 F800.
N885 G03 X2.822 Y-32.523 I2.822 J-32.522
N890 X2.687 Y32.532 I-2.822 J32.522
N895 G02 X1.15 Y34.568 I0.343 J1.857
N900 G01 X-1.128 F250.
N905 Z-1.8
N910 G02 X-2.822 Y32.503 I-1.89 J-0.177 F800.
N915 G03 X2.822 Y-32.505 I2.822 J-32.504
N920 X2.687 Y32.514 I-2.822 J32.504
N925 G02 X1.132 Y34.568 I0.343 J1.875
N930 G01 X-1.109 F250.
N935 Z-1.85
N940 G02 X-2.822 Y32.483 I-1.91 J-0.177 F800.
N945 G03 X2.822 Y-32.485 I2.822 J-32.484
N950 X2.687 Y32.495 I-2.822 J32.484
N955 G02 X1.113 Y34.568 I0.342 J1.895
N960 G01 X-1.092 F250.
N965 Z-1.9
N970 G02 X-2.822 Y32.467 I-1.925 J-0.177 F800.
N975 G03 X2.822 Y-32.469 I2.822 J-32.468
N980 X2.687 Y32.478 I-2.822 J32.468
N985 G02 X1.096 Y34.568 I0.341 J1.91
N990 G01 X-1.077 F250.
N995 Z-1.95
N1000 G02 X-2.822 Y32.451 I-1.941 J-0.177 F800.
N1005 G03 X2.822 Y-32.454 I2.822 J-32.453
N1010 X2.687 Y32.463 I-2.822 J32.453
N1015 G02 X1.081 Y34.568 I0.342 J1.926
N1020 G01 X-1.064 F250.
N1025 Z-2.
N1030 G02 X-2.822 Y32.438 I-1.955 J-0.177 F800.
N1035 G03 X2.822 Y-32.44 I2.822 J-32.439
N1040 X2.687 Y32.449 I-2.822 J32.439
N1045 G02 X1.068 Y34.568 I0.341 J1.939
N1050 G01 X-1.051 F250.
N1055 Z-2.05
N1060 G02 X-2.822 Y32.425 I-1.967 J-0.177 F800.
N1065 G03 X2.822 Y-32.428 I2.822 J-32.427
N1070 X2.687 Y32.437 I-2.822 J32.427
N1075 G02 X1.055 Y34.568 I0.341 J1.952
N1080 G01 X-1.04 F250.
N1085 Z-2.1
N1090 G02 X-2.822 Y32.414 I-1.978 J-0.177 F800.
N1095 G03 X2.822 Y-32.417 I2.822 J-32.416
N1100 X2.687 Y32.426 I-2.822 J32.416
N1105 G02 X1.044 Y34.568 I0.341 J1.962
N1110 G01 X-1.031 F250.
N1115 Z-2.15
N1120 G02 X-2.822 Y32.405 I-1.988 J-0.177 F800.
N1125 G03 X2.822 Y-32.408 I2.822 J-32.406
N1130 X2.687 Y32.416 I-2.822 J32.406
N1135 G02 X1.035 Y34.568 I0.34 J1.972
N1140 G01 X-1.023 F250.
N1145 Z-2.2
N1150 G02 X-2.822 Y32.397 I-1.996 J-0.177 F800.
N1155 G03 X2.822 Y-32.399 I2.822 J-32.398
N1160 X2.687 Y32.408 I-2.822 J32.398
N1165 G02 X1.027 Y34.568 I0.34 J1.98
N1170 G01 X-1.016 F250.
N1175 Z-2.25
N1180 G02 X-2.822 Y32.39 I-2.003 J-0.177 F800.
N1185 G03 X2.822 Y-32.392 I2.822 J-32.391
N1190 X2.687 Y32.401 I-2.822 J32.391
N1195 G02 X1.02 Y34.568 I0.34 J1.987
N1200 G01 X-1.01 F250.
N1205 Z-2.3
N1210 G02 X-2.822 Y32.385 I-2.007 J-0.178 F800.
N1215 G03 X2.822 Y-32.386 I2.822 J-32.386
N1220 X2.687 Y32.396 I-2.822 J32.385
N1225 G02 X1.014 Y34.568 I0.338 J1.991
N1230 G01 X-1.006 F250.
N1235 Z-2.35
N1240 G02 X-2.822 Y32.38 I-2.011 J-0.178 F800.
N1245 G03 X2.822 Y-32.382 I2.822 J-32.381
N1250 X2.687 Y32.392 I-2.822 J32.381
N1255 G02 X1.01 Y34.568 I0.338 J1.995
N1260 G01 X-1.003 F250.
N1265 Z-2.4
N1270 G02 X-2.822 Y32.377 I-2.014 J-0.178 F800.
N1275 G03 X2.822 Y-32.379 I2.822 J-32.378
N1280 X2.687 Y32.389 I-2.822 J32.378
N1285 G02 X1.007 Y34.568 I0.338 J1.998
N1290 G01 X-1. F250.
N1295 Z-2.45
N1300 G02 X-2.822 Y32.375 I-2.016 J-0.178 F800.
N1305 G03 X2.823 Y-32.377 I2.822 J-32.376
N1310 X2.688 Y32.387 I-2.822 J32.376
N1315 G02 X1.004 Y34.568 I0.337 J2.
N1320 G01 X-0.998 F250.
N1325 Z-2.5
N1330 G02 X-2.822 Y32.374 I-2.016 J-0.178 F800.
N1335 G03 X2.822 Y-32.376 I2.822 J-32.375
N1340 X2.688 Y32.386 I-2.822 J32.375
N1345 G02 X1.002 Y34.568 I0.335 J2.
N1350 G01 X-0.995 F250.
N1355 Z-2.55
N1360 G02 X-2.957 Y32.365 I-2.018 J-0.178 F800.
N1365 G03 X2.957 Y-32.361 I2.957 J-32.363
N1370 X2.688 Y32.388 I-2.957 J32.363
N1375 G02 X1. Y34.567 I0.324 J1.993
N1380 G01 X-0.993 Y34.566 F250.
N1385 Z-2.6
N1390 G02 X-2.957 Y32.364 I-2.019 J-0.176 F800.
N1395 G03 X2.957 Y-32.359 I2.957 J-32.361
N1400 X2.686 Y32.387 I-2.957 J32.361
N1405 G02 X0.997 Y34.565 I0.323 J1.994
N1410 G01 X-0.985 Y34.564 F250.
N1415 Z-2.65
N1420 G02 X-2.957 Y32.365 I-2.02 J-0.172 F800.
N1425 G03 X2.956 Y-32.357 I2.957 J-32.361
N1430 X2.681 Y32.389 I-2.957 J32.361
N1435 G02 X0.989 Y34.563 I0.323 J1.997
N1440 G01 X-0.977 Y34.557 F250.
N1445 Z-2.7
N1450 G02 X-2.957 Y32.365 I-2.017 J-0.168 F800.
N1455 G03 X2.956 Y-32.354 I2.957 J-32.36
N1460 X2.676 Y32.39 I-2.957 J32.36
N1465 G02 X0.981 Y34.557 I0.315 J1.993
N1470 G01 X-0.965 Y34.555 F250.
N1475 Z-2.75
N1480 G02 X-2.957 Y32.366 I-2.019 J-0.164 F800.
N1485 G03 X-13.576 Y29.521 I3.131 J-32.934
N1490 X13.575 Y-29.517 I13.576 J-29.519
N1495 X2.667 Y32.383 I-13.576 J29.519
N1500 G02 X0.965 Y34.555 I0.333 J2.014
N1505 G01 X-0.951 Y34.545 F250.
N1510 Z-2.8
N1515 G02 X-2.823 Y32.374 I-2.012 J-0.157 F800.
N1520 G03 X2.822 Y-32.363 I2.822 J-32.369
N1525 X2.652 Y32.389 I-2.822 J32.369
N1530 G02 X0.95 Y34.545 I0.323 J2.005
N1535 G01 X-0.933 Y34.543 F250.
N1540 Z-2.85
N1545 G02 X-2.823 Y32.374 I-2.015 J-0.151 F800.
N1550 G03 X-30.612 Y10.888 I2.859 J-32.411
N1555 X30.609 Y-10.885 I30.61 J-10.887
N1560 X2.637 Y32.383 I-30.61 J10.887
N1565 G02 X0.929 Y34.543 I0.344 J2.028
N1570 G01 X-0.913 Y34.528 F250.
N1575 Z-2.9
N1580 G02 X-2.823 Y32.376 I-2.012 J-0.139 F800.
N1585 G03 X-11.829 Y30.26 I3.092 J-33.393
N1590 X11.828 Y-30.255 I11.828 J-30.258
N1595 X2.623 Y32.384 I-11.828 J30.258
N1600 G02 X0.913 Y34.138 I0.356 J2.056
N1605 G01 X0.914 Y34.274
N1610 X0.913 Y34.408
N1615 Y34.528
N1620 X-0.89 Y34.524 F250.
N1625 Z-2.95
N1630 G02 X-2.823 Y32.376 I-2.015 J-0.13 F800.
N1635 G03 X-8.872 Y31.253 I3.35 J-34.92
N1640 X8.871 Y-31.249 I8.871 J-31.251
N1645 X2.608 Y32.383 I-8.871 J31.251
N1650 G02 X0.909 Y34.003 I0.365 J2.084
N1655 X0.89 Y34.524 I4.391 J0.42
N1660 G01 X-0.863 Y34.507 F250.
N1665 Z-3.
N1670 G02 X-2.153 Y32.524 I-1.971 J-0.129 F800.
N1675 X-3.226 Y32.334 I-1.026 J2.66
N1680 G03 X-8.872 Y31.251 I3.665 J-34.379
N1685 X8.871 Y-31.248 I8.871 J-31.25
N1690 X2.585 Y32.383 I-8.871 J31.25
N1695 G02 X0.91 Y33.868 I0.394 J2.131
N1700 X0.863 Y34.507 I2.664 J0.517
N1705 G01 X-0.834 Y34.503 F250.
N1710 Z-3.05
N1715 G02 X-1.886 Y32.645 I-1.926 J-0.136 F800.
N1720 X-3.091 Y32.344 I-1.136 J1.991
N1725 G03 X-11.857 Y30.243 I3.303 J-33.115
N1730 X11.856 Y-30.24 I11.857 J-30.242
N1735 X2.553 Y32.384 I-11.857 J30.242
N1740 G02 X0.922 Y33.734 I0.427 J2.176
N1745 X0.835 Y34.503 I2.138 J0.632
N1750 G01 X-0.796 Y34.482 F250.
N1755 Z-3.1
N1760 G02 X-1.752 Y32.71 I-1.893 J-0.122 F800.
N1765 X-2.823 Y32.361 I-1.143 J1.686
N1770 G03 X2.822 Y-32.355 I2.822 J-32.358
N1775 X2.538 Y32.384 I-2.822 J32.358
N1780 G02 X0.884 Y33.733 I0.428 J2.213
N1785 X0.797 Y34.482 I1.991 J0.609
N1790 G01 X-0.756 Y34.459 F250.
N1795 Z-3.15
N1800 G02 X-1.483 Y32.885 I-1.802 J-0.122 F800.
N1805 X-2.957 Y32.35 I-1.447 J1.692
N1810 G03 X-9.812 Y30.959 I3.271 J-33.707
N1815 X9.812 Y-30.956 I9.812 J-30.958
N1820 X2.553 Y32.376 I-9.812 J30.958
N1825 G02 X0.846 Y33.734 I0.395 J2.249
N1830 X0.757 Y34.459 I1.838 J0.594
N1835 G01 X-0.714 Y34.455 F250.
N1840 Z-3.2
N1845 G02 X-1.392 Y32.936 I-1.768 J-0.121 F800.
N1850 X-2.823 Y32.355 I-1.507 J1.656
N1855 G03 X-21.66 Y-24.194 I2.832 J-32.355
N1860 X21.656 Y24.195 I21.658 J24.195
N1865 X2.553 Y32.372 I-21.658 J-24.195
N1870 G02 X0.798 Y33.734 I0.398 J2.324
N1875 X0.714 Y34.454 I1.976 J0.596
N1880 G01 X-0.656 Y34.431 F250.
N1885 Z-3.25
N1890 G02 X-1.354 Y32.936 I-1.734 J-0.101 F800.
N1895 X-2.823 Y32.351 I-1.535 J1.715
N1900 G03 X-26.459 Y18.818 I2.86 J-32.403
N1905 X26.457 Y-18.816 I26.458 J-18.817
N1910 X2.553 Y32.367 I-26.458 J18.817
N1915 G02 X0.742 Y33.732 I0.388 J2.399
N1920 X0.657 Y34.431 I1.768 J0.569
N1925 G01 X-0.594 Y34.41 F250.
N1930 Z-3.3
N1935 G02 X-1.124 Y33.115 I-1.579 J-0.11 F800.
N1940 X-2.823 Y32.347 I-1.763 J1.637
N1945 G03 X-21.238 Y24.555 I2.884 J-32.472
N1950 X21.236 Y-24.551 I21.237 J-24.553
N1955 X2.553 Y32.364 I-21.237 J24.553
N1960 G02 X0.664 Y33.78 I0.366 J2.457
N1965 X0.595 Y34.41 I1.752 J0.51
N1970 G01 X-0.52 Y34.389 F250.
N1975 Z-3.35
N1980 G02 X-0.988 Y33.205 I-1.464 J-0.107 F800.
N1985 X-2.823 Y32.342 I-1.906 J1.671
N1990 G03 X-28.227 Y16.027 I2.855 J-32.382
N1995 X28.225 Y-16.025 I28.226 J-16.026
N2000 X2.553 Y32.359 I-28.226 J16.026
N2005 G02 X0.585 Y33.799 I0.366 J2.564
N2010 X0.522 Y34.389 I1.554 J0.465
N2015 G01 X-0.428 Y34.368 F250.
N2020 Z-3.4
N2025 G02 X-0.842 Y33.303 I-1.331 J-0.096 F800.
N2030 X-2.823 Y32.337 I-2.058 J1.706
N2035 G03 X2.826 Y-32.329 I2.824 J-32.333
N2040 X32.396 Y-1.991 I-2.824 J32.333
N2045 X2.553 Y32.355 I-32.406 J1.981
N2050 G02 X0.5 Y33.8 I0.372 J2.71
N2055 X0.43 Y34.368 I1.255 J0.443
N2060 G01 X-0.307 Y34.347 F250.
N2065 Z-3.45
N2070 G02 X-0.623 Y33.474 I-1.103 J-0.096 F800.
N2075 X-2.957 Y32.322 I-2.332 J1.784
N2080 G03 X-19.497 Y25.942 I3.028 J-32.48
N2085 X19.495 Y-25.939 I19.496 J-25.941
N2090 X2.553 Y32.351 I-19.496 J25.941
N2095 G02 X0.359 Y33.868 I0.407 J2.936
N2100 X0.309 Y34.347 I1.127 J0.359
N2105 G01 X-0.044 Y34.32 F250.
N2110 Z-3.5
N2115 Y34.139 F800.
N2120 X-0.055 Y34.072
N2125 G02 X-1.609 Y32.618 I-3.623 J2.314
N2130 X-2.957 Y32.318 I-1.37 J2.983
N2135 G03 X-17.609 Y27.254 I3.042 J-32.529
N2140 X17.608 Y-27.251 I17.608 J-27.252
N2145 X2.419 Y32.357 I-17.608 J27.252
N2150 G02 X0.301 Y33.742 I0.718 J3.41
N2155 X0.061 Y34.075 I1.214 J1.128
N2160 G01 X0.044 Y34.139
N2165 Y34.32
N2170 G00 Z5.
N2175 X0. Y33.665
N2180 Z-2.48
N2185 G01 Z-3.55 F250.
N2190 G03 X-0.399 Y33.441 I0.11 J-0.664 F800.
N2195 G02 X-1.609 Y32.592 I-4.378 J4.948
N2200 X-3.091 Y32.303 I-1.458 J3.535
N2205 G03 X-9.678 Y30.966 I3.423 J-33.758
N2210 X9.677 Y-30.963 I9.678 J-30.964
N2215 X2.419 Y32.352 I-9.678 J30.964
N2220 G02 X0.543 Y33.34 I0.671 J3.55
N2225 G03 X0.104 Y33.65 I-1.902 J-2.23
N2230 G01 X0.067 Y33.652
N2235 X0.034 Y33.658
N2240 X0.017 Y33.662
N2245 X0.002 Y33.665
N2250 X0.
N2255 X-0.097 Y33.631 Z-3.554
N2260 X-0.11 Y33.627
N2265 X-0.113 Y33.626
N2270 X-0.121 Y33.621
N2275 X-0.142 Y33.606 Z-3.555
N2280 X-0.185 Y33.578 Z-3.557
N2285 X-0.219 Y33.557 Z-3.559
N2290 X-0.23 Y33.55
N2295 X-0.232 Y33.548
N2300 X-0.236 Y33.545
N2305 X-0.251 Y33.531 Z-3.56
N2310 X-0.313 Y33.48 Z-3.563
N2315 X-0.343 Y33.457 Z-3.564
N2320 X-0.35 Y33.451
N2325 X-0.358 Y33.446 Z-3.565
N2330 X-0.365 Y33.439
N2335 X-0.372 Y33.433
N2340 X-0.427 Y33.382 Z-3.568
N2345 X-0.483 Y33.336 Z-3.571
N2350 X-0.51 Y33.312 Z-3.572
N2355 X-0.537 Y33.288 Z-3.573
N2360 X-0.647 Y33.195 Z-3.578
N2365 X-0.701 Y33.148 Z-3.581
N2370 X-0.757 Y33.102 Z-3.583
N2375 X-0.814 Y33.059 Z-3.586
N2380 X-0.87 Y33.015 Z-3.588
N2385 X-0.985 Y32.93 Z-3.593
N2390 X-1.045 Y32.89 Z-3.596
N2395 X-1.103 Y32.849 Z-3.598
N2400 X-1.15 Y32.819 Z-3.6
N2405 G02 X-2.553 Y32.334 I-1.723 J2.712
N2410 G03 X2.554 Y-32.336 I2.553 J-32.335
N2415 X2.419 Y32.345 I-2.553 J32.335
N2420 G02 X0.677 Y33.149 I0.625 J3.638
N2425 G03 X0.122 Y33.475 I-1.911 J-2.622
N2430 X-0.401 Y33.326 I-0.105 J-0.625
N2435 G02 X-1.148 Y32.816 I-40.776 J58.946
N2440 G01 X-1.272 Y32.745 Z-3.605
N2445 X-1.396 Y32.674 Z-3.61
N2450 X-1.523 Y32.611 Z-3.615
N2455 X-1.654 Y32.551 Z-3.62
N2460 X-1.786 Y32.498 Z-3.625
N2465 X-1.922 Y32.453 Z-3.63
N2470 X-2.059 Y32.413 Z-3.635
N2475 X-2.198 Y32.379 Z-3.64
N2480 X-2.339 Y32.355 Z-3.645
N2485 X-2.41 Y32.346 Z-3.647
N2490 X-2.446 Y32.342 Z-3.649
N2495 X-2.464 Y32.34
N2500 X-2.481 Y32.338 Z-3.65
N2505 X-2.486 Y32.339
N2510 G03 X2.486 Y-32.336 I2.486 J-32.337
N2515 X2.284 Y32.354 I-2.486 J32.337
N2520 G02 X0.61 Y33.126 I0.963 J4.287
N2525 G03 X0.001 Y33.373 I-0.908 J-1.36
N2530 X-0.8 Y32.983 I0.351 J-1.737
N2535 G02 X-2.014 Y32.415 I-2.849 J4.509
N2540 X-2.486 Y32.338 I-0.949 J4.336
N2545 G01 X-2.629 Y32.325 Z-3.655
N2550 X-3.199 Y32.27 Z-3.675
N2555 X-3.341 Y32.255 Z-3.68
N2560 X-3.91 Y32.184 Z-3.7
N2565 G03 X3.91 Y-32.189 I3.91 J-32.186
N2570 X2.419 Y32.33 I-3.91 J32.186
N2575 G02 X0.741 Y32.974 I0.619 J4.124
N2580 G03 X0.069 Y33.245 I-1.246 J-2.116
N2585 X-0.732 Y32.961 I0.064 J-1.453
N2590 G02 X-2.149 Y32.37 I-2.801 J4.713
N2595 G01 X-3.91 Y32.184
N2600 X-4.336 Y32.131 Z-3.715
N2605 X-4.478 Y32.11 Z-3.72
N2610 X-5.326 Y31.975 Z-3.75
N2615 G03 X5.326 Y-31.977 I5.326 J-31.976
N2620 X2.419 Y32.325 I-5.326 J31.976
N2625 G02 X0.811 Y32.882 I0.543 J4.171
N2630 G03 X0.136 Y33.142 I-1.645 J-3.261
N2635 X-0.692 Y32.926 I-0.074 J-1.414
N2640 G02 X-2.149 Y32.358 I-2.928 J5.354
N2645 G03 X-5.327 Y31.979 I3.616 J-43.776
N2650 G01 X-5.467 Y31.953 Z-3.755
N2655 X-5.608 Y31.926 Z-3.76
N2660 X-6.452 Y31.762 Z-3.79
N2665 X-6.592 Y31.733 Z-3.795
N2670 X-6.731 Y31.702 Z-3.8
N2675 G03 X6.732 Y-31.704 I6.732 J-31.703
N2680 X2.284 Y32.328 I-6.732 J31.703
N2685 G02 X0.677 Y32.896 I0.957 J5.267
N2690 G03 X-0.135 Y33.066 I-0.77 J-1.656
N2695 X-1.207 Y32.641 I1.316 J-4.884
N2700 G02 X-2.823 Y32.289 I-1.726 J4.044
N2705 G03 X-6.732 Y31.703 I2.96 J-33.067
N2710 G01 X-6.871 Y31.669 Z-3.805
N2715 X-7.569 Y31.509 Z-3.83
N2720 X-7.708 Y31.474 Z-3.835
N2725 X-8.123 Y31.364 Z-3.85
N2730 G03 X8.124 Y-31.369 I8.123 J-31.366
N2735 X2.419 Y32.309 I-8.123 J31.367
N2740 G02 X0.759 Y32.803 I0.602 J5.058
N2745 G03 X-0.134 Y32.985 I-0.864 J-1.96
N2750 X-1.207 Y32.605 I1.077 J-4.742
N2755 G02 X-2.823 Y32.282 I-1.751 J4.553
N2760 G03 X-8.123 Y31.366 I2.879 J-32.483
N2765 G01 X-8.676 Y31.217 Z-3.87
N2770 X-8.813 Y31.176 Z-3.875
N2775 X-9.499 Y30.969 Z-3.9
N2780 G03 X9.499 Y-30.972 I9.499 J-30.971
N2785 X2.284 Y32.312 I-9.499 J30.971
N2790 G02 X0.676 Y32.787 I0.917 J6.066
N2795 G03 X-0.135 Y32.914 I-0.767 J-2.243
N2800 X-1.361 Y32.52 I1.339 J-6.275
N2805 G02 X-2.957 Y32.264 I-1.702 J5.505
N2810 G03 X-9.499 Y30.971 I3.07 J-32.732
N2815 G01 X-9.636 Y30.928 Z-3.905
N2820 X-9.773 Y30.885 Z-3.91
N2825 X-10.722 Y30.563 Z-3.945
N2830 X-10.856 Y30.514 Z-3.95
N2835 G03 X10.856 Y-30.515 I10.856 J-30.514
N2840 X2.15 Y32.316 I-10.856 J30.514
N2845 G02 X0.675 Y32.737 I1.37 J7.609
N2850 G03 X-0.937 Y32.633 I-0.676 J-2.071
N2855 G02 X-2.957 Y32.254 I-2.198 J6.148
N2860 G03 X-10.856 Y30.514 I2.99 J-32.373
N2865 G01 X-10.99 Y30.464 Z-3.955
N2870 X-11.794 Y30.16 Z-3.985
N2875 X-11.926 Y30.105 Z-3.99
N2880 X-12.19 Y29.995 Z-4.
N2885 G03 X12.192 Y-29.999 I12.191 J-29.997
N2890 X2.284 Y32.297 I-12.191 J29.997
N2895 G02 X0.675 Y32.692 I0.89 J7.107
N2900 G03 X-0.937 Y32.596 I-0.671 J-2.304
N2905 G02 X-2.284 Y32.297 I-2.285 J7.119
N2910 G03 X-12.191 Y29.996 I2.22 J-32.04
N2915 G01 X-12.719 Y29.774 Z-4.02
N2920 X-12.851 Y29.719 Z-4.025
N2925 X-13.502 Y29.42 Z-4.05
N2930 G03 X13.503 Y-29.424 I13.502 J-29.422
N2935 X2.15 Y32.299 I-13.502 J29.422
N2940 G02 X0.54 Y32.682 I1.627 J10.422
N2945 G03 X-1.085 Y32.519 I-0.531 J-2.88
N2950 G02 X-2.957 Y32.239 I-2.131 J7.851
N2955 G03 X-13.503 Y29.423 I2.955 J-32.219
N2960 G01 X-13.762 Y29.301 Z-4.06
N2965 X-13.891 Y29.239 Z-4.065
N2970 X-14.66 Y28.855 Z-4.095
N2975 X-14.788 Y28.791 Z-4.1
N2980 G03 X14.788 Y-28.791 I14.788 J-28.791
N2985 X2.016 Y32.304 I-14.788 J28.791
N2990 G02 X0.371 Y32.67 I4.086 J22.254
N2995 G03 X-1.073 Y32.494 I-0.319 J-3.395
N3000 G02 X-2.285 Y32.285 I-1.87 J7.217
N3005 G03 X-14.787 Y28.791 I2.271 J-32.245
N3010 G01 X-14.914 Y28.724 Z-4.105
N3015 X-15.669 Y28.314 Z-4.135
N3020 X-15.795 Y28.245 Z-4.14
N3025 X-16.041 Y28.1 Z-4.15
N3030 G03 X16.043 Y-28.103 I16.042 J-28.102
N3035 X2.016 Y32.294 I-16.042 J28.102
N3040 G02 X0.54 Y32.597 I2.212 J14.549
N3045 G03 X-1.072 Y32.463 I-0.526 J-3.45
N3050 G02 X-2.285 Y32.277 I-1.917 J8.437
N3055 G03 X-16.042 Y28.102 I2.263 J-32.214
N3060 G01 X-16.659 Y27.737 Z-4.175
N3065 X-16.781 Y27.663 Z-4.18
N3070 X-17.265 Y27.356 Z-4.2
N3075 G03 X17.267 Y-27.36 I17.266 J-27.358
N3080 X1.881 Y32.294 I-17.266 J27.358
N3085 G02 X0.403 Y32.571 I12.444 J70.611
N3090 G03 X-1.073 Y32.437 I-0.402 J-3.778
N3095 G02 X-2.285 Y32.27 I-1.871 J9.081
N3100 G03 X-17.266 Y27.359 I2.266 J-32.218
N3105 G01 X-17.385 Y27.28 Z-4.205
N3110 X-17.627 Y27.126 Z-4.215
N3115 X-17.746 Y27.046 Z-4.22
N3120 X-18.454 Y26.56 Z-4.25
N3125 G03 X18.455 Y-26.561 I18.454 J-26.56
N3130 X1.881 Y32.287 I-18.454 J26.56
N3135 G02 X0.404 Y32.537 I6.841 J44.829
N3140 G03 X-1.21 Y32.387 I-0.363 J-4.843
N3145 G02 X-2.285 Y32.262 I-1.638 J9.38
N3150 G03 X-18.455 Y26.56 I2.287 J-32.266
N3155 G01 X-18.572 Y26.478 Z-4.255
N3160 X-19.379 Y25.883 Z-4.29
N3165 X-19.493 Y25.797 Z-4.295
N3170 X-19.605 Y25.708 Z-4.3
N3175 G03 X19.606 Y-25.71 I19.606 J-25.709
N3180 X1.881 Y32.276 I-19.606 J25.709
N3185 X0.269 Y32.507 I-20.114 J-134.467
N3190 X-1.208 Y32.364 I-0.236 J-5.239
N3195 G02 X-2.205 Y32.258 I-1.775 J11.959
N3200 G03 X-19.606 Y25.709 I2.21 J-32.267
N3205 G01 X-20.279 Y25.175 Z-4.33
N3210 X-20.389 Y25.083 Z-4.335
N3215 X-20.716 Y24.806 Z-4.35
N3220 G03 X20.719 Y-24.81 I20.718 J-24.808
N3225 X1.881 Y32.264 I-20.718 J24.808
N3230 X0.27 Y32.478 I-47.214 J-349.674
N3235 X-1.342 Y32.322 I-0.13 J-7.052
N3240 G02 X-3.36 Y32.147 I-30.55 J340.49
N3245 G03 X-20.718 Y24.808 I3.357 J-32.138
N3250 G01 X-21.044 Y24.528 Z-4.365
N3255 X-21.153 Y24.435 Z-4.37
N3260 X-21.683 Y23.953 Z-4.395
N3265 X-21.789 Y23.858 Z-4.4
N3270 G03 X21.791 Y-23.86 I21.79 J-23.859
N3275 X1.747 Y32.264 I-21.79 J23.859
N3280 X0.001 Y32.459 I-3.544 J-23.743
N3285 X-1.746 Y32.263 I1.681 J-22.767
N3290 X-21.79 Y23.859 I1.727 J-32.224
N3295 G01 X-21.895 Y23.761 Z-4.405
N3300 X-22. Y23.663 Z-4.41
N3305 X-22.718 Y22.965 Z-4.445
N3310 X-22.818 Y22.862 Z-4.45
N3315 G03 X22.819 Y-22.863 I22.819 J-22.863
N3320 X1.612 Y32.261 I-22.819 J22.863
N3325 X-0.269 Y32.418 I-1.986 J-12.453
N3330 G02 X-2.285 Y32.219 I-4.925 J39.648
N3335 G03 X-22.818 Y22.862 I2.274 J-32.2
N3340 G01 X-22.918 Y22.759 Z-4.455
N3345 X-23.414 Y22.243 Z-4.48
N3350 X-23.513 Y22.139 Z-4.485
N3355 X-23.8 Y21.82 Z-4.5
N3360 G03 X23.803 Y-21.823 I23.801 J-21.822
N3365 X1.612 Y32.249 I-23.801 J21.822
N3370 X-0.403 Y32.382 I-1.849 J-12.692
N3375 G02 X-2.285 Y32.213 I-3.481 J28.284
N3380 G03 X-23.802 Y21.822 I2.297 J-32.232
N3385 G01 X-24.182 Y21.394 Z-4.52
N3390 X-24.276 Y21.286 Z-4.525
N3395 X-24.736 Y20.737 Z-4.55
N3400 G03 X24.739 Y-20.74 I24.738 J-20.739
N3405 X1.478 Y32.245 I-24.738 J20.739
N3410 X-1.477 Y32.247 I-1.482 J-10.317
N3415 X-24.738 Y20.739 I1.471 J-32.234
N3420 G01 X-24.92 Y20.518 Z-4.56
N3425 X-25.01 Y20.405 Z-4.565
N3430 X-25.539 Y19.729 Z-4.595
N3435 X-25.626 Y19.616 Z-4.6
N3440 G03 X25.626 Y-19.615 I25.626 J-19.615
N3445 X1.252 Y32.248 I-25.626 J19.615
N3450 X-1.343 Y32.243 I-1.28 J-10.071
N3455 X-25.626 Y19.615 I1.342 J-32.241
N3460 G01 X-26.217 Y18.806 Z-4.635
N3465 X-26.299 Y18.689 Z-4.64
N3470 X-26.46 Y18.452 Z-4.65
N3475 G03 X26.463 Y-18.454 I26.461 J-18.453
N3480 X1.209 Y32.236 I-26.461 J18.453
N3485 X-1.343 Y32.229 I-1.245 J-11.162
N3490 X-26.461 Y18.453 I1.323 J-32.199
N3495 G01 X-26.862 Y17.859 Z-4.675
N3500 X-26.939 Y17.738 Z-4.68
N3505 X-27.244 Y17.254 Z-4.7
N3510 G03 X27.247 Y-17.257 I27.245 J-17.255
N3515 X1.075 Y32.231 I-27.245 J17.255
N3520 X-1.343 Y32.217 I-1.137 J-12.222
N3525 X-27.245 Y17.254 I1.314 J-32.175
N3530 G01 X-27.396 Y17.012 Z-4.71
N3535 X-27.472 Y16.89 Z-4.715
N3540 X-27.977 Y16.024 Z-4.75
N3545 G03 X27.977 Y-16.024 I27.977 J-16.024
N3550 X0.806 Y32.231 I-27.977 J16.024
N3555 X-1.478 Y32.197 I-0.933 J-14.076
N3560 X-16.74 Y27.552 I1.389 J-31.956
N3565 X-27.976 Y16.024 I16.691 J-27.509
N3570 G01 X-28.047 Y15.899 Z-4.755
N3575 X-28.183 Y15.647 Z-4.765
N3580 X-28.521 Y15.016 Z-4.79
N3585 X-28.585 Y14.887 Z-4.795
N3590 X-28.648 Y14.759 Z-4.8
N3595 G03 X28.65 Y-14.761 I28.649 J-14.76
N3600 X0.672 Y32.22 I-28.649 J14.76
N3605 X-1.612 Y32.178 I-0.842 J-16.431
N3610 X-28.647 Y14.759 I1.573 J-32.13
N3615 G01 X-28.964 Y14.117 Z-4.825
N3620 X-29.027 Y13.988 Z-4.83
N3625 X-29.262 Y13.466 Z-4.85
N3630 G03 X29.266 Y-13.469 I29.264 J-13.468
N3635 X0.672 Y32.206 I-29.264 J13.468
N3640 X-3.225 Y32.046 I-0.828 J-27.303
N3645 X-29.263 Y13.466 I3.19 J-32.006
N3650 G01 X-29.439 Y13.075 Z-4.865
N3655 X-29.495 Y12.943 Z-4.87
N3660 X-29.822 Y12.148 Z-4.9
N3665 G03 X29.824 Y-12.148 I29.823 J-12.148
N3670 X-29.503 Y12.903 I-29.823 J12.148
N3675 G01 X-29.822 Y12.148
N3680 X-29.876 Y12.016 Z-4.905
N3685 X-29.927 Y11.881 Z-4.91
N3690 X-30.226 Y11.076 Z-4.94
N3695 X-30.274 Y10.941 Z-4.945
N3700 X-30.32 Y10.806 Z-4.95
N3705 G03 X30.322 Y-10.806 I30.321 J-10.806
N3710 X-30.291 Y10.887 I-30.321 J10.806
N3715 G01 X-30.32 Y10.806
N3720 X-30.591 Y9.991 Z-4.98
N3725 X-30.634 Y9.854 Z-4.985
N3730 X-30.715 Y9.58 Z-4.995
N3735 X-30.756 Y9.442 Z-5.
N3740 G03 X30.761 Y-9.443 I30.758 J-9.443
N3745 X-30.643 Y9.804 I-30.758 J9.443
N3750 G01 X-30.756 Y9.442
N3755 X-30.796 Y9.305 Z-5.005
N3760 X-30.878 Y9.031 Z-5.015
N3765 X-30.918 Y8.893 Z-5.02
N3770 X-31.098 Y8.2 Z-5.045
N3775 X-31.135 Y8.062 Z-5.05
N3780 G03 X31.138 Y-8.062 I31.136 J-8.062
N3785 X-30.911 Y8.882 I-31.136 J8.062
N3790 G01 X-31.135 Y8.062
N3795 X-31.17 Y7.923 Z-5.055
N3800 X-31.204 Y7.784 Z-5.06
N3805 X-31.423 Y6.806 Z-5.095
N3810 X-31.451 Y6.665 Z-5.1
N3815 G03 X31.452 Y-6.665 I31.451 J-6.665
N3820 X-31.439 Y6.72 I-31.451 J6.665
N3825 G01 X-31.451 Y6.665
N3830 X-31.61 Y5.821 Z-5.13
N3835 X-31.635 Y5.68 Z-5.135
N3840 X-31.701 Y5.256 Z-5.15
N3845 G03 X31.705 Y-5.256 I31.703 J-5.256
N3850 X-31.634 Y5.644 I-31.703 J5.256
N3855 G01 X-31.701 Y5.256
N3860 X-31.787 Y4.689 Z-5.17
N3865 X-31.807 Y4.547 Z-5.175
N3870 X-31.874 Y3.979 Z-5.195
N3875 X-31.892 Y3.837 Z-5.2
N3880 G03 X31.895 Y-3.837 I31.894 J-3.837
N3885 X-31.795 Y4.569 I-31.894 J3.837
N3890 G01 X-31.892 Y3.837
N3895 X-31.908 Y3.695 Z-5.205
N3900 X-31.925 Y3.552 Z-5.21
N3905 X-31.937 Y3.409 Z-5.215
N3910 X-32.01 Y2.553 Z-5.245
N3915 X-32.02 Y2.411 Z-5.25
N3920 G03 X32.02 Y-2.411 I32.02 J-2.411
N3925 X-32.02 Y2.419 I-32.02 J2.411
N3930 G01 Y2.411
N3935 X-32.071 Y1.41 Z-5.285
N3940 X-32.075 Y1.267 Z-5.29
N3945 X-32.079 Y0.98 Z-5.3
N3950 G03 X32.083 Y-0.981 I32.081 J-0.981
N3955 X-32.066 Y1.344 I-32.081 J0.981
N3960 G01 X-32.079 Y0.98
N3965 X-32.086 Y0.551 Z-5.315
N3970 X-32.088 Y0.408 Z-5.32
N3975 X-32.09 Y0.264 Z-5.325
N3980 X-32.076 Y-0.451 Z-5.35
N3985 G03 X32.08 Y0.451 I32.078 J0.451
N3990 X-32.078 Y0.269 I-32.078 J-0.451
N3995 G01 X-32.076 Y-0.451
N4000 X-32.07 Y-0.737 Z-5.36
N4005 X-32.065 Y-0.881 Z-5.365
N4010 X-32.011 Y-1.881 Z-5.4
N4015 G03 X32.011 Y1.882 I32.011 J1.881
N4020 X-32.053 Y-0.941 I-32.011 J-1.881
N4025 G01 X-32.011 Y-1.881
N4030 X-31.999 Y-2.025 Z-5.405
N4035 X-31.924 Y-2.881 Z-5.435
N4040 X-31.91 Y-3.023 Z-5.44
N4045 X-31.893 Y-3.165 Z-5.445
N4050 X-31.876 Y-3.307 Z-5.45
N4055 G03 X31.88 Y3.307 I31.878 J3.307
N4060 X-31.898 Y-3.091 I-31.878 J-3.307
N4065 G01 X-31.876 Y-3.307
N4070 X-31.858 Y-3.449 Z-5.455
N4075 X-31.789 Y-4.017 Z-5.475
N4080 X-31.768 Y-4.159 Z-5.48
N4085 X-31.702 Y-4.584 Z-5.495
N4090 X-31.681 Y-4.725 Z-5.5
N4095 G03 X31.686 Y4.726 I31.683 J4.726
N4100 X-31.76 Y-4.166 I-31.684 J-4.726
N4105 G01 X-31.681 Y-4.725
N4110 X-31.657 Y-4.866 Z-5.505
N4115 X-31.635 Y-5.008 Z-5.51
N4120 X-31.613 Y-5.15 Z-5.515
N4125 X-31.424 Y-6.134 Z-5.55
N4130 G03 X31.424 Y6.134 I31.424 J6.134
N4135 X-31.586 Y-5.236 I-31.424 J-6.134
N4140 G01 X-31.424 Y-6.134
N4145 X-31.395 Y-6.274 Z-5.555
N4150 X-31.172 Y-7.252 Z-5.59
N4155 X-31.137 Y-7.39 Z-5.595
N4160 X-31.1 Y-7.528 Z-5.6
N4165 G03 X31.103 Y7.529 I31.102 J7.529
N4170 X-31.133 Y-7.392 I-31.102 J-7.529
N4175 G01 X-31.1 Y-7.528
N4180 X-30.918 Y-8.221 Z-5.625
N4185 X-30.88 Y-8.359 Z-5.63
N4190 X-30.716 Y-8.907 Z-5.65
N4195 G03 X30.72 Y8.909 I30.718 J8.908
N4200 X-30.877 Y-8.332 I-30.718 J-8.908
N4205 G01 X-30.716 Y-8.907
N4210 X-30.592 Y-9.319 Z-5.665
N4215 X-30.548 Y-9.455 Z-5.67
N4220 X-30.273 Y-10.269 Z-5.7
N4225 G03 X30.275 Y10.269 I30.274 J10.269
N4230 X-30.552 Y-9.408 I-30.274 J-10.269
N4235 G01 X-30.273 Y-10.269
N4240 X-30.227 Y-10.405 Z-5.705
N4245 X-29.874 Y-11.343 Z-5.74
N4250 X-29.822 Y-11.476 Z-5.745
N4255 X-29.767 Y-11.608 Z-5.75
N4260 G03 X29.769 Y11.609 I29.768 J11.609
N4265 X-29.838 Y-11.424 I-29.768 J-11.609
N4270 G01 X-29.767 Y-11.608
N4275 X-29.438 Y-12.402 Z-5.78
N4280 X-29.379 Y-12.532 Z-5.785
N4285 X-29.26 Y-12.793 Z-5.795
N4290 X-29.201 Y-12.923 Z-5.8
N4295 G03 X29.205 Y12.925 I29.203 J12.924
N4300 X-29.385 Y-12.499 I-29.203 J-12.924
N4305 G01 X-29.201 Y-12.923
N4310 X-29.141 Y-13.053 Z-5.805
N4315 X-29.022 Y-13.314 Z-5.815
N4320 X-28.962 Y-13.444 Z-5.82
N4325 X-28.579 Y-14.213 Z-5.85
N4330 G03 X28.581 Y14.214 I28.58 J14.213
N4335 X-28.951 Y-13.44 I-28.58 J-14.213
N4340 G01 X-28.579 Y-14.213
N4345 X-28.515 Y-14.341 Z-5.855
N4350 X-28.448 Y-14.468 Z-5.86
N4355 X-28.38 Y-14.594 Z-5.865
N4360 X-28.038 Y-15.223 Z-5.89
N4365 X-27.969 Y-15.348 Z-5.895
N4370 X-27.897 Y-15.471 Z-5.9
N4375 G03 X27.898 Y15.472 I27.897 J15.472
N4380 X-27.979 Y-15.321 I-27.897 J-15.472
N4385 G01 X-27.897 Y-15.471
N4390 X-27.461 Y-16.212 Z-5.93
N4395 X-27.386 Y-16.334 Z-5.935
N4400 X-27.156 Y-16.696 Z-5.95
N4405 G03 X27.16 Y16.699 I27.158 J16.698
N4410 X-27.419 Y-16.261 I-27.158 J-16.698
N4415 G01 X-27.156 Y-16.696
N4420 X-26.925 Y-17.059 Z-5.965
N4425 X-26.848 Y-17.18 Z-5.97
N4430 X-26.364 Y-17.889 Z-6.
N4435 G03 X26.366 Y17.891 I26.365 J17.89
N4440 X-26.816 Y-17.203 I-26.365 J-17.89
N4445 G01 X-26.364 Y-17.889
N4450 X-26.283 Y-18.007 Z-6.005
N4455 X-26.2 Y-18.125 Z-6.01
N4460 X-25.606 Y-18.932 Z-6.045
N4465 X-25.518 Y-19.045 Z-6.05
N4470 G03 X25.519 Y19.045 I25.519 J19.045
N4475 X-25.588 Y-18.95 I-25.519 J-19.045
N4480 G01 X-25.518 Y-19.045
N4485 X-24.987 Y-19.719 Z-6.08
N4490 X-24.896 Y-19.831 Z-6.085
N4495 X-24.619 Y-20.159 Z-6.1
N4500 G03 X24.623 Y20.162 I24.621 J20.16
N4505 X-24.863 Y-19.857 I-24.621 J-20.16
N4510 G01 X-24.619 Y-20.159
N4515 X-24.249 Y-20.597 Z-6.12
N4520 X-24.154 Y-20.703 Z-6.125
N4525 X-23.674 Y-21.234 Z-6.15
N4530 G03 X23.676 Y21.236 I23.675 J21.235
N4535 X-24.192 Y-20.642 I-23.675 J-21.235
N4540 G01 X-23.674 Y-21.234
N4545 X-23.578 Y-21.34 Z-6.155
N4550 X-23.48 Y-21.446 Z-6.16
N4555 X-22.783 Y-22.166 Z-6.195
N4560 X-22.681 Y-22.266 Z-6.2
N4565 G03 X22.682 Y22.266 I22.681 J22.266
N4570 X-22.714 Y-22.232 I-22.681 J-22.266
N4575 G01 X-22.681 Y-22.266
N4580 X-22.063 Y-22.862 Z-6.23
N4585 X-21.959 Y-22.961 Z-6.235
N4590 X-21.64 Y-23.248 Z-6.25
N4595 G03 X21.643 Y23.252 I21.641 J23.25
N4600 X-21.923 Y-22.981 I-21.641 J-23.25
N4605 G01 X-21.64 Y-23.248
N4610 X-21.214 Y-23.632 Z-6.27
N4615 X-21.105 Y-23.726 Z-6.275
N4620 X-20.558 Y-24.186 Z-6.3
N4625 G03 X20.56 Y24.189 I20.559 J24.188
N4630 X-21.169 Y-23.653 I-20.559 J-24.188
N4635 G01 X-20.558 Y-24.186
N4640 X-20.448 Y-24.279 Z-6.305
N4645 X-20.338 Y-24.37 Z-6.31
N4650 X-19.55 Y-24.989 Z-6.345
N4655 X-19.435 Y-25.075 Z-6.35
N4660 G03 X19.436 Y25.076 I19.436 J25.075
N4665 X-19.488 Y-25.034 I-19.436 J-25.075
N4670 G01 X-19.435 Y-25.075
N4675 X-18.742 Y-25.582 Z-6.38
N4680 X-18.626 Y-25.667 Z-6.385
N4685 X-18.508 Y-25.747 Z-6.39
N4690 X-18.389 Y-25.828 Z-6.395
N4695 X-18.272 Y-25.91 Z-6.4
N4700 G03 X18.275 Y25.913 I18.273 J25.911
N4705 X-18.609 Y-25.669 I-18.273 J-25.911
N4710 G01 X-18.272 Y-25.91
N4715 X-18.152 Y-25.988 Z-6.405
N4720 X-17.797 Y-26.229 Z-6.42
N4725 X-17.676 Y-26.307 Z-6.425
N4730 X-17.07 Y-26.688 Z-6.45
N4735 G03 X17.072 Y26.691 I17.071 J26.69
N4740 X-17.74 Y-26.248 I-17.071 J-26.69
N4745 G01 X-17.07 Y-26.688
N4750 X-16.949 Y-26.764 Z-6.455
N4755 X-16.827 Y-26.84 Z-6.46
N4760 X-15.961 Y-27.345 Z-6.495
N4765 X-15.836 Y-27.414 Z-6.5
N4770 G03 X15.837 Y27.415 I15.836 J27.415
N4775 X-15.86 Y-27.401 I-15.836 J-27.415
N4780 G01 X-15.836 Y-27.414
N4785 X-15.08 Y-27.821 Z-6.53
N4790 X-14.953 Y-27.889 Z-6.535
N4795 X-14.568 Y-28.08 Z-6.55
N4800 G03 X14.57 Y28.084 I14.569 J28.082
N4805 X-14.918 Y-27.896 I-14.569 J-28.082
N4810 G01 X-14.568 Y-28.08
N4815 X-14.055 Y-28.334 Z-6.57
N4820 X-13.925 Y-28.395 Z-6.575
N4825 X-13.273 Y-28.69 Z-6.6
N4830 G03 X13.275 Y28.693 I13.274 J28.692
N4835 X-13.977 Y-28.354 I-13.274 J-28.692
N4840 G01 X-13.273 Y-28.69
N4845 X-13.143 Y-28.749 Z-6.605
N4850 X-13.012 Y-28.808 Z-6.61
N4855 X-12.085 Y-29.191 Z-6.645
N4860 X-11.953 Y-29.243 Z-6.65
N4865 G03 X11.953 Y29.243 I11.953 J29.243
N4870 X-11.962 Y-29.239 I-11.953 J-29.243
N4875 G01 X-11.953 Y-29.243
N4880 X-11.148 Y-29.544 Z-6.68
N4885 X-11.013 Y-29.594 Z-6.685
N4890 X-10.606 Y-29.73 Z-6.7
N4895 G03 X10.608 Y29.734 I10.607 J29.732
N4900 X-10.886 Y-29.629 I-10.607 J-29.732
N4905 G01 X-10.606 Y-29.73
N4910 X-10.063 Y-29.912 Z-6.72
N4915 X-9.926 Y-29.955 Z-6.725
N4920 X-9.24 Y-30.16 Z-6.75
N4925 G03 X9.242 Y30.163 I9.241 J30.161
N4930 X-9.945 Y-29.935 I-9.241 J-30.161
N4935 G01 X-9.24 Y-30.16
N4940 X-9.103 Y-30.201 Z-6.755
N4945 X-8.965 Y-30.241 Z-6.76
N4950 X-7.995 Y-30.495 Z-6.795
N4955 X-7.857 Y-30.528 Z-6.8
N4960 G03 X7.857 Y30.528 I7.857 J30.528
N4965 X-7.93 Y-30.509 I-7.857 J-30.528
N4970 G01 X-7.857 Y-30.528
N4975 X-7.019 Y-30.717 Z-6.83
N4980 X-6.879 Y-30.748 Z-6.835
N4985 X-6.457 Y-30.828 Z-6.85
N4990 G03 X6.458 Y30.832 I6.457 J30.83
N4995 X-6.854 Y-30.742 I-6.457 J-30.83
N5000 G01 X-6.457 Y-30.828
N5005 X-5.894 Y-30.935 Z-6.87
N5010 X-5.752 Y-30.958 Z-6.875
N5015 X-5.045 Y-31.068 Z-6.9
N5020 G03 X5.046 Y31.071 I5.046 J31.07
N5025 X-5.779 Y-30.94 I-5.046 J-31.07
N5030 G01 X-5.045 Y-31.068
N5035 X-4.904 Y-31.09 Z-6.905
N5040 X-4.762 Y-31.111 Z-6.91
N5045 X-4.619 Y-31.128 Z-6.915
N5050 X-3.766 Y-31.229 Z-6.945
N5055 X-3.624 Y-31.242 Z-6.95
N5060 G03 X3.624 Y31.243 I3.624 J31.242
N5065 X-3.629 Y-31.241 I-3.624 J-31.242
N5070 G01 X-3.624 Y-31.242
N5075 X-2.768 Y-31.313 Z-6.98
N5080 X-2.625 Y-31.324 Z-6.985
N5085 X-2.196 Y-31.345 Z-7.
N5090 G03 X2.196 Y31.35 I2.196 J31.347
N5095 X-2.611 Y-31.313 I-2.196 J-31.348
N5100 G01 X-2.196 Y-31.345
N5105 X-1.624 Y-31.374 Z-7.02
N5110 X-1.48 Y-31.377 Z-7.025
N5115 X-0.765 Y-31.388 Z-7.05
N5120 G03 X0.765 Y31.391 I0.765 J31.389
N5125 X-1.478 Y-31.362 I-0.765 J-31.389
N5130 G01 X-0.765 Y-31.388
N5135 X-0.622 Y-31.39 Z-7.055
N5140 X-0.478 Z-7.06
N5145 X0.525 Y-31.372 Z-7.095
N5150 X0.667 Y-31.365 Z-7.1
N5155 G03 X-0.667 Y31.366 I-0.667 J31.365
N5160 X0.538 Y-31.367 I0.667 J-31.365
N5165 G01 X0.667 Y-31.365
N5170 X1.525 Y-31.32 Z-7.13
N5175 X1.668 Y-31.31 Z-7.135
N5180 X2.096 Y-31.273 Z-7.15
N5185 G03 X-2.096 Y31.277 I-2.096 J31.275
N5190 X1.613 Y-31.301 I2.096 J-31.275
N5195 G01 X2.096 Y-31.273
N5200 X2.524 Y-31.236 Z-7.165
N5205 X2.667 Y-31.223 Z-7.17
N5210 X3.52 Y-31.12 Z-7.2
N5215 G03 X-3.52 Y31.122 I-3.52 J31.121
N5220 X2.688 Y-31.203 I3.52 J-31.121
N5225 G01 X3.52 Y-31.12
N5230 X3.662 Y-31.103 Z-7.205
N5235 X3.804 Y-31.082 Z-7.21
N5240 X4.653 Y-30.95 Z-7.24
N5245 X4.795 Y-30.927 Z-7.245
N5250 X4.934 Y-30.901 Z-7.25
N5255 G03 X-4.935 Y30.903 I-4.935 J30.902
N5260 X4.838 Y-30.916 I4.935 J-30.902
N5265 G01 X4.934 Y-30.901
N5270 X5.779 Y-30.74 Z-7.28
N5275 X5.919 Y-30.709 Z-7.285
N5280 X6.337 Y-30.615 Z-7.3
N5285 G03 X-6.338 Y30.619 I-6.338 J30.617
N5290 X5.913 Y-30.699 I6.338 J-30.617
N5295 G01 X6.337 Y-30.615
N5300 X6.757 Y-30.52 Z-7.315
N5305 X6.896 Y-30.486 Z-7.32
N5310 X7.727 Y-30.269 Z-7.35
N5315 G03 X-7.727 Y30.27 I-7.727 J30.27
N5320 X6.854 Y-30.478 I7.727 J-30.27
N5325 G01 X7.727 Y-30.269
N5330 X7.866 Y-30.233 Z-7.355
N5335 X8.004 Y-30.192 Z-7.36
N5340 X8.827 Y-29.946 Z-7.39
N5345 X8.963 Y-29.902 Z-7.395
N5350 X9.098 Y-29.857 Z-7.4
N5355 G03 X-9.099 Y29.86 I-9.099 J29.858
N5360 X9.005 Y-29.885 I9.099 J-29.858
N5365 G01 X9.098 Y-29.857
N5370 X9.505 Y-29.72 Z-7.415
N5375 X9.641 Y-29.674 Z-7.42
N5380 X9.777 Y-29.628 Z-7.425
N5385 X9.912 Y-29.582 Z-7.43
N5390 X10.448 Y-29.38 Z-7.45
N5395 G03 X-10.45 Y29.384 I-10.449 J29.382
N5400 X9.909 Y-29.566 I10.449 J-29.382
N5405 G01 X10.448 Y-29.38
N5410 X10.85 Y-29.228 Z-7.465
N5415 X10.983 Y-29.174 Z-7.47
N5420 X11.644 Y-28.899 Z-7.495
N5425 X11.777 Y-28.846 Z-7.5
N5430 G03 X-11.777 Y28.847 I-11.777 J28.847
N5435 X10.887 Y-29.194 I11.777 J-28.847
N5440 G01 X11.777 Y-28.846
N5445 X11.908 Y-28.787 Z-7.505
N5450 X12.82 Y-28.37 Z-7.54
N5455 X12.948 Y-28.306 Z-7.545
N5460 X13.076 Y-28.245 Z-7.55
N5465 G03 X-13.078 Y28.248 I-13.077 J28.246
N5470 X12.831 Y-28.357 I13.077 J-28.246
N5475 G01 X13.076 Y-28.245
N5480 X13.204 Y-28.179 Z-7.555
N5485 X13.717 Y-27.923 Z-7.575
N5490 X13.844 Y-27.857 Z-7.58
N5495 X14.347 Y-27.584 Z-7.6
N5500 G03 X-14.349 Y27.588 I-14.348 J27.586
N5505 X13.843 Y-27.84 I14.348 J-27.586
N5510 G01 X14.347 Y-27.584
N5515 X14.599 Y-27.447 Z-7.61
N5520 X14.725 Y-27.378 Z-7.615
N5525 X15.589 Y-26.871 Z-7.65
N5530 G03 X-15.588 Y26.87 I-15.589 J26.871
N5535 X14.785 Y-27.321 I15.589 J-26.871
N5540 G01 X15.589 Y-26.871
N5545 X15.711 Y-26.795 Z-7.655
N5550 X16.437 Y-26.335 Z-7.685
N5555 X16.557 Y-26.256 Z-7.69
N5560 X16.793 Y-26.096 Z-7.7
N5565 G03 X-16.795 Y26.099 I-16.794 J26.097
N5570 X16.53 Y-26.263 I16.794 J-26.097
N5575 G01 X16.793 Y-26.096
N5580 X17.266 Y-25.773 Z-7.72
N5585 X17.384 Y-25.692 Z-7.725
N5590 X17.961 Y-25.269 Z-7.75
N5595 G03 X-17.964 Y25.272 I-17.963 J25.27
N5600 X17.384 Y-25.669 I17.963 J-25.27
N5605 G01 X17.961 Y-25.269
N5610 X18.193 Y-25.099 Z-7.76
N5615 X18.306 Y-25.011 Z-7.765
N5620 X18.982 Y-24.48 Z-7.795
N5625 X19.093 Y-24.391 Z-7.8
N5630 G03 X-19.093 Y24.391 I-19.093 J24.391
N5635 X19.086 Y-24.396 I19.093 J-24.391
N5640 G01 X19.093 Y-24.391
N5645 X19.202 Y-24.298 Z-7.805
N5650 X19.75 Y-23.836 Z-7.83
N5655 X19.859 Y-23.744 Z-7.835
N5660 X20.178 Y-23.456 Z-7.85
N5665 G03 X-20.181 Y23.46 I-20.179 J23.458
N5670 X19.89 Y-23.701 I20.179 J-23.458
N5675 G01 X20.178 Y-23.456
N5680 X20.603 Y-23.072 Z-7.87
N5685 X20.707 Y-22.974 Z-7.875
N5690 X21.222 Y-22.476 Z-7.9
N5695 G03 X-21.224 Y22.479 I-21.223 J22.478
N5700 X20.673 Y-22.982 I21.223 J-22.478
N5705 G01 X21.222 Y-22.476
N5710 X21.325 Y-22.377 Z-7.905
N5715 X21.427 Y-22.275 Z-7.91
N5720 X22.023 Y-21.656 Z-7.94
N5725 X22.122 Y-21.552 Z-7.945
N5730 X22.217 Y-21.446 Z-7.95
N5735 G03 X-22.218 Y21.448 I-22.217 J21.447
N5740 X22.161 Y-21.504 I22.217 J-21.447
N5745 G01 X22.217 Y-21.446
N5750 X22.791 Y-20.807 Z-7.98
N5755 X22.884 Y-20.698 Z-7.985
N5760 X23.16 Y-20.369 Z-8.
N5765 G03 X-23.163 Y20.372 I-23.162 J20.371
N5770 X22.847 Y-20.72 I23.162 J-20.371
N5775 G01 X23.16 Y-20.369
N5780 X23.436 Y-20.04 Z-8.015
N5785 X23.527 Y-19.929 Z-8.02
N5790 X24.056 Y-19.252 Z-8.05
N5795 G03 X-24.057 Y19.253 I-24.056 J19.252
N5800 X23.521 Y-19.902 I24.056 J-19.252
N5805 G01 X24.056 Y-19.252
N5810 X24.144 Y-19.139 Z-8.055
N5815 X24.735 Y-18.328 Z-8.09
N5820 X24.816 Y-18.21 Z-8.095
N5825 X24.896 Y-18.092 Z-8.1
N5830 G03 X-24.898 Y18.094 I-24.897 J18.093
N5835 X24.76 Y-18.278 I24.897 J-18.093
N5840 G01 X24.896 Y-18.092
N5845 X25.298 Y-17.5 Z-8.125
N5850 X25.376 Y-17.379 Z-8.13
N5855 X25.682 Y-16.895 Z-8.15
N5860 G03 X-25.685 Y16.897 I-25.683 J16.896
N5865 X25.385 Y-17.337 I25.683 J-16.896
N5870 G01 X25.682 Y-16.895
N5875 X25.834 Y-16.653 Z-8.16
N5880 X25.91 Y-16.53 Z-8.165
N5885 X26.343 Y-15.788 Z-8.195
N5890 X26.414 Y-15.664 Z-8.2
N5895 G03 X-26.414 Y15.665 I-26.414 J15.664
N5900 X26.377 Y-15.726 I26.414 J-15.664
N5905 G01 X26.414 Y-15.664
N5910 X26.483 Y-15.538 Z-8.205
N5915 X26.891 Y-14.782 Z-8.235
N5920 X26.956 Y-14.654 Z-8.24
N5925 X27.083 Y-14.398 Z-8.25
N5930 G03 X-27.086 Y14.4 I-27.085 J14.399
N5935 X26.948 Y-14.649 I27.085 J-14.399
N5940 G01 X27.083 Y-14.398
N5945 X27.337 Y-13.885 Z-8.27
N5950 X27.399 Y-13.756 Z-8.275
N5955 X27.695 Y-13.104 Z-8.3
N5960 G03 X-27.698 Y13.105 I-27.697 J13.105
N5965 X27.401 Y-13.709 I27.697 J-13.105
N5970 G01 X27.695 Y-13.104
N5975 X27.754 Y-12.974 Z-8.305
N5980 X27.813 Y-12.842 Z-8.31
N5985 X28.197 Y-11.916 Z-8.345
N5990 X28.247 Y-11.783 Z-8.35
N5995 G03 X-28.248 Y11.783 I-28.248 J11.783
N6000 X28.225 Y-11.836 I28.248 J-11.783
N6005 G01 X28.247 Y-11.783
N6010 X28.498 Y-11.112 Z-8.375
N6015 X28.548 Y-10.978 Z-8.38
N6020 X28.596 Y-10.842 Z-8.385
N6025 X28.686 Y-10.57 Z-8.395
N6030 X28.734 Y-10.436 Z-8.4
N6035 G03 X-28.739 Y10.438 I-28.737 J10.437
N6040 X28.567 Y-10.886 I28.737 J-10.437
N6045 G01 X28.734 Y-10.436
N6050 X28.776 Y-10.299 Z-8.405
N6055 X28.867 Y-10.027 Z-8.415
N6060 X28.911 Y-9.89 Z-8.42
N6065 X29.154 Y-9.067 Z-8.45
N6070 G03 X-29.155 Y9.067 I-29.155 J9.067
N6075 X28.897 Y-9.856 I29.155 J-9.067
N6080 G01 X29.154 Y-9.067
N6085 X29.194 Y-8.929 Z-8.455
N6090 X29.446 Y-7.957 Z-8.49
N6095 X29.478 Y-7.818 Z-8.495
N6100 X29.509 Y-7.679 Z-8.5
N6105 G03 X-29.512 Y7.68 I-29.51 J7.68
N6110 X29.442 Y-7.929 I29.51 J-7.68
N6115 G01 X29.509 Y-7.679
N6120 X29.664 Y-6.98 Z-8.525
N6125 X29.693 Y-6.839 Z-8.53
N6130 X29.798 Y-6.277 Z-8.55
N6135 G03 X-29.802 Y6.278 I-29.8 J6.277
N6140 X29.671 Y-6.854 I29.8 J-6.277
N6145 G01 X29.798 Y-6.277
N6150 X29.851 Y-5.995 Z-8.56
N6155 X29.876 Y-5.853 Z-8.565
N6160 X30.005 Y-5.004 Z-8.595
N6165 X30.025 Y-4.863 Z-8.6
N6170 G03 X-30.025 Y4.863 I-30.025 J4.863
N6175 X30.007 Y-4.973 I30.025 J-4.863
N6180 G01 X30.025 Y-4.863
N6185 X30.043 Y-4.72 Z-8.605
N6190 X30.144 Y-3.866 Z-8.635
N6195 X30.156 Y-3.723 Z-8.64
N6200 X30.18 Y-3.439 Z-8.65
N6205 G03 X-30.184 Y3.44 I-30.182 J3.439
N6210 X30.141 Y-3.763 I30.182 J-3.439
N6215 G01 X30.18 Y-3.439
N6220 X30.227 Y-2.868 Z-8.67
N6225 X30.236 Y-2.724 Z-8.675
N6230 X30.271 Y-2.01 Z-8.7
N6235 G03 X-30.273 Y2.01 I-30.272 J2.01
N6240 X30.206 Y-2.822 I30.272 J-2.01
N6245 G01 X30.271 Y-2.01
N6250 X30.278 Y-1.866 Z-8.705
N6255 X30.283 Y-1.723 Z-8.71
N6260 X30.296 Y-0.863 Z-8.74
N6265 Y-0.72 Z-8.745
N6270 X30.294 Y-0.578 Z-8.75
N6275 G03 X-30.296 Y0.578 I-30.295 J0.578
N6280 X30.292 Y-0.672 I30.295 J-0.578
N6285 G01 X30.294 Y-0.578
N6290 X30.281 Y0.138 Z-8.775
N6295 X30.277 Y0.282 Z-8.78
N6300 X30.247 Y0.853 Z-8.8
N6305 G03 X-30.251 Y-0.853 I-30.249 J-0.853
N6310 X30.258 Y0.269 I30.249 J0.853
N6315 G01 X30.247 Y0.853
N6320 X30.225 Y1.283 Z-8.815
N6325 X30.212 Y1.426 Z-8.82
N6330 X30.2 Y1.569 Z-8.825
N6335 X30.187 Y1.711 Z-8.83
N6340 X30.136 Y2.281 Z-8.85
N6345 G03 X-30.136 Y-2.281 I-30.136 J-2.281
N6350 X30.193 Y1.344 I30.136 J2.281
N6355 G01 X30.136 Y2.281
N6360 X30.119 Y2.425 Z-8.855
N6365 X30.013 Y3.278 Z-8.885
N6370 X29.992 Y3.42 Z-8.89
N6375 X29.948 Y3.701 Z-8.9
N6380 G03 X-29.952 Y-3.701 I-29.95 J-3.701
N6385 X29.988 Y3.36 I29.95 J3.701
N6390 G01 X29.948 Y3.701
N6395 X29.858 Y4.267 Z-8.92
N6400 X29.833 Y4.408 Z-8.925
N6405 X29.697 Y5.111 Z-8.95
N6410 G03 X-29.699 Y-5.111 I-29.698 J-5.111
N6415 X29.805 Y4.435 I29.698 J5.111
N6420 G01 X29.697 Y5.111
N6425 X29.669 Y5.252 Z-8.955
N6430 X29.64 Y5.393 Z-8.96
N6435 X29.448 Y6.231 Z-8.99
N6440 X29.415 Y6.37 Z-8.995
N6445 X29.378 Y6.507 Z-9.
N6450 G03 X-29.38 Y-6.508 I-29.379 J-6.507
N6455 X29.391 Y6.451 I29.379 J6.507
N6460 G01 X29.378 Y6.507
N6465 X29.195 Y7.199 Z-9.025
N6470 X29.158 Y7.338 Z-9.03
N6475 X28.992 Y7.886 Z-9.05
N6480 G03 X-28.996 Y-7.887 I-28.994 J-7.887
N6485 X29.122 Y7.392 I28.994 J7.887
N6490 G01 X28.992 Y7.886
N6495 X28.867 Y8.298 Z-9.065
N6500 X28.821 Y8.434 Z-9.07
N6505 X28.591 Y9.113 Z-9.095
N6510 X28.545 Y9.247 Z-9.1
N6515 G03 X-28.545 Y-9.247 I-28.545 J-9.247
N6520 X28.58 Y9.14 I28.545 J9.247
N6525 G01 X28.545 Y9.247
N6530 X28.495 Y9.383 Z-9.105
N6535 X28.191 Y10.187 Z-9.135
N6540 X28.137 Y10.32 Z-9.14
N6545 X28.028 Y10.583 Z-9.15
N6550 G03 X-28.031 Y-10.584 I-28.029 J-10.583
N6555 X28.115 Y10.349 I28.029 J10.583
N6560 G01 X28.028 Y10.583
N6565 X27.807 Y11.111 Z-9.17
N6570 X27.749 Y11.243 Z-9.175
N6575 X27.451 Y11.894 Z-9.2
N6580 G03 X-27.453 Y-11.895 I-27.452 J-11.894
N6585 X27.759 Y11.155 I27.452 J11.894
N6590 G01 X27.451 Y11.894
N6595 X27.391 Y12.024 Z-9.205
N6600 X27.329 Y12.154 Z-9.21
N6605 X26.945 Y12.923 Z-9.24
N6610 X26.879 Y13.05 Z-9.245
N6615 X26.811 Y13.175 Z-9.25
N6620 G03 X-26.814 Y-13.176 I-26.813 J-13.175
N6625 X26.88 Y13.035 I26.813 J13.175
N6630 G01 X26.811 Y13.175
N6635 X26.675 Y13.427 Z-9.26
N6640 X26.606 Y13.552 Z-9.265
N6645 X26.469 Y13.804 Z-9.275
N6650 X26.398 Y13.929 Z-9.28
N6655 X26.106 Y14.422 Z-9.3
N6660 G03 X-26.11 Y-14.424 I-26.108 J-14.423
N6665 X26.347 Y13.977 I26.108 J14.423
N6670 G01 X26.106 Y14.422
N6675 X25.96 Y14.668 Z-9.31
N6680 X25.886 Y14.791 Z-9.315
N6685 X25.423 Y15.516 Z-9.345
N6690 X25.345 Y15.635 Z-9.35
N6695 G03 X-25.345 Y-15.635 I-25.345 J-15.635
N6700 X25.372 Y15.591 I25.345 J15.635
N6705 G01 X25.345 Y15.635
N6710 X25.264 Y15.753 Z-9.355
N6715 X24.858 Y16.343 Z-9.38
N6720 X24.776 Y16.461 Z-9.385
N6725 X24.521 Y16.806 Z-9.4
N6730 G03 X-24.524 Y-16.809 I-24.522 J-16.808
N6735 X24.728 Y16.499 I24.523 J16.808
N6740 G01 X24.521 Y16.806
N6745 X24.265 Y17.152 Z-9.415
N6750 X24.179 Y17.268 Z-9.42
N6755 X23.646 Y17.94 Z-9.45
N6760 G03 X-23.647 Y-17.941 I-23.646 J-17.941
N6765 X24.09 Y17.338 I23.646 J17.941
N6770 G01 X23.646 Y17.94
N6775 X23.555 Y18.054 Z-9.455
N6780 X22.906 Y18.818 Z-9.49
N6785 X22.809 Y18.924 Z-9.495
N6790 X22.714 Y19.028 Z-9.5
N6795 G03 X-22.716 Y-19.03 I-22.715 J-19.029
N6800 X22.891 Y18.815 I22.715 J19.029
N6805 G01 X22.714 Y19.028
N6810 X22.232 Y19.558 Z-9.525
N6815 X22.131 Y19.661 Z-9.53
N6820 X21.831 Y19.969 Z-9.545
N6825 X21.734 Y20.073 Z-9.55
N6830 G03 X-21.737 Y-20.075 I-21.736 J-20.074
N6835 X22.175 Y19.585 I21.736 J20.074
N6840 G01 X21.734 Y20.073
N6845 X21.632 Y20.173 Z-9.555
N6850 X21.531 Y20.277 Z-9.56
N6855 X21.428 Y20.376 Z-9.565
N6860 X20.807 Y20.971 Z-9.595
N6865 X20.702 Y21.066 Z-9.6
N6870 G03 X-20.703 Y-21.067 I-20.702 J-21.066
N6875 X20.803 Y20.966 I20.702 J21.066
N6880 G01 X20.702 Y21.066
N6885 X20.061 Y21.639 Z-9.63
N6890 X19.951 Y21.732 Z-9.635
N6895 X19.622 Y22.007 Z-9.65
N6900 G03 X-19.625 Y-22.01 I-19.623 J-22.009
N6905 X20.03 Y21.637 I19.623 J22.009
N6910 G01 X19.622 Y22.007
N6915 X19.292 Y22.283 Z-9.665
N6920 X19.178 Y22.372 Z-9.67
N6925 X19.065 Y22.46 Z-9.675
N6930 X18.612 Y22.81 Z-9.695
N6935 X18.499 Y22.896 Z-9.7
N6940 G03 X-18.499 Y-22.897 I-18.499 J-22.896
N6945 X18.548 Y22.856 I18.499 J22.896
N6950 G01 X18.499 Y22.896
N6955 X18.383 Y22.981 Z-9.705
N6960 X17.685 Y23.484 Z-9.735
N6965 X17.566 Y23.564 Z-9.74
N6970 X17.329 Y23.723 Z-9.75
N6975 G03 X-17.331 Y-23.726 I-17.33 J-23.725
N6980 X17.606 Y23.518 I17.33 J23.725
N6985 G01 X17.329 Y23.723
N6990 X16.853 Y24.042 Z-9.77
N6995 X16.73 Y24.118 Z-9.775
N7000 X16.243 Y24.421 Z-9.795
N7005 X16.123 Y24.496 Z-9.8
N7010 G03 X-16.123 Y-24.497 I-16.123 J-24.497
N7015 X16.129 Y24.492 I16.123 J24.497
N7020 G01 X16.123 Y24.496
N7025 X16. Y24.572 Z-9.805
N7030 X15.254 Y25.001 Z-9.835
N7035 X15.13 Y25.073 Z-9.84
N7040 X14.879 Y25.206 Z-9.85
N7045 G03 X-14.88 Y-25.209 I-14.879 J-25.208
N7050 X15.053 Y25.103 I14.879 J25.208
N7055 G01 X14.879 Y25.206
N7060 X14.373 Y25.475 Z-9.87
N7065 X14.245 Y25.542 Z-9.875
N7070 X13.602 Y25.856 Z-9.9
N7075 G03 X-13.603 Y-25.859 I-13.603 J-25.857
N7080 X14.246 Y25.507 I13.603 J25.857
N7085 G01 X13.602 Y25.856
N7090 X13.473 Y25.919 Z-9.905
N7095 X13.343 Y25.982 Z-9.91
N7100 X12.558 Y26.332 Z-9.94
N7105 X12.426 Y26.39 Z-9.945
N7110 X12.295 Y26.443 Z-9.95
N7115 G03 X-12.296 Y-26.445 I-12.296 J-26.444
N7120 X12.365 Y26.411 I12.296 J26.444
N7125 G01 X12.295 Y26.443
N7130 X11.632 Y26.713 Z-9.975
N7135 X11.498 Y26.766 Z-9.98
N7140 X11.094 Y26.914 Z-9.995
N7145 X10.962 Y26.967 Z-10.
N7150 G03 X-10.964 Y-26.97 I-10.963 J-26.969
N7155 X11.495 Y26.744 I10.963 J26.969
N7160 G01 X10.962 Y26.967
N7165 X10.826 Y27.013 Z-10.005
N7170 X10.692 Y27.062 Z-10.01
N7175 X10.555 Y27.11 Z-10.015
N7180 X9.739 Y27.379 Z-10.045
N7185 X9.603 Y27.421 Z-10.05
N7190 G03 X-9.603 Y-27.422 I-9.603 J-27.421
N7195 X9.677 Y27.395 I9.603 J27.421
N7200 G01 X9.603 Y27.421
N7205 X9.465 Y27.461 Z-10.055
N7210 X9.328 Y27.501 Z-10.06
N7215 X8.777 Y27.66 Z-10.08
N7220 X8.638 Y27.696 Z-10.085
N7225 X8.222 Y27.801 Z-10.1
N7230 G03 X-8.223 Y-27.805 I-8.222 J-27.803
N7235 X8.601 Y27.686 I8.222 J27.803
N7240 G01 X8.222 Y27.801
N7245 X7.803 Y27.906 Z-10.115
N7250 X7.663 Y27.937 Z-10.12
N7255 X6.963 Y28.088 Z-10.145
N7260 X6.824 Y28.117 Z-10.15
N7265 G03 X-6.824 Y-28.117 I-6.824 J-28.117
N7270 X6.855 Y28.109 I6.824 J28.117
N7275 G01 X6.824 Y28.117
N7280 X6.682 Y28.143 Z-10.155
N7285 X5.977 Y28.27 Z-10.18
N7290 X5.836 Y28.295 Z-10.185
N7295 X5.412 Y28.357 Z-10.2
N7300 G03 X-5.412 Y-28.361 I-5.412 J-28.359
N7305 X5.779 Y28.284 I5.412 J28.359
N7310 G01 X5.412 Y28.357
N7315 X4.986 Y28.419 Z-10.215
N7320 X4.843 Y28.438 Z-10.22
N7325 X4.131 Y28.517 Z-10.245
N7330 X3.99 Y28.533 Z-10.25
N7335 G03 X-3.99 Y-28.533 I-3.99 J-28.533
N7340 X4.032 Y28.527 I3.99 J28.533
N7345 G01 X3.99 Y28.533
N7350 X3.845 Y28.547 Z-10.255
N7355 X2.988 Y28.612 Z-10.285
N7360 X2.844 Y28.62 Z-10.29
N7365 X2.56 Y28.632 Z-10.3
N7370 G03 X-2.561 Y-28.636 I-2.56 J-28.634
N7375 X2.822 Y28.608 I2.56 J28.634
N7380 G01 X2.56 Y28.632
N7385 X1.987 Y28.657 Z-10.32
N7390 X1.843 Y28.659 Z-10.325
N7395 X1.128 Y28.665 Z-10.35
N7400 G03 X-1.128 Y-28.667 I-1.128 J-28.666
N7405 X1.882 Y28.625 I1.128 J28.666
N7410 G01 X1.128 Y28.665
N7415 X0.984 Y28.666 Z-10.355
N7420 X0.839 Y28.663 Z-10.36
N7425 X0.123 Y28.644 Z-10.385
N7430 X-0.021 Y28.64 Z-10.39
N7435 X-0.304 Y28.623 Z-10.4
N7440 G03 X0.304 Y-28.626 I0.304 J-28.625
N7445 X0. Y28.625 I-0.304 J28.625
N7450 G01 X-0.304 Y28.623
N7455 X-0.733 Y28.598 Z-10.415
N7460 X-0.876 Y28.589 Z-10.42
N7465 X-1.02 Y28.578 Z-10.425
N7470 X-1.732 Y28.507 Z-10.45
N7475 G03 X1.733 Y-28.509 I1.733 J-28.508
N7480 X-1.075 Y28.539 I-1.733 J28.508
N7485 G01 X-1.732 Y28.507
N7490 X-1.875 Y28.493 Z-10.455
N7495 X-2.019 Y28.476 Z-10.46
N7500 X-2.872 Y28.362 Z-10.49
N7505 X-3.014 Y28.339 Z-10.495
N7510 X-3.153 Y28.315 Z-10.5
N7515 G03 X3.153 Y-28.318 I3.153 J-28.317
N7520 X-2.957 Y28.336 I-3.153 J28.317
N7525 G01 X-3.153 Y28.315
N7530 X-3.718 Y28.22 Z-10.52
N7535 X-3.86 Y28.196 Z-10.525
N7540 X-4.562 Y28.053 Z-10.55
N7545 G03 X4.562 Y-28.056 I4.562 J-28.054
N7550 X-3.898 Y28.153 I-4.562 J28.054
N7555 G01 X-4.562 Y28.053
N7560 X-4.702 Y28.024 Z-10.555
N7565 X-4.843 Y27.994 Z-10.56
N7570 X-5.681 Y27.794 Z-10.59
N7575 X-5.82 Y27.758 Z-10.595
N7580 X-5.956 Y27.72 Z-10.6
N7585 G03 X5.956 Y-27.723 I5.956 J-27.722
N7590 X-5.779 Y27.758 I-5.956 J27.722
N7595 G01 X-5.956 Y27.72
N7600 X-6.647 Y27.53 Z-10.625
N7605 X-6.785 Y27.488 Z-10.63
N7610 X-7.331 Y27.317 Z-10.65
N7615 G03 X7.332 Y-27.32 I7.331 J-27.319
N7620 X-6.72 Y27.474 I-7.331 J27.319
N7625 G01 X-7.331 Y27.317
N7630 X-7.468 Y27.274 Z-10.655
N7635 X-7.605 Y27.231 Z-10.66
N7640 X-8.418 Y26.946 Z-10.69
N7645 X-8.553 Y26.897 Z-10.695
N7650 X-8.684 Y26.846 Z-10.7
N7655 G03 X8.685 Y-26.848 I8.684 J-26.847
N7660 X-8.577 Y26.88 I-8.684 J26.847
N7665 G01 X-8.684 Y26.846
N7670 X-9.352 Y26.586 Z-10.725
N7675 X-9.485 Y26.531 Z-10.73
N7680 X-10.011 Y26.305 Z-10.75
N7685 G03 X10.013 Y-26.308 I10.012 J-26.307
N7690 X-9.408 Y26.527 I-10.012 J26.307
N7695 G01 X-10.011 Y26.305
N7700 X-10.143 Y26.249 Z-10.755
N7705 X-10.276 Y26.191 Z-10.76
N7710 X-11.053 Y25.82 Z-10.79
N7715 X-11.182 Y25.756 Z-10.795
N7720 X-11.307 Y25.692 Z-10.8
N7725 G03 X11.308 Y-25.694 I11.307 J-25.693
N7730 X-11.155 Y25.758 I-11.307 J25.693
N7735 G01 X-11.307 Y25.692
N7740 X-11.943 Y25.361 Z-10.825
N7745 X-12.07 Y25.292 Z-10.83
N7750 X-12.568 Y25.011 Z-10.85
N7755 G03 X12.57 Y-25.014 I12.569 J-25.012
N7760 X-12.096 Y25.243 I-12.569 J25.012
N7765 G01 X-12.568 Y25.011
N7770 X-12.693 Y24.941 Z-10.855
N7775 X-12.82 Y24.869 Z-10.86
N7780 X-13.555 Y24.421 Z-10.89
N7785 X-13.676 Y24.345 Z-10.895
N7790 X-13.794 Y24.268 Z-10.9
N7795 G03 X13.795 Y-24.27 I13.795 J-24.269
N7800 X-13.69 Y24.327 I-13.795 J24.269
N7805 G01 X-13.794 Y24.268
N7810 X-14.393 Y23.874 Z-10.925
N7815 X-14.512 Y23.791 Z-10.93
N7820 X-14.98 Y23.461 Z-10.95
N7825 G03 X14.981 Y-23.464 I14.98 J-23.463
N7830 X-14.455 Y23.788 I-14.98 J23.463
N7835 G01 X-14.98 Y23.461
N7840 X-15.097 Y23.379 Z-10.955
N7845 X-15.215 Y23.294 Z-10.96
N7850 X-15.901 Y22.774 Z-10.99
N7855 X-16.013 Y22.685 Z-10.995
N7860 X-16.122 Y22.596 Z-11.
N7865 G03 X16.124 Y-22.598 I16.123 J-22.597
N7870 X-15.957 Y22.713 I-16.123 J22.597
N7875 G01 X-16.122 Y22.596
N7880 X-16.567 Y22.234 Z-11.02
N7885 X-16.679 Y22.144 Z-11.025
N7890 X-17.219 Y21.673 Z-11.05
N7895 G03 X17.221 Y-21.675 I17.22 J-21.674
N7900 X-16.665 Y22.102 I-17.22 J21.674
N7905 G01 X-17.219 Y21.673
N7910 X-17.327 Y21.579 Z-11.055
N7915 X-17.436 Y21.481 Z-11.06
N7920 X-17.54 Y21.383 Z-11.065
N7925 X-18.061 Y20.89 Z-11.09
N7930 X-18.162 Y20.787 Z-11.095
N7935 X-18.261 Y20.688 Z-11.1
N7940 G03 X18.263 Y-20.69 I18.262 J-20.689
N7945 X-18.097 Y20.831 I-18.262 J20.689
N7950 G01 X-18.261 Y20.688
N7955 X-18.664 Y20.279 Z-11.12
N7960 X-18.764 Y20.175 Z-11.125
N7965 X-19.25 Y19.649 Z-11.15
N7970 G03 X19.251 Y-19.65 I19.25 J-19.649
N7975 X-18.714 Y20.16 I-19.25 J19.649
N7980 G01 X-19.25 Y19.649
N7985 X-19.348 Y19.542 Z-11.155
N7990 X-19.443 Y19.433 Z-11.16
N7995 X-19.911 Y18.89 Z-11.185
N8000 X-20.003 Y18.779 Z-11.19
N8005 X-20.181 Y18.558 Z-11.2
N8010 G03 X20.183 Y-18.561 I20.182 J-18.56
N8015 X-20.025 Y18.726 I-20.182 J18.56
N8020 G01 X-20.181 Y18.558
N8025 X-20.541 Y18.111 Z-11.22
N8030 X-20.628 Y17.995 Z-11.225
N8035 X-21.057 Y17.423 Z-11.25
N8040 G03 X21.057 Y-17.423 I21.057 J-17.423
N8045 X-20.557 Y18.01 I-21.057 J17.423
N8050 G01 X-21.057 Y17.423
N8055 X-21.143 Y17.306 Z-11.255
N8060 X-21.636 Y16.599 Z-11.285
N8065 X-21.715 Y16.478 Z-11.29
N8070 X-21.869 Y16.241 Z-11.3
N8075 G03 X21.872 Y-16.243 I21.87 J-16.242
N8080 X-21.637 Y16.548 I-21.87 J16.242
N8085 G01 X-21.869 Y16.241
N8090 X-22.103 Y15.879 Z-11.315
N8095 X-22.18 Y15.756 Z-11.32
N8100 X-22.476 Y15.264 Z-11.34
N8105 X-22.549 Y15.141 Z-11.345
N8110 X-22.62 Y15.019 Z-11.35
N8115 G03 X22.62 Y-15.019 I22.62 J-15.019
N8120 X-22.597 Y15.053 I-22.62 J15.019
N8125 G01 X-22.62 Y15.019
N8130 X-22.691 Y14.891 Z-11.355
N8135 X-23.034 Y14.26 Z-11.38
N8140 X-23.1 Y14.133 Z-11.385
N8145 X-23.291 Y13.751 Z-11.4
N8150 G03 X23.295 Y-13.753 I23.293 J-13.752
N8155 X-23.075 Y14.111 I-23.293 J13.752
N8160 G01 X-23.291 Y13.751
N8165 X-23.42 Y13.494 Z-11.41
N8170 X-23.484 Y13.365 Z-11.415
N8175 X-23.844 Y12.58 Z-11.445
N8180 X-23.899 Y12.451 Z-11.45
N8185 G03 X23.9 Y-12.451 I23.9 J-12.451
N8190 X-23.874 Y12.5 I-23.9 J12.451
N8195 G01 X-23.899 Y12.451
N8200 X-24.176 Y11.789 Z-11.475
N8205 X-24.231 Y11.654 Z-11.48
N8210 X-24.434 Y11.119 Z-11.5
N8215 G03 X24.437 Y-11.12 I24.435 J-11.12
N8220 X-24.191 Y11.638 I-24.435 J11.12
N8225 G01 X-24.434 Y11.119
N8230 X-24.535 Y10.851 Z-11.51
N8235 X-24.583 Y10.712 Z-11.515
N8240 X-24.814 Y10.033 Z-11.54
N8245 X-24.858 Y9.895 Z-11.545
N8250 X-24.898 Y9.761 Z-11.55
N8255 G03 X24.901 Y-9.762 I24.9 J-9.762
N8260 X-24.826 Y9.945 I-24.9 J9.762
N8265 G01 X-24.898 Y9.761
N8270 X-25.065 Y9.212 Z-11.57
N8275 X-25.106 Y9.073 Z-11.575
N8280 X-25.254 Y8.518 Z-11.595
N8285 X-25.289 Y8.38 Z-11.6
N8290 G03 X25.29 Y-8.381 I25.289 J-8.381
N8295 X-25.073 Y9.005 I-25.289 J8.381
N8300 G01 X-25.289 Y8.38
N8305 X-25.324 Y8.241 Z-11.605
N8310 X-25.356 Y8.097 Z-11.61
N8315 X-25.478 Y7.536 Z-11.63
N8320 X-25.509 Y7.395 Z-11.635
N8325 X-25.537 Y7.253 Z-11.64
N8330 X-25.587 Y6.976 Z-11.65
N8335 G03 X25.591 Y-6.977 I25.589 J-6.976
N8340 X-25.509 Y7.257 I-25.589 J6.976
N8345 G01 X-25.587 Y6.976
N8350 X-25.665 Y6.552 Z-11.665
N8355 X-25.69 Y6.408 Z-11.67
N8360 X-25.795 Y5.697 Z-11.695
N8365 X-25.814 Y5.557 Z-11.7
N8370 G03 X25.814 Y-5.557 I25.814 J-5.557
N8375 X-25.806 Y5.596 I-25.814 J5.557
N8380 G01 X-25.814 Y5.557
N8385 X-25.832 Y5.412 Z-11.705
N8390 X-25.896 Y4.841 Z-11.725
N8395 X-25.913 Y4.697 Z-11.73
N8400 X-25.925 Y4.553 Z-11.735
N8405 X-25.958 Y4.129 Z-11.75
N8410 G03 X25.962 Y-4.129 I25.96 J-4.129
N8415 X-25.884 Y4.569 I-25.96 J4.129
N8420 G01 X-25.958 Y4.129
N8425 X-25.981 Y3.842 Z-11.76
N8430 X-25.99 Y3.696 Z-11.765
N8435 X-26.022 Y2.978 Z-11.79
N8440 X-26.027 Y2.834 Z-11.795
N8445 X-26.028 Y2.694 Z-11.8
N8450 G03 X26.03 Y-2.694 I26.029 J-2.694
N8455 X-26.015 Y2.822 I-26.029 J2.694
N8460 G01 X-26.028 Y2.694
N8465 X-26.033 Y2.263 Z-11.815
N8470 X-26.034 Y2.119 Z-11.82
N8475 X-26.033 Y1.973 Z-11.825
N8480 X-26.005 Y1.257 Z-11.85
N8485 G03 X26.007 Y-1.257 I26.006 J-1.257
N8490 X-25.967 Y1.882 I-26.006 J1.257
N8495 G01 X-26.005 Y1.257
N8500 X-26. Y1.112 Z-11.855
N8505 X-25.989 Y0.965 Z-11.86
N8510 X-25.948 Y0.391 Z-11.88
N8515 X-25.937 Y0.247 Z-11.885
N8520 X-25.923 Y0.103 Z-11.89
N8525 X-25.893 Y-0.177 Z-11.9
N8530 G03 X25.897 Y0.177 I25.895 J0.177
N8535 X-25.894 Y0.134 I-25.895 J-0.177
N8540 G01 X-25.893 Y-0.177
N8545 X-25.847 Y-0.606 Z-11.915
N8550 X-25.829 Y-0.752 Z-11.92
N8555 X-25.728 Y-1.464 Z-11.945
N8560 X-25.706 Y-1.603 Z-11.95
N8565 G03 X25.707 Y1.603 I25.706 J1.603
N8570 X-25.714 Y-1.478 I-25.706 J-1.603
N8575 G01 X-25.706 Y-1.603
N8580 X-25.681 Y-1.746 Z-11.955
N8585 X-25.581 Y-2.313 Z-11.975
N8590 X-25.554 Y-2.456 Z-11.98
N8595 X-25.465 Y-2.878 Z-11.995
N8600 X-25.446 Y-3.017 Z-12.
N8605 G03 X25.449 Y3.017 I25.447 J3.017
N8610 X-25.51 Y-2.419 I-25.448 J-3.017
N8615 G01 X-25.446 Y-3.017
N8620 X-25.406 Y-3.156 Z-12.005
N8625 X-25.374 Y-3.301 Z-12.01
N8630 X-25.187 Y-3.997 Z-12.035
N8635 X-25.147 Y-4.137 Z-12.04
N8640 X-25.065 Y-4.407 Z-12.05
N8645 G03 X25.068 Y4.407 I25.067 J4.407
N8650 X-25.106 Y-4.166 I-25.067 J-4.407
N8655 G01 X-25.065 Y-4.407
N8660 X-24.939 Y-4.821 Z-12.065
N8665 X-24.895 Y-4.96 Z-12.07
N8670 X-24.66 Y-5.643 Z-12.095
N8675 X-24.613 Y-5.776 Z-12.1
N8680 G03 X24.613 Y5.776 I24.613 J5.776
N8685 X-24.644 Y-5.645 I-24.613 J-5.776
N8690 G01 X-24.613 Y-5.776
N8695 X-24.561 Y-5.912 Z-12.105
N8700 X-24.356 Y-6.451 Z-12.125
N8705 X-24.303 Y-6.586 Z-12.13
N8710 X-24.08 Y-7.115 Z-12.15
N8715 G03 X24.083 Y7.116 I24.081 J7.116
N8720 X-24.23 Y-6.585 I-24.081 J-7.116
N8725 G01 X-24.08 Y-7.115
N8730 X-24.024 Y-7.248 Z-12.155
N8735 X-23.965 Y-7.384 Z-12.16
N8740 X-23.844 Y-7.648 Z-12.17
N8745 X-23.779 Y-7.777 Z-12.175
N8750 X-23.65 Y-8.036 Z-12.185
N8755 X-23.583 Y-8.166 Z-12.19
N8760 X-23.448 Y-8.414 Z-12.2
N8765 G03 X23.451 Y8.415 I23.45 J8.415
N8770 X-23.525 Y-8.198 I-23.45 J-8.415
N8775 G01 X-23.448 Y-8.414
N8780 X-23.31 Y-8.669 Z-12.21
N8785 X-23.24 Y-8.798 Z-12.215
N8790 X-23.168 Y-8.926 Z-12.22
N8795 X-22.801 Y-9.551 Z-12.245
N8800 X-22.728 Y-9.67 Z-12.25
N8805 G03 X22.728 Y9.67 I22.728 J9.67
N8810 X-22.782 Y-9.543 I-22.728 J-9.67
N8815 G01 X-22.728 Y-9.67
N8820 X-22.651 Y-9.792 Z-12.255
N8825 X-22.418 Y-10.159 Z-12.27
N8830 X-22.339 Y-10.283 Z-12.275
N8835 X-22.258 Y-10.404 Z-12.28
N8840 X-21.934 Y-10.879 Z-12.3
N8845 G03 X21.935 Y10.88 I21.934 J10.88
N8850 X-22.189 Y-10.349 I-21.934 J-10.88
N8855 G01 X-21.934 Y-10.879
N8860 X-21.846 Y-10.996 Z-12.305
N8865 X-21.748 Y-11.116 Z-12.31
N8870 X-21.379 Y-11.569 Z-12.33
N8875 X-21.285 Y-11.684 Z-12.335
N8880 X-21.005 Y-12.005 Z-12.35
N8885 G03 X21.008 Y12.007 I21.006 J12.006
N8890 X-21.18 Y-11.692 I-21.006 J-12.006
N8895 G01 X-21.005 Y-12.005
N8900 X-20.813 Y-12.225 Z-12.36
N8905 X-20.711 Y-12.339 Z-12.365
N8910 X-20.312 Y-12.767 Z-12.385
N8915 X-20.211 Y-12.874 Z-12.39
N8920 X-20.108 Y-12.979 Z-12.395
N8925 X-20.006 Y-13.071 Z-12.4
N8930 G03 X20.008 Y13.072 I20.007 J13.072
N8935 X-20.116 Y-12.902 I-20.007 J-13.072
N8940 G01 X-20.006 Y-13.071
N8945 X-19.66 Y-13.357 Z-12.415
N8950 X-19.536 Y-13.457 Z-12.42
N8955 X-19.062 Y-13.822 Z-12.44
N8960 X-18.943 Y-13.914 Z-12.445
N8965 X-18.832 Y-13.997 Z-12.45
N8970 G03 X18.832 Y13.996 I18.832 J13.996
N8975 X-18.846 Y-13.978 I-18.832 J-13.996
N8980 G01 X-18.832 Y-13.997
N8985 G00 Z5.
N8990 X-0.337 Y10.934
N8995 Z0.517
N9000 G01 Z-0.55 F250.
N9005 G02 X0.337 Y-10.939 I0.337 J-10.936 F800.
N9010 X-0.538 Y10.926 I-0.337 J10.936
N9015 G01 X-0.337 Y10.934
N9020 X-0.194 Y10.96 Z-0.555
N9025 X-0.052 Y10.985 Z-0.56
N9030 X0.084 Y11.002 Z-0.565
N9035 X0.227 Y11.017 Z-0.57
N9040 X0.371 Y11.03 Z-0.575
N9045 X0.514 Y11.043 Z-0.58
N9050 X0.658 Y11.056 Z-0.585
N9055 X0.799 Y11.06 Z-0.59
N9060 X0.943 Y11.063 Z-0.595
N9065 X1.087 Y11.065 Z-0.6
N9070 X1.099
N9075 G02 X-1.1 Y-11.069 I-1.1 J-11.067
N9080 X0.806 Y11.091 I1.1 J11.067
N9085 G01 X1.099 Y11.065
N9090 X1.243 Y11.067 Z-0.605
N9095 X1.383 Z-0.61
N9100 X1.524 Y11.06 Z-0.615
N9105 X1.668 Y11.052 Z-0.62
N9110 X1.812 Y11.043 Z-0.625
N9115 X1.955 Y11.034 Z-0.63
N9120 X2.097 Y11.023 Z-0.635
N9125 X2.238 Y11.005 Z-0.64
N9130 X2.381 Y10.987 Z-0.645
N9135 X2.534 Y10.967 Z-0.65
N9140 G02 X-2.535 Y-10.97 I-2.534 J-10.969
N9145 X2.15 Y11.048 I2.534 J10.969
N9150 G01 X2.534 Y10.967
N9155 X2.675 Y10.948 Z-0.655
N9160 X2.812 Y10.926 Z-0.66
N9165 X2.953 Y10.898 Z-0.665
N9170 X3.094 Y10.87 Z-0.67
N9175 X3.235 Y10.841 Z-0.675
N9180 X3.375 Y10.813 Z-0.68
N9185 X3.513 Y10.78 Z-0.685
N9190 X3.651 Y10.742 Z-0.69
N9195 X3.79 Y10.705 Z-0.695
N9200 X3.938 Y10.664 Z-0.7
N9205 G02 X-3.939 Y-10.667 I-3.938 J-10.666
N9210 X3.494 Y10.818 I3.938 J10.666
N9215 G01 X3.938 Y10.664
N9220 X4.075 Y10.627 Z-0.705
N9225 X4.208 Y10.584 Z-0.71
N9230 X4.343 Y10.537 Z-0.715
N9235 X4.479 Y10.49 Z-0.72
N9240 X4.615 Y10.444 Z-0.725
N9245 X4.75 Y10.397 Z-0.73
N9250 X4.881 Y10.344 Z-0.735
N9255 X5.014 Y10.288 Z-0.74
N9260 X5.146 Y10.233 Z-0.745
N9265 X5.286 Y10.174 Z-0.75
N9270 G02 X-5.287 Y-10.176 I-5.286 J-10.175
N9275 X4.838 Y10.394 I5.286 J10.175
N9280 G01 X5.286 Y10.174
N9285 X5.416 Y10.119 Z-0.755
N9290 X5.543 Y10.057 Z-0.76
N9295 X5.671 Y9.993 Z-0.765
N9300 X5.799 Y9.929 Z-0.77
N9305 X5.928 Y9.865 Z-0.775
N9310 X6.055 Y9.801 Z-0.78
N9315 X6.178 Y9.73 Z-0.785
N9320 X6.302 Y9.658 Z-0.79
N9325 X6.426 Y9.585 Z-0.795
N9330 X6.556 Y9.509 Z-0.8
N9335 G02 X-6.558 Y-9.511 I-6.557 J-9.51
N9340 X6.183 Y9.757 I6.557 J9.51
N9345 G01 X6.556 Y9.509
N9350 X6.679 Y9.437 Z-0.805
N9355 X6.796 Y9.359 Z-0.81
N9360 X6.915 Y9.279 Z-0.815
N9365 X7.034 Y9.199 Z-0.82
N9370 X7.152 Y9.119 Z-0.825
N9375 X7.27 Y9.039 Z-0.83
N9380 X7.384 Y8.953 Z-0.835
N9385 X7.497 Y8.865 Z-0.84
N9390 X7.611 Y8.778 Z-0.845
N9395 X7.729 Y8.686 Z-0.85
N9400 G02 X-7.731 Y-8.688 I-7.73 J-8.687
N9405 X7.356 Y9.004 I7.73 J8.687
N9410 G01 X7.729 Y8.686
N9415 X7.841 Y8.599 Z-0.855
N9420 X7.948 Y8.506 Z-0.86
N9425 X8.055 Y8.412 Z-0.865
N9430 X8.163 Y8.317 Z-0.87
N9435 X8.271 Y8.223 Z-0.875
N9440 X8.377 Y8.128 Z-0.88
N9445 X8.479 Y8.028 Z-0.885
N9450 X8.58 Y7.927 Z-0.89
N9455 X8.682 Y7.825 Z-0.895
N9460 X8.788 Y7.72 Z-0.9
N9465 G02 X-8.789 Y-7.721 I-8.788 J-7.721
N9470 X8.467 Y8.07 I8.788 J7.721
N9475 G01 X8.788 Y7.72
N9480 X8.886 Y7.621 Z-0.905
N9485 X8.982 Y7.514 Z-0.91
N9490 X9.076 Y7.406 Z-0.915
N9495 X9.171 Y7.299 Z-0.92
N9500 X9.266 Y7.191 Z-0.925
N9505 X9.36 Y7.084 Z-0.93
N9510 X9.448 Y6.972 Z-0.935
N9515 X9.536 Y6.859 Z-0.94
N9520 X9.624 Y6.746 Z-0.945
N9525 X9.715 Y6.628 Z-0.95
N9530 G02 X-9.717 Y-6.629 I-9.716 J-6.629
N9535 X9.678 Y6.682 I9.716 J6.629
N9540 G01 X9.715 Y6.628
N9545 X9.802 Y6.516 Z-0.955
N9550 X9.882 Y6.399 Z-0.96
N9555 X9.963 Y6.281 Z-0.965
N9560 X10.043 Y6.162 Z-0.97
N9565 X10.124 Y6.043 Z-0.975
N9570 X10.204 Y5.925 Z-0.98
N9575 X10.278 Y5.803 Z-0.985
N9580 X10.351 Y5.68 Z-0.99
N9585 X10.423 Y5.557 Z-0.995
N9590 X10.499 Y5.429 Z-1.
N9595 G02 X-10.501 Y-5.43 I-10.5 J-5.43
N9600 X10.31 Y5.779 I10.5 J5.43
N9605 G01 X10.499 Y5.429
N9610 X10.571 Y5.306 Z-1.005
N9615 X10.637 Y5.181 Z-1.01
N9620 X10.702 Y5.054 Z-1.015
N9625 X10.767 Y4.926 Z-1.02
N9630 X10.832 Y4.798 Z-1.025
N9635 X10.896 Y4.671 Z-1.03
N9640 X10.956 Y4.541 Z-1.035
N9645 X11.012 Y4.41 Z-1.04
N9650 X11.069 Y4.278 Z-1.045
N9655 X11.126 Y4.146 Z-1.05
N9660 X11.128 Y4.142
N9665 G02 X-11.131 Y-4.143 I-11.129 J-4.142
N9670 X10.959 Y4.569 I11.129 J4.142
N9675 G01 X11.128 Y4.142
N9680 X11.184 Y4.011 Z-1.055
N9685 X11.236 Y3.879 Z-1.06
N9690 X11.284 Y3.744 Z-1.065
N9695 X11.332 Y3.609 Z-1.07
N9700 X11.38 Y3.475 Z-1.075
N9705 X11.429 Y3.34 Z-1.08
N9710 X11.473 Y3.205 Z-1.085
N9715 X11.513 Y3.067 Z-1.09
N9720 X11.553 Y2.929 Z-1.095
N9725 X11.592 Y2.792 Z-1.1
N9730 X11.594 Y2.787
N9735 G02 X-11.597 Y-2.788 I-11.596 J-2.787
N9740 X11.48 Y3.225 I11.596 J2.787
N9745 G01 X11.594 Y2.787
N9750 X11.633 Y2.649 Z-1.105
N9755 X11.67 Y2.513 Z-1.11
N9760 X11.701 Y2.373 Z-1.115
N9765 X11.732 Y2.233 Z-1.12
N9770 X11.763 Y2.094 Z-1.125
N9775 X11.794 Y1.954 Z-1.13
N9780 X11.823 Y1.814 Z-1.135
N9785 X11.846 Y1.673 Z-1.14
N9790 X11.868 Y1.531 Z-1.145
N9795 X11.89 Y1.39 Z-1.15
N9800 X11.891 Y1.385
N9805 G02 X-11.895 Y-1.385 I-11.893 J-1.385
N9810 X11.843 Y1.747 I11.893 J1.385
N9815 G01 X11.891 Y1.385
N9820 X11.913 Y1.243 Z-1.155
N9825 X11.934 Y1.103 Z-1.16
N9830 X11.948 Y0.961 Z-1.165
N9835 X11.961 Y0.819 Z-1.17
N9840 X11.974 Y0.676 Z-1.175
N9845 X11.987 Y0.533 Z-1.18
N9850 X12. Y0.391 Z-1.185
N9855 X12.006 Y0.248 Z-1.19
N9860 X12.01 Y0.105 Z-1.195
N9865 X12.015 Y-0.038 Z-1.2
N9870 Y-0.043
N9875 G02 X-12.019 Y0.043 I-12.017 J0.043
N9880 X12.012 Y0.269 I12.017 J-0.043
N9885 G01 X12.015 Y-0.043
N9890 X12.019 Y-0.186 Z-1.205
N9895 X12.023 Y-0.329 Z-1.21
N9900 X12.021 Y-0.471 Z-1.215
N9905 X12.017 Y-0.614 Z-1.22
N9910 X12.012 Y-0.757 Z-1.225
N9915 X12.007 Y-0.9 Z-1.23
N9920 X12.003 Y-1.043 Z-1.235
N9925 X11.993 Y-1.186 Z-1.24
N9930 X11.98 Y-1.328 Z-1.245
N9935 X11.966 Y-1.471 Z-1.25
N9940 Y-1.476
N9945 G02 X-11.97 Y1.476 I-11.968 J1.476
N9950 X11.995 Y-1.209 I11.968 J-1.476
N9955 G01 X11.966 Y-1.476
N9960 X11.952 Y-1.618 Z-1.255
N9965 X11.938 Y-1.761 Z-1.26
N9970 X11.922 Y-1.901 Z-1.265
N9975 X11.899 Y-2.043 Z-1.27
N9980 X11.877 Y-2.184 Z-1.275
N9985 X11.854 Y-2.326 Z-1.28
N9990 X11.832 Y-2.467 Z-1.285
N9995 X11.808 Y-2.608 Z-1.29
N10000 X11.777 Y-2.748 Z-1.295
N10005 X11.745 Y-2.888 Z-1.3
N10010 X11.744 Y-2.892
N10015 G02 X-11.748 Y2.894 I-11.746 J2.893
N10020 X11.793 Y-2.688 I11.746 J-2.893
N10025 G01 X11.744 Y-2.892
N10030 X11.713 Y-3.032 Z-1.305
N10035 X11.682 Y-3.172 Z-1.31
N10040 X11.65 Y-3.311 Z-1.315
N10045 X11.611 Y-3.448 Z-1.32
N10050 X11.571 Y-3.585 Z-1.325
N10055 X11.531 Y-3.723 Z-1.33
N10060 X11.491 Y-3.861 Z-1.335
N10065 X11.451 Y-3.998 Z-1.34
N10070 X11.405 Y-4.133 Z-1.345
N10075 X11.356 Y-4.268 Z-1.35
N10080 X11.355 Y-4.273
N10085 G02 X-11.358 Y4.274 I-11.356 J4.273
N10090 X11.421 Y-4.091 I11.356 J-4.273
N10095 G01 X11.355 Y-4.273
N10100 X11.306 Y-4.407 Z-1.355
N10105 X11.258 Y-4.542 Z-1.36
N10110 X11.209 Y-4.677 Z-1.365
N10115 X11.156 Y-4.809 Z-1.37
N10120 X11.1 Y-4.94 Z-1.375
N10125 X11.043 Y-5.072 Z-1.38
N10130 X10.986 Y-5.203 Z-1.385
N10135 X10.929 Y-5.335 Z-1.39
N10140 X10.87 Y-5.465 Z-1.395
N10145 X10.805 Y-5.592 Z-1.4
N10150 X10.803 Y-5.597
N10155 G02 X-10.805 Y5.598 I-10.804 J5.597
N10160 X10.848 Y-5.51 I10.804 J-5.597
N10165 G01 X10.803 Y-5.597
N10170 X10.738 Y-5.724 Z-1.405
N10175 X10.673 Y-5.852 Z-1.41
N10180 X10.608 Y-5.98 Z-1.415
N10185 X10.543 Y-6.106 Z-1.42
N10190 X10.47 Y-6.229 Z-1.425
N10195 X10.398 Y-6.353 Z-1.43
N10200 X10.325 Y-6.476 Z-1.435
N10205 X10.252 Y-6.6 Z-1.44
N10210 X10.179 Y-6.723 Z-1.445
N10215 X10.1 Y-6.842 Z-1.45
N10220 X10.098 Y-6.846
N10225 G02 X-10.099 Y6.847 I-10.098 J6.847
N10230 X10.183 Y-6.719 I10.098 J-6.847
N10235 G01 X10.098 Y-6.846
N10240 X10.017 Y-6.965 Z-1.455
N10245 X9.857 Y-7.202 Z-1.465
N10250 X9.777 Y-7.321 Z-1.47
N10255 X9.692 Y-7.435 Z-1.475
N10260 X9.605 Y-7.549 Z-1.48
N10265 X9.43 Y-7.775 Z-1.49
N10270 X9.342 Y-7.889 Z-1.495
N10275 X9.298 Y-7.945 Z-1.497
N10280 X9.276 Y-7.973 Z-1.499
N10285 X9.264 Y-7.987
N10290 X9.258 Y-7.993 Z-1.5
N10295 X9.252 Y-8.
N10300 X9.248 Y-8.003
N10305 G02 X-9.247 Y8.003 I-9.248 J8.003
N10310 X9.273 Y-7.973 I9.248 J-8.003
N10315 G01 X9.248 Y-8.003
N10320 X9.154 Y-8.112 Z-1.505
N10325 X8.966 Y-8.327 Z-1.515
N10330 X8.871 Y-8.435 Z-1.52
N10335 X8.776 Y-8.541 Z-1.525
N10340 X8.676 Y-8.643 Z-1.53
N10345 X8.474 Y-8.846 Z-1.54
N10350 X8.297 Y-9.024 Z-1.549
N10355 X8.285 Y-9.036
N10360 X8.278 Y-9.043 Z-1.55
N10365 X8.272 Y-9.049
N10370 X8.267 Y-9.051
N10375 G02 X-8.267 Y9.051 I-8.267 J9.051
N10380 X8.317 Y-9.005 I8.267 J-9.051
N10385 G01 X8.267 Y-9.051
N10390 X8.163 Y-9.148 Z-1.555
N10395 X7.949 Y-9.338 Z-1.565
N10400 X7.735 Y-9.529 Z-1.575
N10405 X7.624 Y-9.619 Z-1.58
N10410 X7.399 Y-9.796 Z-1.59
N10415 X7.174 Y-9.972 Z-1.6
N10420 X7.169 Y-9.975
N10425 G02 X-7.17 Y9.975 I-7.17 J9.975
N10430 X7.209 Y-9.947 I7.17 J-9.975
N10435 G01 X7.169 Y-9.975
N10440 X7.055 Y-10.06 Z-1.605
N10445 X6.82 Y-10.223 Z-1.615
N10450 X6.584 Y-10.385 Z-1.625
N10455 X6.465 Y-10.465 Z-1.63
N10460 X6.343 Y-10.539 Z-1.635
N10465 X6.22 Y-10.612 Z-1.64
N10470 X5.974 Y-10.76 Z-1.65
N10475 X5.969
N10480 G02 X-5.97 Y10.762 I-5.97 J10.761
N10485 X6.317 Y-10.559 I5.97 J-10.761
N10490 G01 X5.969 Y-10.76
N10495 X5.848 Y-10.835 Z-1.655
N10500 X5.722 Y-10.903 Z-1.66
N10505 X5.468 Y-11.034 Z-1.67
N10510 X5.214 Y-11.166 Z-1.68
N10515 X5.085 Y-11.228 Z-1.685
N10520 X4.823 Y-11.343 Z-1.695
N10525 X4.692 Y-11.401 Z-1.7
N10530 X4.687 Y-11.403
N10535 G02 X-4.688 Y11.406 I-4.688 J11.405
N10540 X5.106 Y-11.222 I4.688 J-11.405
N10545 G01 X4.687 Y-11.403
N10550 X4.556 Y-11.461 Z-1.705
N10555 X4.425 Y-11.516 Z-1.71
N10560 X4.291 Y-11.566 Z-1.715
N10565 X4.022 Y-11.665 Z-1.725
N10570 X3.888 Y-11.715 Z-1.73
N10575 X3.754 Y-11.764 Z-1.735
N10580 X3.617 Y-11.806 Z-1.74
N10585 X3.342 Y-11.888 Z-1.75
N10590 X3.338 Y-11.89
N10595 G02 X-3.339 Y11.894 I-3.338 J11.892
N10600 X3.628 Y-11.804 I3.338 J-11.892
N10605 G01 X3.338 Y-11.89
N10610 X3.2 Y-11.931 Z-1.755
N10615 X3.064 Y-11.972 Z-1.76
N10620 X2.925 Y-12.007 Z-1.765
N10625 X2.647 Y-12.072 Z-1.775
N10630 X2.368 Y-12.137 Z-1.785
N10635 X2.228 Y-12.167 Z-1.79
N10640 X2.087 Y-12.191 Z-1.795
N10645 X1.945 Y-12.215 Z-1.8
N10650 X1.94 Y-12.214
N10655 G02 X-1.941 Y12.218 I-1.94 J12.216
N10660 X2.15 Y-12.179 I1.94 J-12.216
N10665 G01 X1.94 Y-12.214
N10670 X1.799 Y-12.239 Z-1.805
N10675 X1.658 Y-12.263 Z-1.81
N10680 X1.517 Y-12.286 Z-1.815
N10685 X1.375 Y-12.301 Z-1.82
N10690 X1.09 Y-12.331 Z-1.83
N10695 X0.948 Y-12.346 Z-1.835
N10700 X0.805 Y-12.361 Z-1.84
N10705 X0.663 Y-12.37 Z-1.845
N10710 X0.52 Y-12.376 Z-1.85
N10715 X0.515
N10720 G02 X-0.515 Y12.38 I-0.515 J12.378
N10725 X0.672 Y-12.369 I0.515 J-12.378
N10730 G01 X0.515 Y-12.376
N10735 X0.228 Y-12.389 Z-1.86
N10740 X0.086 Y-12.395 Z-1.865
N10745 X-0.057 Y-12.397 Z-1.87
N10750 X-0.343 Y-12.392 Z-1.88
N10755 X-0.63 Y-12.386 Z-1.89
N10760 X-0.773 Y-12.382 Z-1.895
N10765 X-0.916 Y-12.371 Z-1.9
N10770 X-0.921
N10775 G02 X0.921 Y12.373 I0.921 J12.372
N10780 X-0.806 Y-12.379 I-0.921 J-12.372
N10785 G01 X-0.921 Y-12.371
N10790 X-1.063 Y-12.359 Z-1.905
N10795 X-1.349 Y-12.336 Z-1.915
N10800 X-1.491 Y-12.324 Z-1.92
N10805 X-1.633 Y-12.306 Z-1.925
N10810 X-1.916 Y-12.265 Z-1.935
N10815 X-2.2 Y-12.224 Z-1.945
N10820 X-2.27 Y-12.213 Z-1.947
N10825 X-2.306 Y-12.207 Z-1.949
N10830 X-2.323 Y-12.203
N10835 X-2.332 Y-12.201 Z-1.95
N10840 X-2.341 Y-12.2
N10845 X-2.346 Y-12.198
N10850 G02 X2.346 Y12.198 I2.346 J12.198
N10855 X-2.285 Y-12.21 I-2.346 J-12.198
N10860 G01 X-2.346 Y-12.198
N10865 X-2.486 Y-12.169 Z-1.955
N10870 X-2.766 Y-12.111 Z-1.965
N10875 X-2.906 Y-12.081 Z-1.97
N10880 X-3.046 Y-12.051 Z-1.975
N10885 X-3.184 Y-12.014 Z-1.98
N10890 X-3.46 Y-11.938 Z-1.99
N10895 X-3.702 Y-11.871 Z-1.999
N10900 X-3.719 Y-11.867
N10905 X-3.728 Y-11.864 Z-2.
N10910 X-3.736 Y-11.862
N10915 X-3.741 Y-11.86
N10920 G02 X3.741 Y11.859 I3.741 J11.859
N10925 X-3.63 Y-11.894 I-3.741 J-11.859
N10930 G01 X-3.741 Y-11.86
N10935 X-3.876 Y-11.816 Z-2.005
N10940 X-4.147 Y-11.723 Z-2.015
N10945 X-4.418 Y-11.63 Z-2.025
N10950 X-4.552 Y-11.581 Z-2.03
N10955 X-4.817 Y-11.471 Z-2.04
N10960 X-5.081 Y-11.362 Z-2.05
N10965 X-5.086 Y-11.36
N10970 G02 X5.087 Y11.361 I5.086 J11.36
N10975 X-4.569 Y-11.577 I-5.086 J-11.36
N10980 G01 X-5.086 Y-11.36
N10985 X-5.218 Y-11.304 Z-2.055
N10990 X-5.346 Y-11.242 Z-2.06
N10995 X-5.603 Y-11.116 Z-2.07
N11000 X-5.732 Y-11.053 Z-2.075
N11005 X-5.861 Y-10.99 Z-2.08
N11010 X-5.986 Y-10.922 Z-2.085
N11015 X-6.235 Y-10.78 Z-2.095
N11020 X-6.36 Y-10.71 Z-2.1
N11025 X-6.364 Y-10.707
N11030 G02 X6.366 Y10.71 I6.365 J10.708
N11035 X-6.048 Y-10.889 I-6.365 J-10.708
N11040 G01 X-6.364 Y-10.707
N11045 X-6.489 Y-10.636 Z-2.105
N11050 X-6.611 Y-10.563 Z-2.11
N11055 X-6.851 Y-10.406 Z-2.12
N11060 X-7.09 Y-10.25 Z-2.13
N11065 X-7.209 Y-10.17 Z-2.135
N11070 X-7.325 Y-10.085 Z-2.14
N11075 X-7.554 Y-9.914 Z-2.15
N11080 X-7.558 Y-9.911
N11085 G02 X7.561 Y9.915 I7.56 J9.913
N11090 X-7.256 Y-10.135 I-7.56 J-9.913
N11095 G01 X-7.558 Y-9.911
N11100 X-7.673 Y-9.826 Z-2.155
N11105 X-7.788 Y-9.74 Z-2.16
N11110 X-7.898 Y-9.65 Z-2.165
N11115 X-8.117 Y-9.465 Z-2.175
N11120 X-8.335 Y-9.279 Z-2.185
N11125 X-8.443 Y-9.185 Z-2.19
N11130 X-8.546 Y-9.085 Z-2.195
N11135 X-8.649 Y-8.986 Z-2.2
N11140 X-8.653 Y-8.983
N11145 G02 X8.656 Y8.986 I8.654 J8.984
N11150 X-8.465 Y-9.16 I-8.654 J-8.984
N11155 G01 X-8.653 Y-8.983
N11160 X-8.859 Y-8.785 Z-2.21
N11165 X-8.962 Y-8.685 Z-2.215
N11170 X-9.059 Y-8.58 Z-2.22
N11175 X-9.253 Y-8.369 Z-2.23
N11180 X-9.35 Y-8.264 Z-2.235
N11185 X-9.447 Y-8.159 Z-2.24
N11190 X-9.54 Y-8.05 Z-2.245
N11195 X-9.63 Y-7.938 Z-2.25
N11200 X-9.633 Y-7.934
N11205 G02 X9.636 Y7.937 I9.635 J7.936
N11210 X-9.526 Y-8.063 I-9.635 J-7.936
N11215 G01 X-9.633 Y-7.934
N11220 X-9.814 Y-7.712 Z-2.26
N11225 X-9.904 Y-7.601 Z-2.265
N11230 X-9.992 Y-7.488 Z-2.27
N11235 X-10.075 Y-7.372 Z-2.275
N11240 X-10.241 Y-7.139 Z-2.285
N11245 X-10.324 Y-7.022 Z-2.29
N11250 X-10.407 Y-6.905 Z-2.295
N11255 X-10.484 Y-6.784 Z-2.3
N11260 X-10.486 Y-6.78
N11265 G02 X10.488 Y6.781 I10.487 J6.78
N11270 X-10.484 Y-6.784 I-10.487 J-6.78
N11275 G01 X-10.486 Y-6.78
N11280 X-10.638 Y-6.537 Z-2.31
N11285 X-10.79 Y-6.294 Z-2.32
N11290 X-10.861 Y-6.17 Z-2.325
N11295 X-10.997 Y-5.918 Z-2.335
N11300 X-11.133 Y-5.666 Z-2.345
N11305 X-11.167 Y-5.603 Z-2.347
N11310 X-11.183 Y-5.571 Z-2.349
N11315 X-11.191 Y-5.555
N11320 X-11.195 Y-5.547 Z-2.35
N11325 X-11.199 Y-5.539
N11330 X-11.201 Y-5.534
N11335 G02 X11.2 Y5.534 I11.2 J5.534
N11340 X-11.156 Y-5.625 I-11.2 J-5.534
N11345 G01 X-11.201 Y-5.534
N11350 X-11.262 Y-5.405 Z-2.355
N11355 X-11.382 Y-5.145 Z-2.365
N11360 X-11.442 Y-5.015 Z-2.37
N11365 X-11.502 Y-4.885 Z-2.375
N11370 X-11.555 Y-4.752 Z-2.38
N11375 X-11.659 Y-4.485 Z-2.39
N11380 X-11.763 Y-4.218 Z-2.4
N11385 X-11.764 Y-4.214
N11390 G02 X11.764 Y4.213 I11.764 J4.213
N11395 X-11.732 Y-4.302 I-11.764 J-4.213
N11400 G01 X-11.764 Y-4.214
N11405 X-11.812 Y-4.079 Z-2.405
N11410 X-11.899 Y-3.806 Z-2.415
N11415 X-11.987 Y-3.533 Z-2.425
N11420 X-12.028 Y-3.396 Z-2.43
N11425 X-12.064 Y-3.258 Z-2.435
N11430 X-12.169 Y-2.841 Z-2.45
N11435 X-12.17 Y-2.836
N11440 G02 X12.172 Y2.837 I12.171 J2.836
N11445 X-12.036 Y-3.36 I-12.171 J-2.836
N11450 G01 X-12.17 Y-2.836
N11455 X-12.205 Y-2.697 Z-2.455
N11460 X-12.233 Y-2.557 Z-2.46
N11465 X-12.313 Y-2.135 Z-2.475
N11470 X-12.339 Y-1.994 Z-2.48
N11475 X-12.362 Y-1.853 Z-2.485
N11480 X-12.38 Y-1.711 Z-2.49
N11485 X-12.415 Y-1.427 Z-2.5
N11490 X-12.416 Y-1.422
N11495 G02 X12.419 Y1.422 I12.417 J1.422
N11500 X-12.363 Y-1.825 I-12.417 J-1.422
N11505 G01 X-12.416 Y-1.422
N11510 X-12.433 Y-1.28 Z-2.505
N11515 X-12.449 Y-1.137 Z-2.51
N11520 X-12.459 Y-0.995 Z-2.515
N11525 X-12.486 Y-0.566 Z-2.53
N11530 X-12.494 Y-0.423 Z-2.535
N11535 X-12.497 Y-0.28 Z-2.54
N11540 X-12.498 Y0.007 Z-2.55
N11545 Y0.012
N11550 G02 X12.502 Y-0.012 I12.5 J-0.012
N11555 X-12.495 Y-0.269 I-12.5 J0.012
N11560 G01 X-12.498 Y0.012
N11565 Y0.155 Z-2.555
N11570 Y0.298 Z-2.56
N11575 X-12.495 Y0.441 Z-2.565
N11580 X-12.486 Y0.584 Z-2.57
N11585 X-12.469 Y0.87 Z-2.58
N11590 X-12.46 Y1.013 Z-2.585
N11595 X-12.45 Y1.155 Z-2.59
N11600 X-12.434 Y1.298 Z-2.595
N11605 X-12.417 Y1.44 Z-2.6
N11610 X-12.416 Y1.445
N11615 G02 X12.419 Y-1.445 I12.418 J-1.445
N11620 X-12.428 Y1.344 I-12.418 J1.445
N11625 G01 X-12.416 Y1.445
N11630 X-12.381 Y1.729 Z-2.61
N11635 X-12.363 Y1.871 Z-2.615
N11640 X-12.341 Y2.013 Z-2.62
N11645 X-12.315 Y2.153 Z-2.625
N11650 X-12.262 Y2.435 Z-2.635
N11655 X-12.236 Y2.576 Z-2.64
N11660 X-12.206 Y2.716 Z-2.645
N11665 X-12.173 Y2.855 Z-2.65
N11670 X-12.172 Y2.86
N11675 G02 X12.172 Y-2.86 I12.172 J-2.86
N11680 X-12.18 Y2.822 I-12.172 J2.86
N11685 G01 X-12.172 Y2.86
N11690 X-12.137 Y2.999 Z-2.655
N11695 X-12.102 Y3.138 Z-2.66
N11700 X-12.067 Y3.276 Z-2.665
N11705 X-12.03 Y3.415 Z-2.67
N11710 X-11.989 Y3.552 Z-2.675
N11715 X-11.902 Y3.825 Z-2.685
N11720 X-11.86 Y3.961 Z-2.69
N11725 X-11.815 Y4.098 Z-2.695
N11730 X-11.792 Y4.165 Z-2.697
N11735 X-11.78 Y4.199 Z-2.699
N11740 X-11.774 Y4.216
N11745 X-11.77 Y4.228 Z-2.7
N11750 X-11.768 Y4.233
N11755 X-11.766 Y4.237
N11760 G02 X11.765 Y-4.237 I11.765 J-4.237
N11765 X-11.791 Y4.166 I-11.765 J4.237
N11770 G01 X-11.766 Y4.237
N11775 X-11.715 Y4.371 Z-2.705
N11780 X-11.663 Y4.504 Z-2.71
N11785 X-11.612 Y4.638 Z-2.715
N11790 X-11.561 Y4.772 Z-2.72
N11795 X-11.505 Y4.904 Z-2.725
N11800 X-11.447 Y5.035 Z-2.73
N11805 X-11.328 Y5.295 Z-2.74
N11810 X-11.268 Y5.425 Z-2.745
N11815 X-11.207 Y5.554 Z-2.75
N11820 X-11.204 Y5.559
N11825 G02 X11.203 Y-5.558 I11.204 J-5.558
N11830 X-11.228 Y5.511 I-11.204 J5.558
N11835 G01 X-11.204 Y5.559
N11840 X-11.14 Y5.687 Z-2.755
N11845 X-11.073 Y5.813 Z-2.76
N11850 X-11.005 Y5.939 Z-2.765
N11855 X-10.937 Y6.065 Z-2.77
N11860 X-10.869 Y6.191 Z-2.775
N11865 X-10.797 Y6.315 Z-2.78
N11870 X-10.724 Y6.438 Z-2.785
N11875 X-10.573 Y6.682 Z-2.795
N11880 X-10.497 Y6.803 Z-2.8
N11885 X-10.494 Y6.807
N11890 G02 X10.494 Y-6.807 I10.494 J-6.807
N11895 X-10.549 Y6.721 I-10.494 J6.807
N11900 G01 X-10.494 Y6.807
N11905 X-10.416 Y6.927 Z-2.805
N11910 X-10.334 Y7.044 Z-2.81
N11915 X-10.252 Y7.161 Z-2.815
N11920 X-10.17 Y7.279 Z-2.82
N11925 X-10.088 Y7.396 Z-2.825
N11930 X-10.003 Y7.512 Z-2.83
N11935 X-9.917 Y7.626 Z-2.835
N11940 X-9.827 Y7.737 Z-2.84
N11945 X-9.738 Y7.849 Z-2.845
N11950 X-9.649 Y7.961 Z-2.85
N11955 X-9.645 Y7.965
N11960 G02 X9.646 Y-7.966 I9.645 J-7.965
N11965 X-9.674 Y7.93 I-9.645 J7.965
N11970 G01 X-9.645 Y7.965
N11975 X-9.554 Y8.076 Z-2.855
N11980 X-9.462 Y8.185 Z-2.86
N11985 X-9.367 Y8.292 Z-2.865
N11990 X-9.27 Y8.398 Z-2.87
N11995 X-9.174 Y8.504 Z-2.875
N12000 X-9.078 Y8.61 Z-2.88
N12005 X-8.978 Y8.713 Z-2.885
N12010 X-8.878 Y8.815 Z-2.89
N12015 X-8.776 Y8.916 Z-2.895
N12020 X-8.673 Y9.015 Z-2.9
N12025 X-8.67 Y9.019
N12030 G02 X8.67 Y-9.019 I8.67 J-9.019
N12035 X-8.684 Y9.005 I-8.67 J9.019
N12040 G01 X-8.67 Y9.019
N12045 X-8.567 Y9.118 Z-2.905
N12050 X-8.463 Y9.216 Z-2.91
N12055 X-8.356 Y9.312 Z-2.915
N12060 X-8.249 Y9.407 Z-2.92
N12065 X-8.141 Y9.501 Z-2.925
N12070 X-8.032 Y9.593 Z-2.93
N12075 X-7.922 Y9.685 Z-2.935
N12080 X-7.811 Y9.776 Z-2.94
N12085 X-7.698 Y9.864 Z-2.945
N12090 X-7.585 Y9.952 Z-2.95
N12095 X-7.581 Y9.955
N12100 G02 X7.581 Y-9.955 I7.581 J-9.955
N12105 X-7.592 Y9.946 I-7.581 J9.955
N12110 G01 X-7.581 Y9.955
N12115 X-7.467 Y10.041 Z-2.955
N12120 X-7.351 Y10.126 Z-2.96
N12125 X-7.235 Y10.21 Z-2.965
N12130 X-7.118 Y10.291 Z-2.97
N12135 X-6.999 Y10.371 Z-2.975
N12140 X-6.88 Y10.451 Z-2.98
N12145 X-6.761 Y10.531 Z-2.985
N12150 X-6.519 Y10.683 Z-2.995
N12155 X-6.395 Y10.756 Z-3.
N12160 X-6.391 Y10.758
N12165 G02 X6.391 Y-10.759 I6.391 J-10.759
N12170 X-6.401 Y10.752 I-6.391 J10.759
N12175 G01 X-6.391 Y10.758
N12180 X-6.267 Y10.83 Z-3.005
N12185 X-6.144 Y10.902 Z-3.01
N12190 X-6.019 Y10.973 Z-3.015
N12195 X-5.893 Y11.04 Z-3.02
N12200 X-5.766 Y11.108 Z-3.025
N12205 X-5.639 Y11.172 Z-3.03
N12210 X-5.382 Y11.299 Z-3.04
N12215 X-5.252 Y11.36 Z-3.045
N12220 X-5.122 Y11.419 Z-3.05
N12225 X-5.117 Y11.421
N12230 G02 X5.117 Y-11.422 I5.117 J-11.421
N12235 X-5.242 Y11.365 I-5.117 J11.421
N12240 G01 X-5.117 Y11.421
N12245 X-4.987 Y11.48 Z-3.055
N12250 X-4.855 Y11.536 Z-3.06
N12255 X-4.59 Y11.645 Z-3.07
N12260 X-4.456 Y11.696 Z-3.075
N12265 X-4.322 Y11.746 Z-3.08
N12270 X-4.188 Y11.797 Z-3.085
N12275 X-4.053 Y11.843 Z-3.09
N12280 X-3.917 Y11.889 Z-3.095
N12285 X-3.782 Y11.935 Z-3.1
N12290 X-3.777 Y11.936
N12295 G02 X3.777 Y-11.936 I3.777 J-11.936
N12300 X-3.898 Y11.897 I-3.777 J11.936
N12305 G01 X-3.777 Y11.936
N12310 X-3.64 Y11.978 Z-3.105
N12315 X-3.503 Y12.019 Z-3.11
N12320 X-3.366 Y12.06 Z-3.115
N12325 X-3.228 Y12.097 Z-3.12
N12330 X-3.089 Y12.133 Z-3.125
N12335 X-2.951 Y12.17 Z-3.13
N12340 X-2.811 Y12.202 Z-3.135
N12345 X-2.671 Y12.233 Z-3.14
N12350 X-2.532 Y12.265 Z-3.145
N12355 X-2.391 Y12.292 Z-3.15
N12360 X-2.386 Y12.293
N12365 G02 X2.386 Y-12.294 I2.386 J-12.294
N12370 X-2.419 Y12.287 I-2.386 J12.294
N12375 G01 X-2.386 Y12.293
N12380 X-2.246 Y12.32 Z-3.155
N12385 X-2.105 Y12.347 Z-3.16
N12390 X-1.964 Y12.369 Z-3.165
N12395 X-1.822 Y12.391 Z-3.17
N12400 X-1.681 Y12.413 Z-3.175
N12405 X-1.539 Y12.43 Z-3.18
N12410 X-1.396 Y12.448 Z-3.185
N12415 X-1.254 Y12.464 Z-3.19
N12420 X-1.112 Y12.477 Z-3.195
N12425 X-0.969 Y12.49 Z-3.2
N12430 X-0.964
N12435 G02 X0.964 Y-12.49 I0.964 J-12.49
N12440 X-1.21 Y12.468 I-0.964 J12.49
N12445 G01 X-0.964 Y12.49
N12450 X-0.821 Y12.502 Z-3.205
N12455 X-0.536 Y12.517 Z-3.215
N12460 X-0.393 Y12.524 Z-3.22
N12465 X-0.106 Y12.529 Z-3.23
N12470 X0.037 Y12.531 Z-3.235
N12475 X0.395 Y12.526 Z-3.247
N12480 X0.431 Y12.525 Z-3.249
N12485 X0.448 Y12.524
N12490 X0.457 Z-3.25
N12495 X0.466 Y12.523
N12500 X0.471
N12505 G02 X-0.471 Y-12.523 I-0.471 J-12.523
N12510 X0.403 Y12.525 I0.471 J12.523
N12515 G01 X0.471 Y12.523
N12520 X0.614 Y12.516 Z-3.255
N12525 X0.757 Y12.51 Z-3.26
N12530 X0.9 Y12.501 Z-3.265
N12535 X1.186 Y12.478 Z-3.275
N12540 X1.328 Y12.464 Z-3.28
N12545 X1.612 Y12.431 Z-3.29
N12550 X1.754 Y12.412 Z-3.295
N12555 X1.896 Y12.391 Z-3.3
N12560 X1.901 Y12.39
N12565 G02 X-1.901 Y-12.391 I-1.901 J-12.391
N12570 X1.747 Y12.413 I1.901 J12.391
N12575 G01 X1.901 Y12.39
N12580 X2.043 Y12.369 Z-3.305
N12585 X2.184 Y12.345 Z-3.31
N12590 X2.465 Y12.293 Z-3.32
N12595 X2.605 Y12.265 Z-3.325
N12600 X2.885 Y12.203 Z-3.335
N12605 X3.024 Y12.169 Z-3.34
N12610 X3.302 Y12.098 Z-3.35
N12615 X3.306 Y12.097
N12620 G02 X-3.306 Y-12.097 I-3.306 J-12.097
N12625 X3.092 Y12.153 I3.306 J12.097
N12630 G01 X3.306 Y12.097
N12635 X3.444 Y12.058 Z-3.355
N12640 X3.719 Y11.978 Z-3.365
N12645 X3.855 Y11.935 Z-3.37
N12650 X4.127 Y11.845 Z-3.38
N12655 X4.262 Y11.797 Z-3.385
N12660 X4.531 Y11.698 Z-3.395
N12665 X4.664 Y11.645 Z-3.4
N12670 X4.669 Y11.643
N12675 G02 X-4.669 Y-11.644 I-4.669 J-11.643
N12680 X4.569 Y11.682 I4.669 J11.643
N12685 G01 X4.669 Y11.643
N12690 X4.801 Y11.589 Z-3.405
N12695 X4.934 Y11.535 Z-3.41
N12700 X5.065 Y11.478 Z-3.415
N12705 X5.326 Y11.361 Z-3.425
N12710 X5.455 Y11.299 Z-3.43
N12715 X5.712 Y11.173 Z-3.44
N12720 X5.839 Y11.107 Z-3.445
N12725 X5.966 Y11.039 Z-3.45
N12730 X5.97 Y11.037
N12735 G02 X-5.971 Y-11.038 I-5.97 J-11.037
N12740 X5.779 Y11.138 I5.97 J11.037
N12745 G01 X5.97 Y11.037
N12750 X6.096 Y10.97 Z-3.455
N12755 X6.221 Y10.899 Z-3.46
N12760 X6.345 Y10.827 Z-3.465
N12765 X6.469 Y10.756 Z-3.47
N12770 X6.591 Y10.681 Z-3.475
N12775 X6.712 Y10.605 Z-3.48
N12780 X6.834 Y10.529 Z-3.485
N12785 X6.953 Y10.45 Z-3.49
N12790 X7.183 Y10.296 Z-3.5
N12795 X7.191 Y10.291
N12800 X7.194 Y10.286
N12805 G02 X-7.194 Y-10.287 I-7.194 J-10.287
N12810 X7.124 Y10.335 I7.194 J10.287
N12815 G01 X7.194 Y10.286
N12820 X7.311 Y10.204 Z-3.505
N12825 X7.427 Y10.121 Z-3.51
N12830 X7.543 Y10.037 Z-3.515
N12835 X7.657 Y9.949 Z-3.52
N12840 X7.77 Y9.862 Z-3.525
N12845 X7.883 Y9.774 Z-3.53
N12850 X7.993 Y9.683 Z-3.535
N12855 X8.103 Y9.591 Z-3.54
N12860 X8.213 Y9.499 Z-3.545
N12865 X8.321 Y9.405 Z-3.55
N12870 X8.324 Y9.401
N12875 G02 X-8.325 Y-9.402 I-8.325 J-9.402
N12880 X8.316 Y9.408 I8.325 J9.402
N12885 G01 X8.324 Y9.401
N12890 X8.431 Y9.306 Z-3.555
N12895 X8.538 Y9.211 Z-3.56
N12900 X8.642 Y9.112 Z-3.565
N12905 X8.745 Y9.013 Z-3.57
N12910 X8.849 Y8.914 Z-3.575
N12915 X8.949 Y8.812 Z-3.58
N12920 X9.049 Y8.71 Z-3.585
N12925 X9.149 Y8.607 Z-3.59
N12930 X9.246 Y8.502 Z-3.595
N12935 X9.343 Y8.396 Z-3.6
N12940 X9.346 Y8.393
N12945 G02 X-9.347 Y-8.393 I-9.346 J-8.393
N12950 X9.278 Y8.468 I9.346 J8.393
N12955 G01 X9.346 Y8.393
N12960 X9.442 Y8.287 Z-3.605
N12965 X9.535 Y8.178 Z-3.61
N12970 X9.629 Y8.069 Z-3.615
N12975 X9.721 Y7.96 Z-3.62
N12980 X9.81 Y7.848 Z-3.625
N12985 X9.9 Y7.736 Z-3.63
N12990 X9.988 Y7.624 Z-3.635
N12995 X10.074 Y7.509 Z-3.64
N13000 X10.202 Y7.337 Z-3.647
N13005 X10.224 Y7.308 Z-3.649
N13010 X10.234 Y7.294
N13015 X10.239 Y7.286 Z-3.65
N13020 X10.245 Y7.279
N13025 X10.247 Y7.274
N13030 G02 X-10.246 Y-7.274 I-10.247 J-7.274
N13035 X10.215 Y7.319 I10.247 J7.274
N13040 G01 X10.247 Y7.274
N13045 X10.329 Y7.158 Z-3.655
N13050 X10.411 Y7.04 Z-3.66
N13055 X10.492 Y6.922 Z-3.665
N13060 X10.647 Y6.681 Z-3.675
N13065 X10.724 Y6.561 Z-3.68
N13070 X10.871 Y6.315 Z-3.69
N13075 X10.944 Y6.192 Z-3.695
N13080 X11.013 Y6.066 Z-3.7
N13085 X11.015 Y6.062
N13090 G02 X-11.016 Y-6.062 I-11.016 J-6.062
N13095 X10.948 Y6.182 I11.016 J6.062
N13100 G01 X11.015 Y6.062
N13105 X11.085 Y5.937 Z-3.705
N13110 X11.153 Y5.811 Z-3.71
N13115 X11.283 Y5.556 Z-3.72
N13120 X11.346 Y5.428 Z-3.725
N13125 X11.468 Y5.168 Z-3.735
N13130 X11.527 Y5.038 Z-3.74
N13135 X11.64 Y4.775 Z-3.75
N13140 X11.642 Y4.77
N13145 G02 X-11.642 Y-4.77 I-11.642 J-4.77
N13150 X11.613 Y4.839 I11.642 J4.77
N13155 G01 X11.642 Y4.77
N13160 X11.696 Y4.638 Z-3.755
N13165 X11.8 Y4.371 Z-3.765
N13170 X11.849 Y4.237 Z-3.77
N13175 X11.944 Y3.967 Z-3.78
N13180 X11.989 Y3.831 Z-3.785
N13185 X12.074 Y3.557 Z-3.795
N13190 X12.095 Y3.489 Z-3.797
N13195 X12.105 Y3.455 Z-3.799
N13200 X12.115 Y3.42 Z-3.8
N13205 Y3.415
N13210 G02 X-12.116 Y-3.415 I-12.116 J-3.415
N13215 X12.096 Y3.484 I12.116 J3.415
N13220 G01 X12.115 Y3.415
N13225 X12.154 Y3.277 Z-3.805
N13230 X12.192 Y3.139 Z-3.81
N13235 X12.228 Y3.001 Z-3.815
N13240 X12.294 Y2.722 Z-3.825
N13245 X12.325 Y2.582 Z-3.83
N13250 X12.382 Y2.302 Z-3.84
N13255 X12.408 Y2.161 Z-3.845
N13260 X12.432 Y2.02 Z-3.85
N13265 Y2.015
N13270 G02 X-12.434 Y-2.015 I-12.433 J-2.015
N13275 X12.41 Y2.15 I12.433 J2.015
N13280 G01 X12.432 Y2.015
N13285 X12.456 Y1.874 Z-3.855
N13290 X12.477 Y1.732 Z-3.86
N13295 X12.515 Y1.448 Z-3.87
N13300 X12.531 Y1.306 Z-3.875
N13305 X12.559 Y1.021 Z-3.885
N13310 X12.57 Y0.879 Z-3.89
N13315 X12.589 Y0.593 Z-3.9
N13320 Y0.588
N13325 G02 X-12.589 Y-0.588 I-12.589 J-0.588
N13330 X12.585 Y0.672 I12.589 J0.588
N13335 G01 X12.589 Y0.588
N13340 X12.595 Y0.445 Z-3.905
N13345 X12.604 Y0.159 Z-3.915
N13350 X12.605 Y0.016 Z-3.92
N13355 X12.604 Y-0.271 Z-3.93
N13360 X12.601 Y-0.414 Z-3.935
N13365 X12.59 Y-0.7 Z-3.945
N13370 X12.581 Y-0.843 Z-3.95
N13375 Y-0.848
N13380 G02 X-12.581 Y0.848 I-12.581 J0.848
N13385 X12.584 Y-0.806 I12.581 J-0.848
N13390 G01 X12.581 Y-0.848
N13395 X12.561 Y-1.133 Z-3.96
N13400 X12.547 Y-1.276 Z-3.965
N13405 X12.517 Y-1.56 Z-3.975
N13410 X12.498 Y-1.702 Z-3.98
N13415 X12.459 Y-1.986 Z-3.99
N13420 X12.435 Y-2.127 Z-3.995
N13425 X12.411 Y-2.268 Z-4.
N13430 X12.41 Y-2.273
N13435 G02 X-12.411 Y2.273 I-12.41 J2.273
N13440 X12.432 Y-2.15 I12.41 J-2.273
N13445 G01 X12.41 Y-2.273
N13450 X12.385 Y-2.414 Z-4.005
N13455 X12.357 Y-2.554 Z-4.01
N13460 X12.298 Y-2.834 Z-4.02
N13465 X12.265 Y-2.974 Z-4.025
N13470 X12.197 Y-3.252 Z-4.035
N13475 X12.159 Y-3.39 Z-4.04
N13480 X12.081 Y-3.665 Z-4.05
N13485 X12.079 Y-3.67
N13490 G02 X-12.079 Y3.67 I-12.079 J3.67
N13495 X12.091 Y-3.629 I12.079 J-3.67
N13500 G01 X12.079 Y-3.67
N13505 X12.037 Y-3.807 Z-4.055
N13510 X11.95 Y-4.08 Z-4.065
N13515 X11.903 Y-4.215 Z-4.07
N13520 X11.806 Y-4.484 Z-4.08
N13525 X11.754 Y-4.618 Z-4.085
N13530 X11.649 Y-4.884 Z-4.095
N13535 X11.593 Y-5.015 Z-4.1
N13540 X11.591 Y-5.02
N13545 G02 X-11.591 Y5.02 I-11.591 J5.02
N13550 X11.611 Y-4.973 I11.591 J-5.02
N13555 G01 X11.591 Y-5.02
N13560 X11.533 Y-5.151 Z-4.105
N13565 X11.476 Y-5.282 Z-4.11
N13570 X11.415 Y-5.412 Z-4.115
N13575 X11.354 Y-5.541 Z-4.12
N13580 X11.292 Y-5.67 Z-4.125
N13585 X11.227 Y-5.798 Z-4.13
N13590 X11.161 Y-5.925 Z-4.135
N13595 X11.095 Y-6.052 Z-4.14
N13600 X11.025 Y-6.177 Z-4.145
N13605 X10.955 Y-6.302 Z-4.15
N13610 X10.952 Y-6.306
N13615 G02 X-10.953 Y6.306 I-10.953 J6.306
N13620 X11.022 Y-6.183 I10.953 J-6.306
N13625 G01 X10.952 Y-6.306
N13630 X10.882 Y-6.431 Z-4.155
N13635 X10.808 Y-6.553 Z-4.16
N13640 X10.734 Y-6.675 Z-4.165
N13645 X10.659 Y-6.798 Z-4.17
N13650 X10.581 Y-6.918 Z-4.175
N13655 X10.502 Y-7.037 Z-4.18
N13660 X10.424 Y-7.157 Z-4.185
N13665 X10.342 Y-7.274 Z-4.19
N13670 X10.259 Y-7.391 Z-4.195
N13675 X10.177 Y-7.508 Z-4.2
N13680 X10.173 Y-7.512
N13685 G02 X-10.173 Y7.512 I-10.173 J7.512
N13690 X10.215 Y-7.455 I10.173 J-7.512
N13695 G01 X10.173 Y-7.512
N13700 X10.088 Y-7.626 Z-4.205
N13705 X10.001 Y-7.741 Z-4.21
N13710 X9.915 Y-7.855 Z-4.215
N13715 X9.825 Y-7.966 Z-4.22
N13720 X9.735 Y-8.077 Z-4.225
N13725 X9.645 Y-8.189 Z-4.23
N13730 X9.552 Y-8.297 Z-4.235
N13735 X9.458 Y-8.405 Z-4.24
N13740 X9.364 Y-8.513 Z-4.245
N13745 X9.267 Y-8.618 Z-4.25
N13750 X9.263 Y-8.622
N13755 G02 X-9.264 Y8.623 I-9.264 J8.622
N13760 X9.282 Y-8.602 I9.264 J-8.622
N13765 G01 X9.263 Y-8.622
N13770 X9.166 Y-8.727 Z-4.255
N13775 X9.068 Y-8.832 Z-4.26
N13780 X8.968 Y-8.933 Z-4.265
N13785 X8.867 Y-9.035 Z-4.27
N13790 X8.766 Y-9.136 Z-4.275
N13795 X8.662 Y-9.235 Z-4.28
N13800 X8.558 Y-9.333 Z-4.285
N13805 X8.453 Y-9.43 Z-4.29
N13810 X8.346 Y-9.525 Z-4.295
N13815 X8.238 Y-9.62 Z-4.3
N13820 X8.234 Y-9.623
N13825 G02 X-8.235 Y9.624 I-8.235 J9.623
N13830 X8.333 Y-9.537 I8.235 J-9.623
N13835 G01 X8.234 Y-9.623
N13840 X8.127 Y-9.717 Z-4.305
N13845 X8.016 Y-9.808 Z-4.31
N13850 X7.906 Y-9.899 Z-4.315
N13855 X7.795 Y-9.989 Z-4.32
N13860 X7.681 Y-10.076 Z-4.325
N13865 X7.567 Y-10.163 Z-4.33
N13870 X7.454 Y-10.25 Z-4.335
N13875 X7.337 Y-10.333 Z-4.34
N13880 X7.133 Y-10.479 Z-4.349
N13885 X7.118 Y-10.489
N13890 X7.111 Y-10.494 Z-4.35
N13895 X7.104 Y-10.499
N13900 X7.099 Y-10.502
N13905 G02 X-7.099 Y10.501 I-7.099 J10.502
N13910 X7.123 Y-10.485 I7.099 J-10.502
N13915 G01 X7.099 Y-10.502
N13920 X6.98 Y-10.581 Z-4.355
N13925 X6.861 Y-10.66 Z-4.36
N13930 X6.741 Y-10.739 Z-4.365
N13935 X6.62 Y-10.814 Z-4.37
N13940 X6.498 Y-10.889 Z-4.375
N13945 X6.376 Y-10.964 Z-4.38
N13950 X6.251 Y-11.035 Z-4.385
N13955 X6.127 Y-11.105 Z-4.39
N13960 X6.002 Y-11.176 Z-4.395
N13965 X5.939 Y-11.209 Z-4.397
N13970 X5.875 Y-11.243 Z-4.4
N13975 X5.871 Y-11.244
N13980 G02 X-5.871 Y11.245 I-5.871 J11.245
N13985 X5.914 Y-11.222 I5.871 J-11.245
N13990 G01 X5.871 Y-11.244
N13995 X5.744 Y-11.311 Z-4.405
N14000 X5.617 Y-11.378 Z-4.41
N14005 X5.489 Y-11.44 Z-4.415
N14010 X5.36 Y-11.502 Z-4.42
N14015 X5.231 Y-11.564 Z-4.425
N14020 X5.1 Y-11.622 Z-4.43
N14025 X4.969 Y-11.68 Z-4.435
N14030 X4.838 Y-11.737 Z-4.44
N14035 X4.705 Y-11.791 Z-4.445
N14040 X4.572 Y-11.844 Z-4.45
N14045 X4.567 Y-11.846
N14050 G02 X-4.568 Y11.846 I-4.567 J11.846
N14055 X4.57 Y-11.845 I4.567 J-11.846
N14060 G01 X4.567 Y-11.846
N14065 X4.434 Y-11.899 Z-4.455
N14070 X4.3 Y-11.947 Z-4.46
N14075 X4.165 Y-11.996 Z-4.465
N14080 X4.031 Y-12.044 Z-4.47
N14085 X3.895 Y-12.089 Z-4.475
N14090 X3.758 Y-12.133 Z-4.48
N14095 X3.622 Y-12.177 Z-4.485
N14100 X3.485 Y-12.216 Z-4.49
N14105 X3.244 Y-12.285 Z-4.499
N14110 X3.226 Y-12.29
N14115 X3.218 Y-12.293 Z-4.5
N14120 X3.209 Y-12.295
N14125 X3.204 Y-12.296
N14130 G02 X-3.204 Y12.296 I-3.204 J12.296
N14135 X3.226 Y-12.29 I3.204 J-12.296
N14140 G01 X3.204 Y-12.296
N14145 X3.066 Y-12.331 Z-4.505
N14150 X2.927 Y-12.366 Z-4.51
N14155 X2.788 Y-12.401 Z-4.515
N14160 X2.648 Y-12.431 Z-4.52
N14165 X2.508 Y-12.461 Z-4.525
N14170 X2.368 Y-12.491 Z-4.53
N14175 X2.227 Y-12.516 Z-4.535
N14180 X2.086 Y-12.541 Z-4.54
N14185 X1.945 Y-12.566 Z-4.545
N14190 X1.804 Y-12.587 Z-4.55
N14195 X1.799 Y-12.588
N14200 G02 X-1.799 Y12.589 I-1.799 J12.588
N14205 X1.882 Y-12.576 I1.799 J-12.588
N14210 G01 X1.799 Y-12.588
N14215 X1.657 Y-12.608 Z-4.555
N14220 X1.515 Y-12.629 Z-4.56
N14225 X1.373 Y-12.645 Z-4.565
N14230 X1.231 Y-12.66 Z-4.57
N14235 X1.089 Y-12.676 Z-4.575
N14240 X0.946 Y-12.687 Z-4.58
N14245 X0.803 Y-12.697 Z-4.585
N14250 X0.66 Y-12.708 Z-4.59
N14255 X0.517 Y-12.714 Z-4.595
N14260 X0.374 Y-12.72 Z-4.6
N14265 X0.369 Y-12.721
N14270 G02 X-0.369 Y12.721 I-0.369 J12.721
N14275 X0.538 Y-12.715 I0.369 J-12.721
N14280 G01 X0.369 Y-12.721
N14285 X0.226 Y-12.726 Z-4.605
N14290 X0.083 Y-12.728 Z-4.61
N14295 X-0.06 Y-12.729 Z-4.615
N14300 X-0.203 Y-12.73 Z-4.62
N14305 X-0.346 Y-12.726 Z-4.625
N14310 X-0.489 Y-12.723 Z-4.63
N14315 X-0.632 Y-12.719 Z-4.635
N14320 X-0.775 Y-12.711 Z-4.64
N14325 X-0.918 Y-12.702 Z-4.645
N14330 X-1.061 Y-12.693 Z-4.65
N14335 X-1.066
N14340 G02 X1.066 Y12.692 I1.066 J12.692
N14345 X-0.941 Y-12.702 I-1.066 J-12.692
N14350 G01 X-1.066 Y-12.693
N14355 X-1.208 Y-12.68 Z-4.655
N14360 X-1.351 Y-12.666 Z-4.66
N14365 X-1.493 Y-12.653 Z-4.665
N14370 X-1.635 Y-12.635 Z-4.67
N14375 X-1.777 Y-12.616 Z-4.675
N14380 X-1.919 Y-12.598 Z-4.68
N14385 X-2.06 Y-12.576 Z-4.685
N14390 X-2.343 Y-12.529 Z-4.695
N14395 X-2.484 Y-12.502 Z-4.7
N14400 X-2.488 Y-12.501
N14405 G02 X2.489 Y12.502 I2.488 J12.501
N14410 X-2.419 Y-12.515 I-2.488 J-12.501
N14415 G01 X-2.488 Y-12.501
N14420 X-2.629 Y-12.473 Z-4.705
N14425 X-2.769 Y-12.445 Z-4.71
N14430 X-2.909 Y-12.413 Z-4.715
N14435 X-3.187 Y-12.348 Z-4.725
N14440 X-3.326 Y-12.311 Z-4.73
N14445 X-3.602 Y-12.236 Z-4.74
N14450 X-3.739 Y-12.195 Z-4.745
N14455 X-3.876 Y-12.153 Z-4.75
N14460 X-3.881 Y-12.152
N14465 G02 X3.881 Y12.153 I3.881 J12.152
N14470 X-3.763 Y-12.188 I-3.881 J-12.152
N14475 G01 X-3.881 Y-12.152
N14480 X-4.018 Y-12.109 Z-4.755
N14485 X-4.153 Y-12.064 Z-4.76
N14490 X-4.288 Y-12.017 Z-4.765
N14495 X-4.424 Y-11.971 Z-4.77
N14500 X-4.558 Y-11.921 Z-4.775
N14505 X-4.825 Y-11.819 Z-4.785
N14510 X-4.958 Y-11.764 Z-4.79
N14515 X-5.221 Y-11.653 Z-4.8
N14520 X-5.226 Y-11.651
N14525 G02 X5.226 Y11.651 I5.226 J11.651
N14530 X-5.129 Y-11.694 I-5.226 J-11.651
N14535 G01 X-5.226 Y-11.651
N14540 X-5.356 Y-11.593 Z-4.805
N14545 X-5.616 Y-11.473 Z-4.815
N14550 X-5.744 Y-11.41 Z-4.82
N14555 X-6. Y-11.281 Z-4.83
N14560 X-6.127 Y-11.214 Z-4.835
N14565 X-6.378 Y-11.076 Z-4.845
N14570 X-6.502 Y-11.005 Z-4.85
N14575 X-6.506 Y-11.002
N14580 G02 X6.506 Y11.003 I6.506 J11.003
N14585 X-6.451 Y-11.035 I-6.506 J-11.003
N14590 G01 X-6.506 Y-11.002
N14595 X-6.753 Y-10.857 Z-4.86
N14600 X-6.874 Y-10.781 Z-4.865
N14605 X-7.115 Y-10.627 Z-4.875
N14610 X-7.234 Y-10.548 Z-4.88
N14615 X-7.47 Y-10.385 Z-4.89
N14620 X-7.587 Y-10.302 Z-4.895
N14625 X-7.702 Y-10.217 Z-4.9
N14630 X-7.706 Y-10.214
N14635 G02 X7.706 Y10.215 I7.706 J10.214
N14640 X-7.661 Y-10.247 I-7.706 J-10.214
N14645 G01 X-7.706 Y-10.214
N14650 X-7.821 Y-10.129 Z-4.905
N14655 X-7.934 Y-10.042 Z-4.91
N14660 X-8.159 Y-9.864 Z-4.92
N14665 X-8.269 Y-9.773 Z-4.925
N14670 X-8.487 Y-9.588 Z-4.935
N14675 X-8.595 Y-9.493 Z-4.94
N14680 X-8.807 Y-9.301 Z-4.95
N14685 X-8.81 Y-9.297
N14690 G02 X8.81 Y9.297 I8.81 J9.297
N14695 X-8.602 Y-9.49 I-8.81 J-9.297
N14700 G01 X-8.81 Y-9.297
N14705 X-8.914 Y-9.199 Z-4.955
N14710 X-9.119 Y-9. Z-4.965
N14715 X-9.22 Y-8.898 Z-4.97
N14720 X-9.419 Y-8.692 Z-4.98
N14725 X-9.516 Y-8.587 Z-4.985
N14730 X-9.707 Y-8.374 Z-4.995
N14735 X-9.755 Y-8.321 Z-4.997
N14740 X-9.802 Y-8.266 Z-5.
N14745 X-9.805 Y-8.262
N14750 G02 X9.805 Y8.262 I9.805 J8.262
N14755 X-9.745 Y-8.333 I-9.805 J-8.262
N14760 G01 X-9.805 Y-8.262
N14765 X-9.897 Y-8.153 Z-5.005
N14770 X-9.989 Y-8.043 Z-5.01
N14775 X-10.079 Y-7.932 Z-5.015
N14780 X-10.255 Y-7.706 Z-5.025
N14785 X-10.342 Y-7.593 Z-5.03
N14790 X-10.51 Y-7.361 Z-5.04
N14795 X-10.594 Y-7.245 Z-5.045
N14800 X-10.674 Y-7.126 Z-5.05
N14805 X-10.676 Y-7.122
N14810 G02 X10.677 Y7.122 I10.677 J7.122
N14815 X-10.618 Y-7.209 I-10.677 J-7.122
N14820 G01 X-10.676 Y-7.122
N14825 X-10.757 Y-7.003 Z-5.055
N14830 X-10.836 Y-6.884 Z-5.06
N14835 X-10.988 Y-6.642 Z-5.07
N14840 X-11.064 Y-6.52 Z-5.075
N14845 X-11.208 Y-6.273 Z-5.085
N14850 X-11.279 Y-6.149 Z-5.09
N14855 X-11.347 Y-6.023 Z-5.095
N14860 X-11.414 Y-5.897 Z-5.1
N14865 X-11.417 Y-5.892
N14870 G02 X11.417 Y5.892 I11.417 J5.892
N14875 X-11.29 Y-6.133 I-11.417 J-5.892
N14880 G01 X-11.417 Y-5.892
N14885 X-11.484 Y-5.766 Z-5.105
N14890 X-11.547 Y-5.638 Z-5.11
N14895 X-11.611 Y-5.509 Z-5.115
N14900 X-11.674 Y-5.381 Z-5.12
N14905 X-11.733 Y-5.251 Z-5.125
N14910 X-11.792 Y-5.12 Z-5.13
N14915 X-11.85 Y-4.99 Z-5.135
N14920 X-11.905 Y-4.857 Z-5.14
N14925 X-12.001 Y-4.626 Z-5.149
N14930 X-12.007 Y-4.609
N14935 X-12.011 Y-4.601 Z-5.15
N14940 X-12.014 Y-4.592
N14945 X-12.016 Y-4.588
N14950 G02 X12.015 Y4.588 I12.015 J4.588
N14955 X-11.97 Y-4.705 I-12.015 J-4.588
N14960 G01 X-12.016 Y-4.588
N14965 X-12.066 Y-4.454 Z-5.155
N14970 X-12.116 Y-4.32 Z-5.16
N14975 X-12.166 Y-4.186 Z-5.165
N14980 X-12.212 Y-4.05 Z-5.17
N14985 X-12.257 Y-3.914 Z-5.175
N14990 X-12.303 Y-3.779 Z-5.18
N14995 X-12.344 Y-3.642 Z-5.185
N15000 X-12.385 Y-3.504 Z-5.19
N15005 X-12.426 Y-3.367 Z-5.195
N15010 X-12.444 Y-3.298 Z-5.197
N15015 X-12.462 Y-3.229 Z-5.2
N15020 X-12.463 Y-3.224
N15025 G02 X12.463 Y3.224 I12.463 J3.224
N15030 X-12.462 Y-3.226 I-12.463 J-3.224
N15035 G01 X-12.463 Y-3.224
N15040 X-12.5 Y-3.086 Z-5.205
N15045 X-12.536 Y-2.947 Z-5.21
N15050 X-12.568 Y-2.808 Z-5.215
N15055 X-12.631 Y-2.529 Z-5.225
N15060 X-12.658 Y-2.388 Z-5.23
N15065 X-12.712 Y-2.107 Z-5.24
N15070 X-12.735 Y-1.966 Z-5.245
N15075 X-12.757 Y-1.824 Z-5.25
N15080 X-12.758 Y-1.819
N15085 G02 X12.759 Y1.819 I12.758 J1.819
N15090 X-12.728 Y-2.016 I-12.758 J-1.819
N15095 G01 X-12.758 Y-1.819
N15100 X-12.78 Y-1.678 Z-5.255
N15105 X-12.798 Y-1.536 Z-5.26
N15110 X-12.832 Y-1.252 Z-5.27
N15115 X-12.846 Y-1.109 Z-5.275
N15120 X-12.87 Y-0.824 Z-5.285
N15125 X-12.88 Y-0.681 Z-5.29
N15130 X-12.895 Y-0.395 Z-5.3
N15135 Y-0.39
N15140 G02 X12.895 Y0.39 I12.895 J0.39
N15145 X-12.894 Y-0.403 I-12.895 J-0.39
N15150 G01 X-12.895 Y-0.39
N15155 X-12.899 Y-0.248 Z-5.305
N15160 X-12.905 Y0.039 Z-5.315
