%
O1001 (MV2E1)
(T1 D=50. CR=0. - ZMIN=-0.5 - FACE MILL)
(T2 D=6. CR=0. - ZMIN=-5.5 - FLAT END MILL)
(T5 D=3. CR=0. TAPER=118DEG - ZMIN=-17.051 - DRILL)
N10 G90 G94 G17 G49 G40 G80
N15 G21
N20 G28 G91 Z0.
N25 G90

(FACE2 2)
N30 T1 
N35 M06
N40 S1000 M03
N45 G54
N50 G5.1 Q1
N55 G00 X78.405 Y-48.313
N60 G43 Z15. H01
N65 G00 Z5.
N70 G01 Z4.5 F450.
N75 G18 G03 X73.405 Z-0.5 I-5.
N80 G01 X52.5
N85 X-52.5
N90 G17 G02 Y-24.375 J11.969
N95 G01 X52.5
N100 G03 Y-0.438 J11.969
N105 G01 X-52.5
N110 G02 Y23.5 J11.969
N115 G01 X52.5
N120 G18 G02 X57.5 Z4.5 K5.
N125 G00 Z15.
N130 G17
N135 M05
N140 G28 G91 Z0.
N145 G90
N150 G49
N155 G5.1 Q0

(DRILL2 2)
N160 M01
N165 T2 
N170 M06
N175 S3500 M03
N180 G54
N185 G00 X-30.5 Y-30.5
N190 G43 Z15. H02
N195 G00 Z5.
N200 G98 G73 X-30.5 Y-30.5 Z-6.401 R0.5 Q1.5 F15.
N205 G80
N210 X0. Y0. Z5.
N215 Z0.5
N220 G01 Z-2. F15.
N225 G00 Z-1.9
N230 G01 Z-3.5 F15.
N235 G00 Z-3.4
N240 G01 Z-5. F15.
N245 G00 Z-4.9
N250 G01 Z-6.5 F15.
N255 G00 Z-6.4
N260 G01 Z-8. F15.
N265 G00 Z-7.9
N270 G01 Z-9.5 F15.
N275 G00 Z5.
N280 Z-7.5
N285 G01 Z-11. F15.
N290 G00 Z-10.9
N295 G01 Z-12.5 F15.
N300 G00 Z-12.4
N305 G01 Z-14. F15.
N310 G00 Z-13.9
N315 G01 Z-15.5 F15.
N320 G00 Z-15.4
N325 G01 Z-17. F15.
N330 G00 Z-16.9
N335 G01 Z-17.051 F15.
N340 G00 Z5.
N345 X30.5 Y30.5
N350 G73 X30.5 Y30.5 Z-6.401 R0.5 Q1.5 F15.
N355 G80
N360 Z15.
N365 M05
N370 G28 G91 Z0.
N375 G90
N380 G49

(BORE1 2)
N385 M01
N390 T3 
N395 M06
N400 S6000 M03
N405 G54
N410 G5.1 Q1
N415 G00 X-30.5 Y-30.5
N420 G43 Z15. H03
N425 G00 Z1.5
N430 G01 Z-0.5 F125.
N435 X-30.212 Y-30.788
N440 G03 X-29.925 Y-30.5 J0.288
N445 X-31.075 Z-1. I-0.575
N450 X-29.925 Z-1.5 I0.575
N455 X-31.075 Z-2. I-0.575
N460 X-29.925 Z-2.5 I0.575
N465 X-31.075 Z-3. I-0.575
N470 X-29.925 Z-3.5 I0.575
N475 X-31.075 Z-4. I-0.575
N480 X-29.925 Z-4.5 I0.575
N485 X-31.075 Z-5. I-0.575
N490 X-29.925 Z-5.5 I0.575
N495 X-31.075 I-0.575
N500 X-29.925 I0.575
N505 X-30.212 Y-30.212 I-0.288
N510 G01 X-30.5 Y-30.5
N515 G00 Z5.
N520 Z15.
N525 Z-3.5
N530 G01 Z-5.5 F125.
N535 X-29.962 Y-31.038
N540 G03 X-29.425 Y-30.5 J0.538
N545 X-31.575 I-1.075
N550 X-29.425 I1.075
N555 X-29.962 Y-29.962 I-0.538
N560 G01 X-30.5 Y-30.5
N565 G00 Z5.
N570 X30.5 Y30.5
N575 Z1.5
N580 G01 Z-0.5 F125.
N585 X30.788 Y30.212
N590 G03 X31.075 Y30.5 J0.288
N595 X29.925 Z-1. I-0.575
N600 X31.075 Z-1.5 I0.575
N605 X29.925 Z-2. I-0.575
N610 X31.075 Z-2.5 I0.575
N615 X29.925 Z-3. I-0.575
N620 X31.075 Z-3.5 I0.575
N625 X29.925 Z-4. I-0.575
N630 X31.075 Z-4.5 I0.575
N635 X29.925 Z-5. I-0.575
N640 X31.075 Z-5.5 I0.575
N645 X29.925 I-0.575
N650 X31.075 I0.575
N655 X30.788 Y30.788 I-0.288
N660 G01 X30.5 Y30.5
N665 G00 Z5.
N670 Z-3.5
N675 G01 Z-5.5 F125.
N680 X31.038 Y29.962
N685 G03 X31.575 Y30.5 J0.538
N690 X29.425 I-1.075
N695 X31.575 I1.075
N700 X31.038 Y31.038 I-0.538
N705 G01 X30.5 Y30.5
N710 G00 Z15.

N715 G28 G91 Z0.
N720 G90
N725 G49
N730 G5.1 Q0
N735 G28 G91 X0. Y0.
N740 G90
N745 M30
%
