%
O1002 (MV2E2)
(T2 D=6. CR=0. - ZMIN=-11. - FLAT END MILL)
N10 G90 G94 G17 G49 G40 G80
N15 G21
N20 G28 G91 Z0.
N25 G90

(POCKET3 2)
N30 T3 
N32 M06
N35 S6000 M03
N40 G54
N45 G5.1 Q1
N50 G00 X2.532 Y26.152
N55 G43 Z15. H03
N60 G00 Z2.
N65 G01 Z1.65 F50.
N70 X2.521 Y26.135 Z1.498 F200.
N75 X2.491 Y26.087 Z1.356
N80 X2.444 Y26.008 Z1.233
N85 X2.387 Y25.903 Z1.137
N90 X2.325 Y25.778 Z1.075
N95 X2.266 Y25.638 Z1.05
N100 G03 X7.567 Y23.542 Z0.737 I2.65 J-1.048
N105 X2.266 Y25.638 Z0.425 I-2.65 J1.048
N110 X7.567 Y23.542 Z0.112 I2.65 J-1.048
N115 X2.266 Y25.638 Z-0.201 I-2.65 J1.048
N120 X7.567 Y23.542 Z-0.513 I2.65 J-1.048
N125 X2.266 Y25.638 Z-0.826 I-2.65 J1.048
N130 X4.353 Y21.797 Z-1. I2.65 J-1.048
N135 G02 X17.889 Y13.296 I-4.462 J-22.133 F240.
N140 X22.281 Y-0.917 I-17.359 J-13.149
N145 X16.738 Y-14.723 I-22.736 J1.113
N150 X5.859 Y-21.603 I-16.876 J14.644
N155 X-7.005 Y-21.155 I-5.725 J20.547
N160 X-14.441 Y-17.008 I8.548 J24.065
N165 X-19.735 Y-10.34 I12.02 J14.978
N170 X-22.179 Y-0.513 I22.56 J10.828
N175 X-20.203 Y9.419 I21.6 J0.865
N180 X-2.254 Y22.14 I20.047 J-9.263
N185 X4.353 Y21.797 I2.146 J-22.476
N190 X6.046 Y20.049 I-0.424 J-2.105
N195 G03 X7.567 Y18.148 I2.468 J0.416
N200 G02 X11.842 Y15.726 I-7.346 J-17.948
N205 X19.001 Y4.771 I-11.452 J-15.301
N210 X19.456 Y2.383 I-28.744 J-6.712
N215 X19.578 Y-0.046 I-12.471 J-1.847
N220 X19.202 Y-3.773 I-34.401 J1.589
N225 X18.131 Y-7.363 I-13.754 J2.149
N230 X13.944 Y-13.685 I-21.683 J9.812
N235 X7.701 Y-17.987 I-12.627 J11.643
N240 X1.175 Y-19.532 I-8.439 J21.08
N245 X-5.491 Y-18.807 I-1.475 J17.437
N250 X-14.564 Y-12.998 I6.03 J19.407
N255 X-19.303 Y-3.323 I14.608 J13.153
N260 X-15.176 Y12.35 I18.912 J3.4
N265 X-0.667 Y19.573 I15.427 J-12.806
N270 X7.567 Y18.148 I0.888 J-19.372
N275 X8.952 Y15.966 I-0.847 J-2.068
N280 G03 X10.044 Y13.623 I2.757 J-0.141
N285 G02 X11.704 Y12.183 I-9.91 J-13.105
N290 X16.656 Y2.588 I-12.344 J-12.446
N295 X14.842 Y-8.056 I-16.336 J-2.693
N300 X10.738 Y-12.998 I-14.751 J8.077
N305 X5.111 Y-16.097 I-11.228 J13.729
N310 X-16.137 Y-4.972 I-5.26 J15.806
N315 X-15.784 Y5.828 I16.744 J4.858
N320 X-9.04 Y14.272 I15.853 J-5.747
N325 X1.699 Y16.873 I9.129 J-14.222
N330 X10.044 Y13.623 I-1.565 J-16.355
N335 X10.893 Y10.976 I-1.457 J-1.927
N340 G03 X11.372 Y8.238 I2.899 J-0.905
N345 G01 X11.439 Y8.149
N350 X11.498 Y8.065
N355 X11.553 Y7.978
N360 X12.565 Y6.252
N365 X12.639 Y6.112
N370 X12.841 Y5.681
N375 X12.879 Y5.597
N380 X12.911 Y5.51
N385 X13.545 Y3.685
N390 X13.573 Y3.598
N395 X13.596 Y3.509
N400 X13.712 Y3.012
N405 X13.741 Y2.859
N410 X14. Y1.035
N415 X14.01 Y0.945
N420 X14.016 Y0.856
N425 X14.035 Y0.358
N430 X14.034 Y0.21
N435 G02 X13.923 Y-1.823 I-41.997 J1.271
N440 G01 X13.914 Y-1.917
N445 X13.9 Y-2.009
N450 X13.82 Y-2.44
N455 X13.421 Y-4.099
N460 X13.281 Y-4.566
N465 X13.251 Y-4.656
N470 X13.217 Y-4.743
N475 G02 X12.413 Y-6.543 I-49.529 J21.036
N480 G01 X12.342 Y-6.687
N485 X12.115 Y-7.102
N490 X12.065 Y-7.188
N495 X12.01 Y-7.271
N500 X10.896 Y-8.847
N505 X10.8 Y-8.97
N510 X10.519 Y-9.302
N515 X10.428 Y-9.401
N520 G02 X8.757 Y-10.977 I-20.153 J19.689
N525 G01 X8.676 Y-11.043
N530 X8.591 Y-11.105
N535 G02 X6.535 Y-12.434 I-16.869 J23.836
N540 G01 X6.404 Y-12.5
N545 G02 X3.847 Y-13.514 I-10.187 J21.949
N550 G01 X3.756 Y-13.536
N555 X3.664 Y-13.552
N560 X1.835 Y-13.913
N565 X1.694 Y-13.935
N570 X1.195 Y-13.992
N575 X1.096 Y-14.
N580 X0.998 Y-14.003
N585 X-0.998
N590 X-1.095 Y-14.
N595 X-1.192 Y-13.992
N600 X-1.358 Y-13.974
N605 X-1.494 Y-13.953
N610 X-2.627 Y-13.736
N615 G02 X-3.697 Y-13.545 I1.183 J9.769
N620 G01 X-3.845 Y-13.507
N625 G02 X-4.532 Y-13.277 I2.475 J8.571
N630 X-6.192 Y-12.599 I14.942 J38.92
N635 G01 X-6.295 Y-12.551
N640 X-6.526 Y-12.434
N645 X-6.605 Y-12.392
N650 X-6.681 Y-12.345
N655 X-7.929 Y-11.545
N660 X-7.958 Y-11.526
N665 X-8.623 Y-11.08
N670 X-8.716 Y-11.013
N675 X-8.804 Y-10.941
N680 X-8.97 Y-10.794
N685 X-8.995 Y-10.772
N690 X-9.02 Y-10.749
N695 X-10.313 Y-9.521
N700 X-10.415 Y-9.416
N705 G02 X-10.817 Y-8.95 I6.422 J5.949
N710 G01 X-10.893 Y-8.851
N715 X-11.954 Y-7.358
N720 X-12.041 Y-7.222
N725 X-12.233 Y-6.891
N730 X-12.297 Y-6.77
N735 G02 X-13.166 Y-4.871 I37.178 J18.164
N740 G01 X-13.222 Y-4.73
N745 G02 X-13.421 Y-4.099 I6.919 J2.524
N750 G01 X-13.819 Y-2.44
N755 X-13.9 Y-2.009
N760 X-13.916 Y-1.902
N765 X-13.925 Y-1.795
N770 X-14.033 Y0.196
N775 X-14.035 Y0.358
N780 X-14.016 Y0.856
N785 X-14.01 Y0.947
N790 X-13.999 Y1.037
N795 X-13.725 Y2.945
N800 X-13.711 Y3.029
N805 X-13.693 Y3.112
N810 X-13.592 Y3.526
N815 X-13.545 Y3.685
N820 X-12.911 Y5.51
N825 X-12.881 Y5.591
N830 X-12.847 Y5.67
N835 G02 X-12.439 Y6.474 I7.365 J-3.226
N840 X-11.531 Y8.015 I25.35 J-13.91
N845 G01 X-11.439 Y8.149
N850 G02 X-10.965 Y8.74 I8.278 J-6.147
N855 G01 X-10.058 Y9.786
N860 X-9.975 Y9.875
N865 X-9.628 Y10.222
N870 X-9.555 Y10.292
N875 X-9.477 Y10.358
N880 X-7.975 Y11.549
N885 X-7.86 Y11.633
N890 X-7.527 Y11.856
N895 X-7.402 Y11.932
N900 X-7.165 Y12.063
N905 X-7.142 Y12.076
N910 X-7.118 Y12.088
N915 X-5.538 Y12.9
N920 X-5.458 Y12.939
N925 X-5.375 Y12.973
N930 X-4.959 Y13.136
N935 X-4.814 Y13.185
N940 X-3.152 Y13.672
N945 X-3.125 Y13.679
N950 X-3.098 Y13.686
N955 X-2.849 Y13.751
N960 X-2.747 Y13.774
N965 X-2.645 Y13.791
N970 G02 X-0.08 Y14.046 I3.809 J-25.239
N975 G01 X0.08 Y14.044
N980 G02 X2.645 Y13.789 I-1.034 J-23.445
N985 G01 X2.771 Y13.768
N990 X2.895 Y13.738
N995 X4.808 Y13.187
N1000 X4.959 Y13.136
N1005 X5.375 Y12.973
N1010 X5.458 Y12.939
N1015 X5.539 Y12.9
N1020 X7.237 Y12.027
N1025 X7.377 Y11.946
N1030 G02 X8.071 Y11.476 I-3.61 J-6.071
N1035 G01 X9.401 Y10.421
N1040 X9.618 Y10.233
N1045 X9.718 Y10.138
N1050 X10.058 Y9.786
N1055 G02 X11.373 Y8.239 I-22.654 J-20.588
N1060 G01 X11.418 Y8.191
N1065 X11.472 Y8.154
N1070 X11.533 Y8.13
N1075 X11.598 Y8.12
N1080 X11.663 Y8.124
N1085 X11.726 Y8.142
N1090 X11.784 Y8.174
N1095 X18.371 Y12.831
N1100 G03 X18.441 Y13.252 I-0.173 J0.245
N1105 X12.37 Y18.988 I-18.023 J-12.995
N1110 X8.342 Y21.105 I-14.612 J-22.9
N1115 X3.963 Y22.341 I-7.098 J-16.776
N1120 G02 X2.022 Y22.671 I7.827 J51.857
N1125 X0.1 Y23.102 I5.519 J29.115
N1130 G01 X0.036 Y23.113
N1135 X-0.029 Y23.114
N1140 X-0.093 Y23.103
N1145 G02 X-4.627 Y22.148 I-14.762 J58.826
N1150 G03 X-9.061 Y20.804 I3.136 J-18.333
N1155 X-22.647 Y0.653 I9.336 J-20.95
N1160 X-1.743 Y-22.669 I22.581 J-0.789
N1165 X22.508 Y-2.85 I1.688 J22.681
N1170 X20.606 Y9.539 I-22.609 J2.868
N1175 X18.441 Y13.252 I-20.188 J-9.282
N1180 G02 X18.31 Y15.613 I1.779 J1.283
N1185 G03 X17.973 Y17.954 I-1.687 J0.952
N1190 X16.349 Y19.398 I-16.911 J-17.388
N1195 X9.338 Y23.464 I-16.401 J-20.204
N1200 X1.504 Y25.543 I-13.359 J-34.527
N1205 G02 X1.133 Y25.621 I0.492 J3.262
N1210 G01 X0.766 Y25.719
N1215 G03 X-0.738 Y25.725 I-0.764 J-2.924
N1220 G02 X-5.502 Y24.701 I-16.66 J65.916
N1225 G03 X-10.161 Y23.272 I3.512 J-19.765
N1230 X-20.602 Y14.832 I10.602 J-23.792
N1235 X-25.293 Y2.252 I20.091 J-14.657
N1240 X-4.048 Y-25.022 I25.396 J-2.129
N1245 X24.71 Y-5.836 I4.122 J24.968
N1250 X24.156 Y7.983 I-25.181 J5.909
N1255 X17.973 Y17.954 I-23.094 J-7.417
N1260 G02 X17.457 Y20.26 I1.506 J1.548
N1265 G03 X16.785 Y22.525 I-1.836 J0.688
N1270 G01 X16.469 Y22.754
N1275 G03 X5.547 Y27.543 I-16.8 J-23.467
N1280 X3.375 Y27.925 I-7.203 J-34.626
N1285 G02 X1.221 Y28.396 I2.157 J15.008
N1290 G03 X-1.215 Y28.394 I-1.214 J-4.092
N1295 G02 X-4.502 Y27.657 I-6.884 J23.027
N1300 G03 X-7.801 Y26.973 I4.641 J-30.66
N1305 X-17.443 Y22.11 I6.689 J-25.253
N1310 X-24.43 Y13.877 I17.711 J-22.114
N1315 X-27.862 Y2.998 I24.252 J-13.63
N1320 X-26.789 Y-8.358 I29.561 J-2.938
N1325 X-23.533 Y-15.249 I23.797 J7.033
N1330 X-18.574 Y-21.036 I28.048 J19.012
N1335 X-9.252 Y-26.589 I17.528 J18.826
N1340 X1.499 Y-28.055 I9.204 J27.345
N1345 X24.432 Y13.875 I-1.507 J28.06
N1350 X16.785 Y22.525 I-23.979 J-13.494
N1355 G02 X15.93 Y24.856 I1.337 J1.812
N1360 G03 X14.888 Y27.11 I-1.957 J0.463
N1365 G01 X14.176 Y27.473
N1370 X12.424 Y28.346
N1375 X11.681 Y28.637
N1380 X9.279 Y29.524
N1385 X8.308 Y29.784
N1390 X6.128 Y30.336
N1395 X5.381 Y30.458
N1400 X2.316 Y30.921
N1405 X2.197 Y30.943
N1410 X2.08 Y30.973
N1415 X1.83 Y31.047
N1420 X1.722 Y31.083
N1425 X1.617 Y31.126
N1430 X1.437 Y31.206
N1435 X1.362 Y31.242
N1440 X1.288 Y31.281
N1445 X1.166 Y31.35
N1450 X1.088 Y31.397
N1455 X1.013 Y31.447
N1460 X0.831 Y31.577
N1465 X0.737 Y31.649
N1470 X0.648 Y31.727
N1475 X0.466 Y31.897
N1480 G02 X0.289 Y32.089 I1.197 J1.276
N1485 G01 X0.115 Y32.31
N1490 X0.054 Y32.393
N1495 X-0.003 Y32.479
N1500 X-0.06 Y32.387
N1505 G02 X-0.222 Y32.17 I-1.48 J0.934
N1510 G01 X-0.405 Y31.96
N1515 G02 X-0.587 Y31.78 I-1.318 J1.151
N1520 G01 X-0.77 Y31.625
N1525 X-0.845 Y31.564
N1530 X-0.923 Y31.508
N1535 X-1.045 Y31.425
N1540 X-1.126 Y31.374
N1545 X-1.21 Y31.326
N1550 X-1.421 Y31.215
N1555 G02 X-1.654 Y31.112 I-0.817 J1.547
N1560 G01 X-1.91 Y31.022
N1565 X-1.995 Y30.994
N1570 X-2.081 Y30.971
N1575 X-2.413 Y30.89
N1580 X-2.576 Y30.859
N1585 X-5.669 Y30.412
N1590 X-6.127 Y30.336
N1595 X-8.531 Y29.728
N1600 X-9.353 Y29.5
N1605 X-11.991 Y28.517
N1610 X-12.422 Y28.347
N1615 X-14.83 Y27.144
N1620 X-15.411 Y26.837
N1625 X-17.7 Y25.368
N1630 X-18.153 Y25.067
N1635 X-20.121 Y23.487
N1640 X-20.729 Y22.982
N1645 X-22.747 Y20.964
N1650 X-23.09 Y20.605
N1655 X-24.901 Y18.357
N1660 X-25.127 Y18.069
N1665 X-26.501 Y15.941
N1670 X-26.918 Y15.275
N1675 X-28.163 Y12.79
N1680 X-28.402 Y12.294
N1685 X-29.389 Y9.649
N1690 X-29.561 Y9.158
N1695 X-30.317 Y6.188
N1700 X-30.371 Y5.946
N1705 X-30.743 Y3.368
N1710 X-30.83 Y2.716
N1715 X-30.94 Y-0.426
N1720 X-30.944 Y-0.582
N1725 X-30.731 Y-3.558
N1730 X-30.705 Y-3.881
N1735 X-30.534 Y-4.838
N1740 X-30.121 Y-7.104
N1745 X-29.523 Y-9.166
N1750 X-29.167 Y-10.349
N1755 X-27.903 Y-13.389
N1760 X-26.34 Y-16.246
N1765 X-24.705 Y-18.61
N1770 X-24.406 Y-19.029
N1775 X-22.276 Y-21.484
N1780 X-19.827 Y-23.764
N1785 X-17.217 Y-25.716
N1790 X-17.048 Y-25.822
N1795 X-14.311 Y-27.441
N1800 X-11.331 Y-28.8
N1805 X-8.142 Y-29.857
N1810 X-4.964 Y-30.548
N1815 X-1.652 Y-30.905
N1820 X1.652
N1825 X4.963 Y-30.548
N1830 X8.194 Y-29.844
N1835 X11.33 Y-28.8
N1840 X14.311 Y-27.441
N1845 X17.152 Y-25.759
N1850 X19.265 Y-24.185
N1855 X19.826 Y-23.765
N1860 X22.276 Y-21.484
N1865 X24.403 Y-19.033
N1870 X25.164 Y-17.951
N1875 X26.34 Y-16.247
N1880 X27.903 Y-13.389
N1885 X29.166 Y-10.351
N1890 X29.716 Y-8.506
N1895 X30.121 Y-7.105
N1900 X30.698 Y-3.924
N1905 X30.707 Y-3.851
N1910 X30.922 Y-0.912
N1915 X30.944 Y-0.588
N1920 X30.897 Y0.895
N1925 X30.831 Y2.71
N1930 X30.649 Y4.027
N1935 X30.361 Y6.006
N1940 X29.896 Y7.855
N1945 X29.541 Y9.226
N1950 X29.149 Y10.301
N1955 X28.405 Y12.288
N1960 X27.836 Y13.448
N1965 X26.918 Y15.274
N1970 X26.501 Y15.941
N1975 X25.13 Y18.065
N1980 X24.241 Y19.183
N1985 X23.061 Y20.641
N1990 X22.1 Y21.616
N1995 X20.686 Y23.018
N2000 X19.847 Y23.707
N2005 X18.156 Y25.065
N2010 X17.337 Y25.604
N2015 X15.341 Y26.878
N2020 X14.888 Y27.11
N2025 G03 X14.472 Y26.953 I-0.136 J-0.267
N2030 G01 X12.097 Y20.96
N2035 X12.068 Y20.904
N2040 X12.028 Y20.856
N2045 X7.832 Y16.757
N2050 G03 X7.769 Y16.418 I0.21 J-0.215
N2055 X12.955 Y18.783 Z-1.313 I2.593 J1.182 F200.
N2060 X7.769 Y16.418 Z-1.625 I-2.593 J-1.182
N2065 X12.955 Y18.783 Z-1.938 I2.593 J1.182
N2070 X11.778 Y20.074 Z-2. I-2.593 J-1.182
N2075 X10.896 Y20.553 I-11.084 J-19.362 F240.
N2080 X1.813 Y23.38 I-12.628 J-24.561
N2085 G02 X0.215 Y23.667 I2.134 J16.483
N2090 G03 X-0.198 Y23.669 I-0.21 J-0.922
N2095 G02 X-5.222 Y22.661 I-29.84 J135.691
N2100 G03 X-10.076 Y21.019 I3.135 J-17.268
N2105 X-19.137 Y13.183 I11.45 J-22.396
N2110 X-23.245 Y1.929 I18.492 J-13.126
N2115 X-3.751 Y-23.019 I23.246 J-1.927
N2120 X20.059 Y-11.771 I3.72 J22.951
N2125 X18.234 Y14.499 I-20.244 J11.792
N2130 X11.778 Y20.074 I-17.54 J-13.788
N2135 G02 X10.958 Y21.676 I0.819 J1.43
N2140 G03 X10.041 Y23.224 I-1.501 J0.157
N2145 X5.579 Y24.57 I-8.664 J-20.654
N2150 G02 X0.669 Y25.592 I28.569 J149.573
N2155 G03 X-0.638 Y25.597 I-0.664 J-2.949
N2160 G02 X-5.898 Y24.523 I-44.371 J203.875
N2165 G03 X-10.976 Y22.78 I3.555 J-18.629
N2170 X-20.781 Y14.284 I12.352 J-24.161
N2175 X-25.218 Y2.093 I20.122 J-14.227
N2180 X25.088 Y-3.304 I25.218 J-2.09
N2185 X22.133 Y12.347 I-25.268 J3.334
N2190 X10.368 Y23.084 I-21.728 J-11.994
N2195 G01 X10.041 Y23.224
N2200 G02 X8.732 Y25.164 I0.825 J1.968
N2205 G03 X7.314 Y27.026 I-1.964 J-0.025
N2210 X1.755 Y28.127 I-9.166 J-31.7
N2215 G02 X1.501 Y28.17 I0.235 J2.14
N2220 G01 X1.23 Y28.233
N2225 G03 X-1.179 Y28.242 I-1.224 J-5.244
N2230 G02 X-6.788 Y27.059 I-45.031 J199.603
N2235 G03 X-12.205 Y25.184 I3.975 J-20.247
N2240 X-23.026 Y15.788 I13.585 J-26.572
N2245 X-27.912 Y2.316 I22.349 J-15.729
N2250 X14.236 Y-24.072 I27.888 J-2.311
N2255 X28.024 Y-0.798 I-14.228 J24.15
N2260 X15.589 Y23.227 I-27.749 J0.867
N2265 X8.964 Y26.501 I-16.326 J-24.687
N2270 X7.314 Y27.026 I-10.816 J-31.175
N2275 G02 X5.686 Y28.856 I0.638 J2.207
N2280 G03 X3.948 Y30.582 I-2.068 J-0.344
N2285 G01 X3.391 Y30.671
N2290 X2.768 Y30.763
N2295 X2.053 Y30.842
N2300 X1.941 Y30.858
N2305 X1.83 Y30.881
N2310 X1.581 Y30.942
N2315 X1.465 Y30.975
N2320 X1.351 Y31.015
N2325 X1.101 Y31.114
N2330 X1.005 Y31.156
N2335 X0.912 Y31.203
N2340 X0.709 Y31.313
N2345 X0.622 Y31.363
N2350 X0.539 Y31.418
N2355 X0.383 Y31.527
N2360 X0.3 Y31.589
N2365 X0.221 Y31.656
N2370 X0.047 Y31.811
N2375 X0.022 Y31.834
N2380 X-0.003 Y31.857
N2385 X-0.062 Y31.798
N2390 X-0.143 Y31.72
N2395 X-0.229 Y31.648
N2400 X-0.384 Y31.526
N2405 X-0.468 Y31.464
N2410 X-0.555 Y31.408
N2415 X-0.752 Y31.288
N2420 X-0.85 Y31.232
N2425 X-0.95 Y31.184
N2430 X-1.2 Y31.073
N2435 X-1.308 Y31.029
N2440 X-1.419 Y30.992
N2445 X-1.669 Y30.919
N2450 X-1.766 Y30.893
N2455 X-1.865 Y30.873
N2460 X-2.031 Y30.844
N2465 X-2.147 Y30.829
N2470 X-2.769 Y30.764
N2475 X-4.715 Y30.463
N2480 X-6.379 Y30.195
N2485 X-7.202 Y29.987
N2490 X-9.605 Y29.328
N2495 X-10.349 Y29.051
N2500 X-12.671 Y28.139
N2505 X-13.503 Y27.722
N2510 X-15.569 Y26.646
N2515 X-16.665 Y25.936
N2520 X-18.294 Y24.855
N2525 X-19.177 Y24.142
N2530 X-20.844 Y22.759
N2535 X-21.697 Y21.902
N2540 X-23.188 Y20.364
N2545 X-23.666 Y19.772
N2550 X-25.214 Y17.794
N2555 X-25.967 Y16.61
N2560 X-26.955 Y15.029
N2565 X-27.41 Y14.118
N2570 X-28.411 Y12.049
N2575 X-29.048 Y10.311
N2580 X-29.524 Y8.988
N2585 X-29.977 Y7.172
N2590 X-30.316 Y5.771
N2595 X-30.646 Y3.374
N2600 X-30.756 Y2.552
N2605 X-30.809 Y0.903
N2610 X-30.853 Y-0.744
N2615 X-30.689 Y-2.889
N2620 X-30.596 Y-4.045
N2625 X-30.535 Y-4.381
N2630 X-29.996 Y-7.258
N2635 X-29.057 Y-10.399
N2640 X-27.983 Y-12.963
N2645 X-27.773 Y-13.457
N2650 X-26.184 Y-16.335
N2655 X-24.288 Y-19.039
N2660 X-22.154 Y-21.485
N2665 X-19.746 Y-23.716
N2670 X-17.249 Y-25.58
N2675 X-17.076 Y-25.707
N2680 X-14.224 Y-27.387
N2685 X-11.278 Y-28.726
N2690 X-8.101 Y-29.778
N2695 X-4.957 Y-30.46
N2700 X-1.652 Y-30.818
N2705 X1.652
N2710 X4.957 Y-30.46
N2715 X8.101 Y-29.778
N2720 X11.278 Y-28.726
N2725 X14.224 Y-27.387
N2730 X17.071 Y-25.71
N2735 X19.69 Y-23.762
N2740 X19.784 Y-23.681
N2745 X22.154 Y-21.485
N2750 X24.288 Y-19.039
N2755 X26.184 Y-16.335
N2760 X27.772 Y-13.46
N2765 X29.051 Y-10.416
N2770 X29.996 Y-7.259
N2775 X30.59 Y-4.072
N2780 X30.601 Y-3.999
N2785 X30.842 Y-0.907
N2790 X30.853 Y-0.751
N2795 X30.769 Y2.223
N2800 X30.757 Y2.544
N2805 X30.331 Y5.672
N2810 X30.305 Y5.828
N2815 X29.567 Y8.822
N2820 X29.526 Y8.982
N2825 X28.57 Y11.625
N2830 X28.382 Y12.117
N2835 X27.083 Y14.776
N2840 X26.957 Y15.025
N2845 X25.462 Y17.41
N2850 X25.175 Y17.849
N2855 X23.574 Y19.886
N2860 X23.141 Y20.419
N2865 X21.322 Y22.284
N2870 X20.848 Y22.756
N2875 X19.165 Y24.152
N2880 X18.295 Y24.854
N2885 X16.005 Y26.368
N2890 X15.575 Y26.643
N2895 X13.103 Y27.924
N2900 X12.599 Y28.171
N2905 X10.015 Y29.176
N2910 X9.53 Y29.352
N2915 X7.203 Y29.986
N2920 X6.381 Y30.195
N2925 X3.948 Y30.582
N2930 G03 X3.601 Y30.262 I-0.047 J-0.296
N2935 G01 X4.293 Y21.529
N2940 G03 X4.531 Y21.259 I0.299 J0.024
N2945 G02 X10.056 Y19.279 I-4.274 J-20.618
N2950 X19.379 Y9.651 I-9.991 J-19.004
N2955 X21.23 Y-3.953 I-19.825 J-9.625
N2960 X14.598 Y-15.976 I-21.306 J3.912
N2965 X-3.092 Y-21.407 I-14.519 J15.765
N2970 X-18.531 Y-11.205 I3.246 J21.694
N2975 X-21.431 Y-3.533 I18.494 J11.375
N2980 X-21.145 Y4.663 I19.73 J3.416
N2985 X-14.673 Y15.735 I21.934 J-5.392
N2990 X-3.175 Y21.416 I15.092 J-16.071
N2995 X4.531 Y21.259 I3.432 J-20.775
N3000 X5.922 Y19.776 I-0.359 J-1.729
N3005 G03 X7.175 Y18.175 I2.011 J0.283
N3010 G02 X15.062 Y12.641 I-7.894 J-19.638
N3015 X19.442 Y-3.04 I-13.755 J-12.293
N3020 X16.616 Y-10.349 I-21.02 J3.927
N3025 X11.298 Y-16.105 I-17.417 J10.756
N3030 X3.164 Y-19.539 I-11.306 J15.429
N3035 X-5.639 Y-18.852 I-3.024 J17.982
N3040 X-13.021 Y-14.688 I7.072 J21.164
N3045 X-18.031 Y-7.853 I11.857 J13.947
N3050 X-19.637 Y-0.562 I18.981 J8.003
N3055 X-18.447 Y6.808 I19.287 J0.666
N3060 X-11.144 Y16.328 I19.064 J-7.062
N3065 X0.378 Y19.673 I10.575 J-14.91
N3070 X7.175 Y18.175 I-1.097 J-21.137
N3075 X8.574 Y16.039 I-0.832 J-2.071
N3080 G03 X9.731 Y13.764 I2.664 J-0.077
N3085 G02 X12.941 Y10.97 I-10.451 J-15.248
N3090 X16.787 Y-2.544 I-11.649 J-10.62
N3095 X14.33 Y-8.911 I-18.367 J3.431
N3100 X9.702 Y-13.927 I-15.133 J9.32
N3105 X2.747 Y-16.871 I-9.712 J13.253
N3110 X-4.783 Y-16.291 I-2.607 J15.316
N3115 X-11.186 Y-12.707 I6.229 J18.641
N3120 X-15.543 Y-6.804 I10.047 J11.976
N3125 X-16.938 Y-0.502 I16.496 J6.955
N3130 X-15.915 Y5.87 I16.59 J0.606
N3135 X-9.66 Y14.073 I16.542 J-6.128
N3140 X0.238 Y16.977 I9.09 J-12.664
N3145 X9.731 Y13.764 I-0.958 J-18.461
N3150 X10.634 Y11.273 I-1.285 J-1.875
N3155 G03 X11.14 Y8.672 I2.835 J-0.798
N3160 G01 X11.534 Y8.164
N3165 X11.592 Y8.084
N3170 X11.646 Y8.001
N3175 X12.309 Y6.908
N3180 X12.389 Y6.779
N3185 X12.46 Y6.654
N3190 X12.591 Y6.396
N3195 X12.608 Y6.364
N3200 X12.93 Y5.7
N3205 X12.969 Y5.615
N3210 X13.003 Y5.527
N3215 X13.538 Y4.034
N3220 X13.567 Y3.948
N3225 X13.591 Y3.861
N3230 X13.835 Y2.865
N3235 X13.855 Y2.778
N3240 X13.869 Y2.689
N3245 X14.077 Y1.196
N3250 X14.087 Y1.107
N3255 X14.093 Y1.018
N3260 G02 X14.115 Y-0.379 I-18.272 J-0.993
N3265 G01 X14.111 Y-0.491
N3270 G02 X14.009 Y-1.857 I-31.806 J1.708
N3275 G01 X13.986 Y-2.021
N3280 G02 X13.705 Y-3.403 I-22.307 J3.822
N3285 G01 X13.676 Y-3.515
N3290 G02 X13.336 Y-4.675 I-18.348 J4.747
N3295 G01 X13.289 Y-4.808
N3300 X13.243 Y-4.924
N3305 X12.753 Y-6.048
N3310 X12.643 Y-6.299
N3315 X12.571 Y-6.445
N3320 X12.091 Y-7.312
N3325 X12.043 Y-7.394
N3330 X11.99 Y-7.473
N3335 X11.074 Y-8.773
N3340 X11.019 Y-8.847
N3345 X10.96 Y-8.918
N3350 X10.295 Y-9.676
N3355 X10.181 Y-9.795
N3360 X9.516 Y-10.423
N3365 X9.499 Y-10.439
N3370 X9.068 Y-10.836
N3375 X8.951 Y-10.934
N3380 G02 X8.018 Y-11.628 I-15.034 J19.253
N3385 G01 X7.911 Y-11.701
N3390 G02 X6.529 Y-12.531 I-13.256 J20.472
N3395 G01 X6.454 Y-12.573
N3400 X6.377 Y-12.61
N3405 G02 X4.993 Y-13.211 I-9.908 J20.912
N3410 G01 X4.878 Y-13.254
N3415 X3.88 Y-13.588
N3420 X3.783 Y-13.617
N3425 X3.685 Y-13.64
N3430 X2.189 Y-13.955
N3435 X2.103 Y-13.971
N3440 X2.016 Y-13.982
N3445 X0.935 Y-14.098
N3450 X0.842 Y-14.106
N3455 X0.748 Y-14.108
N3460 X-0.748
N3465 X-0.845 Y-14.106
N3470 X-0.941 Y-14.098
N3475 X-1.19 Y-14.07
N3480 X-1.326 Y-14.05
N3485 X-1.704 Y-13.977
N3490 X-2.524 Y-13.885
N3495 X-2.613 Y-13.873
N3500 X-2.702 Y-13.856
N3505 X-3.699 Y-13.637
N3510 X-3.79 Y-13.615
N3515 X-3.88 Y-13.588
N3520 X-4.878 Y-13.254
N3525 X-4.993 Y-13.211
N3530 G02 X-6.437 Y-12.58 I8.166 J20.649
N3535 G01 X-6.537 Y-12.531
N3540 X-6.633 Y-12.475
N3545 X-7.226 Y-12.106
N3550 X-7.873 Y-11.723
N3555 X-7.947 Y-11.677
N3560 X-8.019 Y-11.627
N3565 G02 X-8.967 Y-10.922 I10.428 J15.013
N3570 G01 X-9.078 Y-10.826
N3575 X-10.174 Y-9.801
N3580 X-10.236 Y-9.74
N3585 X-10.295 Y-9.676
N3590 X-10.96 Y-8.918
N3595 X-11.017 Y-8.849
N3600 X-11.071 Y-8.777
N3605 X-11.906 Y-7.6
N3610 X-11.97 Y-7.504
N3615 G02 X-12.527 Y-6.529 I11.156 J7.02
N3620 G01 X-12.583 Y-6.419
N3625 G02 X-13.251 Y-4.904 I21.103 J10.223
N3630 G01 X-13.302 Y-4.77
N3635 G02 X-13.677 Y-3.512 I18.475 J6.193
N3640 G01 X-13.705 Y-3.403
N3645 G02 X-13.998 Y-1.935 I19.896 J4.734
N3650 G01 X-14.014 Y-1.826
N3655 X-14.023 Y-1.716
N3660 X-14.051 Y-1.201
N3665 X-14.122 Y-0.255
N3670 X-14.126 Y-0.163
N3675 Y-0.07
N3680 X-14.093 Y1.008
N3685 X-14.088 Y1.102
N3690 X-14.077 Y1.196
N3695 X-13.869 Y2.689
N3700 X-13.855 Y2.778
N3705 X-13.835 Y2.865
N3710 X-13.591 Y3.861
N3715 X-13.543 Y4.021
N3720 X-13.253 Y4.85
N3725 X-13.242 Y4.88
N3730 X-12.996 Y5.544
N3735 X-12.965 Y5.623
N3740 X-12.93 Y5.7
N3745 G02 X-11.633 Y8.017 I14.471 J-6.577
N3750 G01 X-11.585 Y8.092
N3755 X-11.534 Y8.164
N3760 G02 X-9.7 Y10.277 I13.566 J-9.922
N3765 G01 X-9.629 Y10.345
N3770 X-9.555 Y10.409
N3775 X-8.339 Y11.401
N3780 X-8.272 Y11.454
N3785 X-8.202 Y11.503
N3790 X-7.364 Y12.059
N3795 X-7.284 Y12.11
N3800 X-7.201 Y12.155
N3805 X-5.794 Y12.885
N3810 X-5.711 Y12.926
N3815 X-5.626 Y12.961
N3820 X-4.712 Y13.319
N3825 X-4.576 Y13.366
N3830 G02 X-3.041 Y13.799 I10.452 J-34.164
N3835 G01 X-2.952 Y13.821
N3840 X-2.862 Y13.838
N3845 G02 X-0.091 Y14.13 I3.059 J-15.745
N3850 G01 X0. Y14.133
N3855 X0.091 Y14.131
N3860 G02 X2.863 Y13.839 I-0.325 J-16.401
N3865 G01 X2.958 Y13.82
N3870 X3.051 Y13.796
N3875 X4.548 Y13.374
N3880 X4.631 Y13.349
N3885 X4.712 Y13.319
N3890 X5.626 Y12.961
N3895 X5.711 Y12.926
N3900 X5.794 Y12.885
N3905 X7.201 Y12.155
N3910 X7.282 Y12.111
N3915 X7.36 Y12.062
N3920 G02 X9.567 Y10.397 I-9.071 J-14.32
N3925 G01 X9.635 Y10.339
N3930 X9.7 Y10.277
N3935 G02 X11.142 Y8.673 I-10.871 J-11.226
N3940 G01 X11.186 Y8.626
N3945 X11.24 Y8.59
N3950 X11.301 Y8.567
N3955 X11.365 Y8.557
N3960 X11.43 Y8.561
N3965 X11.493 Y8.579
N3970 X11.55 Y8.61
N3975 X15.916 Y11.678
N3980 X15.972 Y11.709
N3985 X16.033 Y11.728
N3990 X21.123 Y12.695
N3995 G03 X21.367 Y12.99 I-0.056 J0.295
N4000 X15.667 Y12.971 Z-2.313 I-2.85 J-0.01 F200.
N4005 X21.367 Y12.99 Z-2.625 I2.85 J0.01
N4010 X15.667 Y12.971 Z-2.938 I-2.85 J-0.01
N4015 X16.208 Y11.31 Z-3. I2.85 J0.01
N4020 G02 X18.114 Y8.129 I-17.369 J-12.568 F240.
N4025 X19.722 Y-2.226 I-16.013 J-7.79
N4030 X15.846 Y-11.962 I-22.333 J3.251
N4035 X2.786 Y-19.658 I-15.03 J10.576
N4040 X-12.391 Y-15.513 I-2.326 J21.341
N4045 X-18.531 Y-7.121 I10.581 J14.184
N4050 X-19.59 Y3.224 I21.422 J7.42
N4055 X-11.303 Y16.317 I18.235 J-2.372
N4060 X3.869 Y19.473 I11.696 J-18.183
N4065 X6.65 Y18.707 I-2.172 J-13.332
N4070 X16.208 Y11.31 I-7.811 J-19.966
N4075 X16.239 Y8.787 I-1.773 J-1.283
N4080 G03 X15.954 Y6.28 I2.214 J-1.521
N4085 G01 X16.122 Y5.834
N4090 G02 X16.69 Y-3.495 I-15.605 J-5.632
N4095 X12.436 Y-11.818 I-18.574 J4.246
N4100 X0.665 Y-17.143 I-11.76 J10.322
N4105 X-12.098 Y-12.164 J18.848
N4110 X-16.592 Y-4.337 I10.21 J11.067
N4115 X-16.503 Y4.688 I19.6 J4.318
N4120 X-12.494 Y11.768 I14.388 J-3.471
N4125 X-5.667 Y16.193 I14.211 J-14.446
N4130 X7.273 Y15.537 I5.742 J-14.677
N4135 X12.613 Y11.52 I-9.299 J-17.918
N4140 X15.954 Y6.28 I-11.809 J-11.214
N4145 X15.305 Y3.622 I-2.205 J-0.87
N4150 G03 X14.268 Y1.09 I1.999 J-2.296
N4155 G01 X14.273 Y0.996
N4160 X14.304 Y-0.331
N4165 Y-0.424
N4170 X14.299 Y-0.517
N4175 X14.189 Y-1.844
N4180 X14.179 Y-1.937
N4185 X14.163 Y-2.03
N4190 X13.909 Y-3.357
N4195 X13.889 Y-3.446
N4200 X13.864 Y-3.535
N4205 X13.487 Y-4.779
N4210 X13.457 Y-4.867
N4215 X13.424 Y-4.954
N4220 X12.896 Y-6.198
N4225 X12.858 Y-6.283
N4230 X12.814 Y-6.365
N4235 X12.169 Y-7.526
N4240 X12.122 Y-7.606
N4245 X12.071 Y-7.683
N4250 X11.307 Y-8.768
N4255 X11.251 Y-8.843
N4260 X11.191 Y-8.915
N4265 X10.294 Y-9.938
N4270 X10.231 Y-10.006
N4275 X10.165 Y-10.07
N4280 X9.212 Y-10.949
N4285 X9.144 Y-11.008
N4290 X9.072 Y-11.065
N4295 X8.03 Y-11.842
N4300 X7.955 Y-11.895
N4305 X7.878 Y-11.944
N4310 X6.753 Y-12.613
N4315 X6.637 Y-12.676
N4320 G02 X5.312 Y-13.286 I-9.493 J18.888
N4325 G01 X5.228 Y-13.321
N4330 X5.143 Y-13.352
N4335 X3.878 Y-13.773
N4340 X3.788 Y-13.8
N4345 X3.697 Y-13.822
N4350 X2.367 Y-14.111
N4355 X2.274 Y-14.129
N4360 X2.181 Y-14.141
N4365 X0.851 Y-14.283
N4370 X0.758 Y-14.29
N4375 X0.665 Y-14.293
N4380 X-0.665
N4385 X-0.758 Y-14.29
N4390 X-0.851 Y-14.283
N4395 X-2.181 Y-14.141
N4400 X-2.274 Y-14.129
N4405 X-2.367 Y-14.111
N4410 X-3.697 Y-13.822
N4415 X-3.788 Y-13.8
N4420 X-3.878 Y-13.773
N4425 X-5.143 Y-13.352
N4430 X-5.229 Y-13.321
N4435 X-5.313 Y-13.286
N4440 X-6.478 Y-12.758
N4445 X-6.556 Y-12.72
N4450 X-6.632 Y-12.679
N4455 X-7.195 Y-12.353
N4460 X-7.218 Y-12.339
N4465 X-7.883 Y-11.941
N4470 X-7.958 Y-11.893
N4475 X-8.03 Y-11.842
N4480 X-9.072 Y-11.065
N4485 X-9.144 Y-11.008
N4490 X-9.212 Y-10.949
N4495 X-10.165 Y-10.07
N4500 X-10.231 Y-10.006
N4505 X-10.294 Y-9.938
N4510 X-11.191 Y-8.915
N4515 X-11.251 Y-8.843
N4520 X-11.307 Y-8.768
N4525 X-12.071 Y-7.683
N4530 X-12.122 Y-7.606
N4535 X-12.169 Y-7.526
N4540 X-12.814 Y-6.365
N4545 X-12.858 Y-6.283
N4550 X-12.896 Y-6.198
N4555 X-13.424 Y-4.954
N4560 X-13.457 Y-4.867
N4565 X-13.487 Y-4.779
N4570 X-13.864 Y-3.535
N4575 X-13.888 Y-3.452
N4580 X-13.906 Y-3.367
N4585 X-14.021 Y-2.792
N4590 X-14.024 Y-2.774
N4595 X-14.165 Y-2.021
N4600 X-14.179 Y-1.933
N4605 X-14.189 Y-1.844
N4610 X-14.299 Y-0.517
N4615 X-14.304 Y-0.424
N4620 Y-0.331
N4625 X-14.273 Y0.996
N4630 X-14.269 Y1.088
N4635 X-14.259 Y1.18
N4640 X-14.086 Y2.508
N4645 X-14.072 Y2.6
N4650 X-14.052 Y2.692
N4655 X-13.732 Y4.019
N4660 X-13.708 Y4.109
N4665 X-13.679 Y4.198
N4670 G02 X-13.179 Y5.572 I25.212 J-8.382
N4675 G01 X-13.121 Y5.706
N4680 X-12.545 Y6.88
N4685 X-12.504 Y6.96
N4690 X-12.458 Y7.038
N4695 X-11.793 Y8.102
N4700 X-11.743 Y8.178
N4705 X-11.689 Y8.251
N4710 X-10.848 Y9.33
N4715 X-10.787 Y9.404
N4720 X-10.722 Y9.474
N4725 X-9.76 Y10.462
N4730 X-9.694 Y10.527
N4735 X-9.625 Y10.587
N4740 G02 X-8.535 Y11.485 I19.618 J-22.716
N4745 G01 X-8.416 Y11.571
N4750 X-7.368 Y12.265
N4755 X-7.289 Y12.315
N4760 X-7.208 Y12.36
N4765 X-5.96 Y13.007
N4770 X-5.877 Y13.048
N4775 X-5.792 Y13.084
N4780 X-4.628 Y13.539
N4785 X-4.543 Y13.57
N4790 X-4.457 Y13.596
N4795 X-3.162 Y13.954
N4800 X-3.07 Y13.977
N4805 X-2.976 Y13.995
N4810 X-1.612 Y14.217
N4815 X-1.518 Y14.23
N4820 X-1.423 Y14.237
N4825 X-0.093 Y14.308
N4830 X0. Y14.311
N4835 X0.093 Y14.308
N4840 X1.423 Y14.237
N4845 X1.518 Y14.23
N4850 X1.612 Y14.217
N4855 X2.976 Y13.995
N4860 X3.07 Y13.977
N4865 X3.162 Y13.954
N4870 X4.457 Y13.596
N4875 X4.543 Y13.57
N4880 X4.628 Y13.539
N4885 X5.792 Y13.084
N4890 X5.877 Y13.048
N4895 X5.96 Y13.007
N4900 X7.208 Y12.36
N4905 X7.289 Y12.315
N4910 X7.368 Y12.265
N4915 X8.416 Y11.571
N4920 X8.49 Y11.519
N4925 X8.561 Y11.464
N4930 G02 X9.617 Y10.594 I-15.707 J-20.144
N4935 G01 X9.745 Y10.478
N4940 X9.828 Y10.398
N4945 X10.725 Y9.471
N4950 X10.789 Y9.402
N4955 X10.848 Y9.33
N4960 X11.689 Y8.251
N4965 X11.743 Y8.178
N4970 X11.793 Y8.102
N4975 X12.458 Y7.038
N4980 X12.504 Y6.96
N4985 X12.545 Y6.88
N4990 X13.121 Y5.706
N4995 X13.157 Y5.626
N5000 X13.19 Y5.545
N5005 X13.436 Y4.881
N5010 X13.444 Y4.858
N5015 X13.68 Y4.194
N5020 X13.708 Y4.108
N5025 X13.732 Y4.019
N5030 X14.052 Y2.692
N5035 X14.072 Y2.6
N5040 X14.086 Y2.508
N5045 G02 X14.269 Y1.09 I-24.777 J-3.905
N5050 G03 X14.516 Y0.818 I0.299 J0.023
N5055 G01 X24.769 Y-0.979
N5060 G03 X25.12 Y-0.692 I0.052 J0.295
N5065 X7.877 Y23.859 I-25.101 J0.7
N5070 X4.131 Y24.77 I-7.556 J-22.913
N5075 X0.319 Y25.346 I-35.732 J-223.439
N5080 X-0.259 Y25.354 I-0.319 J-2.24
N5085 X-7.604 Y23.796 I4.579 J-39.679
N5090 X-14.383 Y20.568 I7.965 J-25.463
N5095 X-23.33 Y9.442 I13.01 J-19.621
N5100 X-24.633 Y-4.776 I24.281 J-9.394
N5105 X-3.242 Y-24.939 I24.564 J4.632
N5110 X22.612 Y-10.951 I3.196 J24.979
N5115 X25.12 Y-0.692 I-22.593 J10.959
N5120 G02 X26.453 Y1.249 I2.167 J-0.06
N5125 G03 X27.641 Y3.281 I-0.752 J1.802
N5130 X8.724 Y26.427 I-27.622 J-3.272
N5135 X4.761 Y27.404 I-8.33 J-25.26
N5140 X0.725 Y28.015 I-23.195 J-139.374
N5145 X-0.593 Y28.033 I-0.73 J-5.335
N5150 X-8.546 Y26.34 I4.427 J-40.309
N5155 X-15.875 Y22.819 I9.046 J-28.217
N5160 X-25.817 Y10.492 I14.499 J-21.866
N5165 X-27.286 Y-5.276 I26.761 J-10.445
N5170 X25.045 Y-12.131 I27.288 J5.145
N5175 X27.641 Y3.281 I-25.026 J12.139
N5180 G02 X28.713 Y5.483 I2.25 J0.267
N5185 G03 X29.65 Y7.747 I-1.078 J1.771
N5190 G01 X29.386 Y8.826
N5195 X28.252 Y11.968
N5200 X26.839 Y14.873
N5205 X25.123 Y17.615
N5210 X23.107 Y20.187
N5215 X20.841 Y22.518
N5220 X18.278 Y24.645
N5225 X15.572 Y26.439
N5230 X12.646 Y27.955
N5235 X9.618 Y29.137
N5240 X6.448 Y29.997
N5245 X3.416 Y30.486
N5250 X2.81 Y30.557
N5255 X1.532 Y30.674
N5260 X1.228 Y30.692
N5265 X1.081 Y30.707
N5270 X0.665 Y30.767
N5275 X0.548 Y30.788
N5280 X0.132 Y30.877
N5285 X0. Y30.911
N5290 X-0.016 Y30.907
N5295 G02 X-0.763 Y30.75 I-2.151 J8.409
N5300 G01 X-0.923 Y30.729
N5305 X-2.811 Y30.557
N5310 X-3.415 Y30.486
N5315 X-6.528 Y29.98
N5320 X-9.662 Y29.122
N5325 X-12.71 Y27.926
N5330 X-15.571 Y26.44
N5335 X-18.278 Y24.645
N5340 X-20.841 Y22.518
N5345 X-23.107 Y20.187
N5350 X-25.123 Y17.615
N5355 X-26.839 Y14.873
N5360 X-28.252 Y11.968
N5365 X-29.386 Y8.826
N5370 X-30.152 Y5.689
N5375 X-30.583 Y2.473
N5380 X-30.673 Y-0.824
N5385 X-30.512 Y-2.831
N5390 X-30.404 Y-4.118
N5395 X-29.813 Y-7.256
N5400 X-28.869 Y-10.395
N5405 X-27.574 Y-13.457
N5410 X-26.031 Y-16.242
N5415 X-24.125 Y-18.96
N5420 X-22.015 Y-21.371
N5425 X-21.716 Y-21.654
N5430 X-19.578 Y-23.627
N5435 X-16.945 Y-25.58
N5440 X-14.156 Y-27.223
N5445 X-11.176 Y-28.576
N5450 X-8.102 Y-29.594
N5455 X-4.875 Y-30.293
N5460 X-1.652 Y-30.639
N5465 X1.651
N5470 X4.956 Y-30.279
N5475 X8.101 Y-29.594
N5480 X11.176 Y-28.576
N5485 X14.156 Y-27.223
N5490 X16.945 Y-25.58
N5495 X19.578 Y-23.627
N5500 X21.975 Y-21.415
N5505 X21.992 Y-21.398
N5510 X24.159 Y-18.914
N5515 X26.03 Y-16.243
N5520 X27.613 Y-13.376
N5525 X28.869 Y-10.396
N5530 X29.812 Y-7.257
N5535 X30.416 Y-4.039
N5540 X30.673 Y-0.824
N5545 X30.583 Y2.473
N5550 X30.152 Y5.689
N5555 X29.65 Y7.747
N5560 G03 X29.228 Y7.946 I-0.291 J-0.071
N5565 G01 X24.245 Y5.558
N5570 X24.234 Y5.552
N5575 X24.223 Y5.546
N5580 X24.175 Y5.523
N5585 X24.123 Y5.509
N5590 X24.07 Y5.504
N5595 X19.29 Y5.528
N5600 G03 X19.02 Y5.362 I-0.002 J-0.3
N5605 X24.127 Y2.83 Z-3.313 I2.553 J-1.266 F200.
N5610 X19.02 Y5.362 Z-3.625 I-2.553 J1.266
N5615 X24.127 Y2.83 Z-3.938 I2.553 J-1.266
N5620 X24.386 Y4.557 Z-4. I-2.553 J1.266
N5625 X24.26 Y5.266 I-27.873 J-4.576 F240.
N5630 X19.904 Y14.84 I-21.843 J-4.16
N5635 X14.484 Y20.121 I-22.503 J-17.674
N5640 X7.769 Y23.61 I-14.126 J-18.982
N5645 X-15.886 Y-19.118 I-7.785 J-23.602
N5650 X-2.117 Y-24.778 I15.949 J19.219
N5655 X12.405 Y-21.499 I2.133 J24.343
N5660 X20.096 Y-14.66 I-13.45 J22.87
N5665 X24.27 Y-5.252 I-17.894 J13.569
N5670 X24.386 Y4.557 I-27.757 J5.234
N5675 G02 X25.325 Y6.706 I2.129 J0.349
N5680 G03 X26.094 Y8.922 I-1.065 J1.611
N5685 X22.027 Y16.508 I-23.654 J-7.798
N5690 X16.036 Y22.333 I-24.647 J-19.358
N5695 X8.616 Y26.178 I-15.66 J-21.14
N5700 X-26.764 Y-6.573 I-8.63 J-26.164
N5705 X-1.499 Y-27.519 I26.761 J6.569
N5710 X9.099 Y-26.049 I1.508 J28.064
N5715 X18.291 Y-20.572 I-8.377 J24.508
N5720 X23.801 Y-13.857 I-21.391 J23.171
N5725 X26.923 Y-5.752 I-20.543 J12.567
N5730 X26.883 Y5.907 I-30.365 J5.725
N5735 X26.094 Y8.922 I-24.443 J-4.783
N5740 G02 X26.691 Y11.276 I2.149 J0.708
N5745 G03 X27.128 Y13.665 I-1.407 J1.492
N5750 G01 X26.623 Y14.705
N5755 X24.902 Y17.463
N5760 X22.869 Y20.051
N5765 X20.665 Y22.314
N5770 X20.044 Y22.835
N5775 X18.139 Y24.415
N5780 X15.406 Y26.223
N5785 X12.578 Y27.692
N5790 X9.51 Y28.888
N5795 X6.408 Y29.732
N5800 X3.414 Y30.214
N5805 X2.84 Y30.284
N5810 X-0.007 Y30.438
N5815 G03 X-3.413 Y30.221 I1.31 J-47.378
N5820 G01 X-6.457 Y29.721
N5825 X-9.591 Y28.862
N5830 X-12.577 Y27.693
N5835 X-15.406 Y26.223
N5840 X-18.139 Y24.415
N5845 X-20.606 Y22.37
N5850 X-20.7 Y22.279
N5855 X-22.914 Y19.999
N5860 X-24.901 Y17.463
N5865 X-26.623 Y14.705
N5870 X-28.024 Y11.822
N5875 X-29.129 Y8.745
N5880 X-29.893 Y5.608
N5885 X-30.32 Y2.392
N5890 X-30.404 Y-0.823
N5895 X-30.146 Y-4.038
N5900 X-29.872 Y-5.492
N5905 X-29.536 Y-7.254
N5910 X-28.613 Y-10.316
N5915 X-27.355 Y-13.297
N5920 X-25.8 Y-16.105
N5925 X-23.924 Y-18.781
N5930 X-21.759 Y-21.249
N5935 X-19.435 Y-23.394
N5940 X-16.822 Y-25.339
N5945 X-13.991 Y-27.005
N5950 X-11.084 Y-28.324
N5955 X-7.995 Y-29.346
N5960 X-4.875 Y-30.022
N5965 X-1.652 Y-30.369
N5970 X1.652
N5975 X4.875 Y-30.022
N5980 X7.995 Y-29.346
N5985 X11.084 Y-28.324
N5990 X13.991 Y-27.005
N5995 X16.822 Y-25.339
N6000 X19.435 Y-23.394
N6005 X21.759 Y-21.249
N6010 X23.924 Y-18.781
N6015 X25.8 Y-16.105
N6020 X27.355 Y-13.297
N6025 X28.612 Y-10.317
N6030 X29.555 Y-7.174
N6035 X30.146 Y-4.038
N6040 X30.404 Y-0.824
N6045 X30.313 Y2.472
N6050 X29.883 Y5.659
N6055 X29.105 Y8.825
N6060 X28.024 Y11.821
N6065 X27.128 Y13.665
N6070 G03 X26.746 Y13.812 I-0.27 J-0.131
N6075 G01 X17.805 Y10.222
N6080 G03 X17.652 Y9.803 I0.112 J-0.278
N6085 G02 X18.712 Y7.403 I-16.352 J-8.652
N6090 X18.371 Y-8.217 I-20.517 J-7.367
N6095 X6.954 Y-18.883 I-17.304 J7.079
N6100 X0.851 Y-20.081 I-7.761 J23.392
N6105 X-5.332 Y-19.406 I-1.194 J17.714
N6110 X-18.785 Y-6.9 I5.765 J19.691
N6115 X-16.626 Y11.341 I18.789 J7.024
N6120 X-10.232 Y17.404 I16.854 J-11.368
N6125 X-1.825 Y20.043 I9.683 J-16.136
N6130 X10.562 Y17.166 I1.478 J-21.74
N6135 X17.652 Y9.803 I-9.262 J-16.015
N6140 X17.375 Y7.204 I-2.067 J-1.094
N6145 G03 X16.833 Y4.647 I2.124 J-1.786
N6150 G02 X16.642 Y-5.272 I-16.069 J-4.652
N6155 X8.626 Y-15.129 I-17.006 J5.641
N6160 X-0.48 Y-17.414 I-8.53 J14.705
N6165 X-9.449 Y-14.641 I0.605 J17.852
N6170 X-15.645 Y7.645 I9.257 J14.578
N6175 X-4.125 Y16.924 I15.826 J-7.859
N6180 X7.504 Y15.683 I4.14 J-16.309
N6185 X15.763 Y7.403 I-8.141 J-16.379
N6190 X16.833 Y4.647 I-14.999 J-7.408
N6195 X15.913 Y2.002 I-2.326 J-0.673
N6200 G03 X14.572 Y-0.456 I1.863 J-2.612
N6205 G01 X14.568 Y-0.514
N6210 X14.461 Y-1.841
N6215 X14.451 Y-1.932
N6220 X14.436 Y-2.022
N6225 X14.187 Y-3.349
N6230 X14.168 Y-3.441
N6235 X14.143 Y-3.531
N6240 X13.744 Y-4.858
N6245 X13.715 Y-4.947
N6250 X13.681 Y-5.034
N6255 X13.153 Y-6.285
N6260 X13.114 Y-6.37
N6265 X13.071 Y-6.453
N6270 X12.396 Y-7.669
N6275 X12.349 Y-7.75
N6280 X12.298 Y-7.827
N6285 X11.524 Y-8.927
N6290 X11.47 Y-9.
N6295 X11.411 Y-9.071
N6300 X10.531 Y-10.079
N6305 X10.469 Y-10.146
N6310 X10.404 Y-10.21
N6315 G02 X9.299 Y-11.227 I-18.047 J18.501
N6320 G01 X9.191 Y-11.314
N6325 X8.178 Y-12.067
N6330 X8.106 Y-12.117
N6335 X8.032 Y-12.164
N6340 X7.216 Y-12.652
N6345 X7.196 Y-12.664
N6350 X6.781 Y-12.905
N6355 X6.703 Y-12.947
N6360 X6.624 Y-12.985
N6365 X5.377 Y-13.549
N6370 X5.293 Y-13.585
N6375 X5.207 Y-13.616
N6380 X3.975 Y-14.024
N6385 X3.817 Y-14.069
N6390 X3.386 Y-14.168
N6395 X3.353 Y-14.175
N6400 X2.356 Y-14.385
N6405 X2.267 Y-14.402
N6410 X2.178 Y-14.413
N6415 X0.847 Y-14.553
N6420 X0.756 Y-14.56
N6425 X0.665 Y-14.562
N6430 X-0.665
N6435 X-0.756 Y-14.56
N6440 X-0.847 Y-14.553
N6445 X-2.178 Y-14.413
N6450 X-2.268 Y-14.401
N6455 X-2.358 Y-14.385
N6460 X-3.643 Y-14.112
N6465 X-3.772 Y-14.08
N6470 G02 X-5.208 Y-13.615 I6.062 J21.181
N6475 G01 X-5.293 Y-13.585
N6480 X-5.377 Y-13.549
N6485 X-6.624 Y-12.985
N6490 X-6.707 Y-12.945
N6495 X-6.787 Y-12.901
N6500 G02 X-8.073 Y-12.139 I10.958 J19.962
N6505 G01 X-8.178 Y-12.067
N6510 X-9.191 Y-11.314
N6515 X-9.261 Y-11.26
N6520 X-9.327 Y-11.202
N6525 X-10.159 Y-10.442
N6530 X-10.183 Y-10.42
N6535 X-10.417 Y-10.198
N6540 X-10.531 Y-10.079
N6545 X-11.411 Y-9.071
N6550 X-11.47 Y-9.
N6555 X-11.524 Y-8.927
N6560 X-12.298 Y-7.827
N6565 X-12.349 Y-7.75
N6570 X-12.396 Y-7.669
N6575 X-13.071 Y-6.453
N6580 X-13.114 Y-6.37
N6585 X-13.153 Y-6.285
N6590 X-13.681 Y-5.034
N6595 X-13.713 Y-4.95
N6600 X-13.742 Y-4.864
N6605 X-13.978 Y-4.091
N6610 X-13.983 Y-4.075
N6615 X-14.146 Y-3.521
N6620 X-14.169 Y-3.436
N6625 X-14.187 Y-3.349
N6630 X-14.436 Y-2.022
N6635 X-14.451 Y-1.932
N6640 X-14.461 Y-1.841
N6645 X-14.568 Y-0.514
N6650 X-14.573 Y-0.42
N6655 Y-0.327
N6660 X-14.537 Y1.083
N6665 X-14.532 Y1.177
N6670 X-14.522 Y1.27
N6675 X-14.344 Y2.597
N6680 X-14.329 Y2.689
N6685 X-14.31 Y2.78
N6690 X-13.982 Y4.124
N6695 X-13.958 Y4.213
N6700 X-13.929 Y4.3
N6705 X-13.488 Y5.527
N6710 X-13.457 Y5.608
N6715 X-13.421 Y5.688
N6720 X-13.106 Y6.351
N6725 X-13.093 Y6.378
N6730 X-12.763 Y7.041
N6735 X-12.723 Y7.117
N6740 X-12.68 Y7.191
N6745 G02 X-11.913 Y8.403 I19.264 J-11.343
N6750 G01 X-11.836 Y8.508
N6755 X-11.018 Y9.545
N6760 X-10.96 Y9.614
N6765 X-10.899 Y9.681
N6770 X-10.005 Y10.601
N6775 X-9.898 Y10.702
N6780 G02 X-8.762 Y11.65 I19.567 J-22.285
N6785 G01 X-8.691 Y11.706
N6790 X-8.617 Y11.758
N6795 X-7.496 Y12.503
N6800 X-7.418 Y12.551
N6805 X-7.339 Y12.595
N6810 G02 X-6.03 Y13.272 I15.964 J-29.262
N6815 G01 X-5.892 Y13.333
N6820 X-4.718 Y13.792
N6825 X-4.635 Y13.822
N6830 X-4.55 Y13.848
N6835 G02 X-3.091 Y14.246 I9.615 J-32.392
N6840 G01 X-2.933 Y14.278
N6845 X-1.603 Y14.489
N6850 X-1.513 Y14.5
N6855 X-1.421 Y14.508
N6860 X-0.091 Y14.577
N6865 X0. Y14.579
N6870 X0.091 Y14.577
N6875 X1.421 Y14.508
N6880 X1.513 Y14.5
N6885 X1.603 Y14.489
N6890 X2.933 Y14.278
N6895 X3.023 Y14.262
N6900 X3.112 Y14.24
N6905 G02 X4.582 Y13.839 I-6.471 J-26.583
N6910 G01 X4.718 Y13.792
N6915 X5.892 Y13.333
N6920 X5.974 Y13.299
N6925 X6.054 Y13.26
N6930 X7.118 Y12.714
N6935 X7.148 Y12.698
N6940 X7.357 Y12.586
N6945 X7.496 Y12.503
N6950 X8.617 Y11.758
N6955 X8.691 Y11.706
N6960 X8.763 Y11.65
N6965 G02 X9.813 Y10.78 I-15.731 J-20.068
N6970 G01 X10.005 Y10.601
N6975 X10.899 Y9.681
N6980 X10.96 Y9.614
N6985 X11.018 Y9.545
N6990 X11.836 Y8.508
N6995 X11.887 Y8.44
N7000 X11.934 Y8.37
N7005 X12.254 Y7.872
N7010 X12.265 Y7.854
N7015 X12.68 Y7.191
N7020 X12.724 Y7.115
N7025 X12.765 Y7.038
N7030 X13.208 Y6.141
N7035 X13.223 Y6.11
N7040 X13.425 Y5.68
N7045 X13.488 Y5.527
N7050 X13.929 Y4.3
N7055 X13.958 Y4.213
N7060 X13.982 Y4.124
N7065 X14.31 Y2.78
N7070 X14.329 Y2.689
N7075 X14.344 Y2.597
N7080 X14.522 Y1.27
N7085 X14.532 Y1.177
N7090 X14.537 Y1.083
N7095 X14.573 Y-0.327
N7100 X14.572 Y-0.456
N7105 G03 X14.817 Y-0.766 I0.3 J-0.014
N7110 G01 X20.255 Y-1.76
N7115 X20.318 Y-1.779
N7120 X20.375 Y-1.81
N7125 X24.889 Y-5.023
N7130 G03 X25.284 Y-4.981 I0.174 J0.244
N7135 X21.079 Y-1.133 Z-4.313 I-2.103 J1.924 F200.
N7140 X25.284 Y-4.981 Z-4.625 I2.103 J-1.924
N7145 X21.079 Y-1.133 Z-4.938 I-2.103 J1.924
N7150 X20.351 Y-2.722 Z-5. I2.103 J-1.924
N7155 G02 X18.169 Y-9.484 I-18.29 J2.17 F240.
N7160 X12.093 Y-16.382 I-18.772 J10.41
N7165 X3.712 Y-20.16 I-13.077 J17.828
N7170 X-9.988 Y-17.897 I-3.999 J18.397
N7175 X-19.106 Y-7.424 I11.614 J19.316
N7180 X-19.53 Y6.39 I17.466 J7.449
N7185 X-11.018 Y17.278 I20.59 J-7.325
N7190 X-0.58 Y20.447 I10.513 J-15.854
N7195 X10.023 Y17.881 I0.09 J-22.815
N7200 X18.099 Y9.621 I-8.517 J-16.407
N7205 X20.469 Y0.077 I-21.291 J-10.352
N7210 X20.351 Y-2.722 I-18.408 J-0.629
N7215 X18.616 Y-4.7 I-2.307 J0.274
N7220 G03 X16.655 Y-6.454 I0.698 J-2.754
N7225 G02 X14.175 Y-10.751 I-14.219 J5.343
N7230 X8.402 Y-15.692 I-16.829 J13.818
N7235 X3.031 Y-17.595 I-7.581 J12.863
N7240 X-2.666 Y-17.602 I-2.87 J19.171
N7245 X-17.497 Y-3.212 I2.58 J17.496
N7250 X-16.506 Y6.352 I17.065 J3.066
N7255 X-10.839 Y14.119 I18.291 J-7.394
N7260 X-4.93 Y17.105 I9.429 J-11.323
N7265 X1.662 Y17.723 I5.374 J-21.85
N7270 X2.147 Y17.67 I-0.249 J-4.593
N7275 X10.835 Y14.124 I-3.32 J-20.547
N7280 X16.511 Y6.65 I-8.979 J-12.711
N7285 X17.375 Y-3.858 I-19.221 J-6.869
N7290 X16.655 Y-6.454 I-14.939 J2.747
N7295 X14.329 Y-8.045 I-2.297 J0.863
N7300 G03 X11.769 Y-9.224 I-0.039 J-3.281
N7305 G02 X10.807 Y-10.334 I-24.481 J20.247
N7310 G01 X10.747 Y-10.4
N7315 X10.683 Y-10.462
N7320 X9.671 Y-11.403
N7325 X9.554 Y-11.503
N7330 G02 X8.364 Y-12.395 I-20.387 J25.949
N7335 G01 X8.289 Y-12.448
N7340 X8.211 Y-12.497
N7345 X6.955 Y-13.237
N7350 X6.874 Y-13.282
N7355 X6.791 Y-13.322
N7360 G02 X5.447 Y-13.927 I-13.426 J28.063
N7365 G01 X5.31 Y-13.978
N7370 X4.04 Y-14.397
N7375 X3.953 Y-14.423
N7380 X3.866 Y-14.445
N7385 X2.536 Y-14.736
N7390 X2.371 Y-14.764
N7395 X1.872 Y-14.824
N7400 X1.84 Y-14.827
N7405 X0.843 Y-14.929
N7410 X0.754 Y-14.936
N7415 X0.665 Y-14.938
N7420 X-0.665
N7425 X-0.755 Y-14.936
N7430 X-0.845 Y-14.929
N7435 G02 X-2.251 Y-14.782 I2.268 J28.519
N7440 G01 X-2.417 Y-14.757
N7445 X-2.536 Y-14.736
N7450 X-3.866 Y-14.445
N7455 X-3.953 Y-14.423
N7460 X-4.04 Y-14.397
N7465 X-5.31 Y-13.978
N7470 X-5.394 Y-13.948
N7475 X-5.477 Y-13.913
N7480 X-6.644 Y-13.39
N7485 X-6.665 Y-13.381
N7490 X-6.803 Y-13.317
N7495 X-6.88 Y-13.279
N7500 X-6.955 Y-13.237
N7505 X-8.211 Y-12.497
N7510 X-8.289 Y-12.448
N7515 X-8.364 Y-12.395
N7520 G02 X-9.571 Y-11.489 I13.072 J18.678
N7525 G01 X-9.671 Y-11.403
N7530 X-10.683 Y-10.462
N7535 X-10.747 Y-10.399
N7540 X-10.808 Y-10.334
N7545 G02 X-11.785 Y-9.205 I15.559 J14.464
N7550 G01 X-11.859 Y-9.107
N7555 X-12.626 Y-8.012
N7560 X-12.676 Y-7.936
N7565 X-12.722 Y-7.858
N7570 X-13.386 Y-6.662
N7575 X-13.429 Y-6.582
N7580 X-13.467 Y-6.499
N7585 X-14.001 Y-5.246
N7590 X-14.044 Y-5.135
N7595 G02 X-14.488 Y-3.697 I18.178 J6.406
N7600 G01 X-14.518 Y-3.584
N7605 G02 X-14.817 Y-2.009 I20.434 J4.694
N7610 G01 X-14.83 Y-1.924
N7615 X-14.839 Y-1.838
N7620 X-14.944 Y-0.511
N7625 X-14.949 Y-0.421
N7630 Y-0.331
N7635 G02 X-14.914 Y1.078 I26.776 J0.031
N7640 G01 X-14.902 Y1.244
N7645 X-14.89 Y1.359
N7650 X-14.703 Y2.722
N7655 X-14.688 Y2.811
N7660 X-14.669 Y2.899
N7665 X-14.354 Y4.19
N7670 X-14.33 Y4.278
N7675 X-14.302 Y4.364
N7680 X-13.827 Y5.691
N7685 X-13.793 Y5.78
N7690 X-13.753 Y5.867
N7695 X-13.108 Y7.194
N7700 X-13.065 Y7.278
N7705 X-13.017 Y7.359
N7710 X-12.288 Y8.52
N7715 X-12.238 Y8.596
N7720 X-12.184 Y8.669
N7725 X-11.339 Y9.748
N7730 X-11.28 Y9.818
N7735 X-11.218 Y9.886
N7740 X-10.236 Y10.9
N7745 X-10.169 Y10.966
N7750 X-10.098 Y11.028
N7755 X-9.016 Y11.929
N7760 X-8.943 Y11.986
N7765 X-8.868 Y12.039
N7770 X-7.956 Y12.649
N7775 X-7.928 Y12.668
N7780 X-7.604 Y12.875
N7785 X-7.465 Y12.956
N7790 X-6.293 Y13.564
N7795 X-6.211 Y13.604
N7800 X-6.127 Y13.64
N7805 X-4.797 Y14.163
N7810 X-4.709 Y14.194
N7815 X-4.62 Y14.222
N7820 X-3.291 Y14.586
N7825 X-3.201 Y14.608
N7830 X-3.11 Y14.626
N7835 X-1.695 Y14.857
N7840 X-1.601 Y14.869
N7845 X-1.507 Y14.877
N7850 X-0.094 Y14.953
N7855 X0. Y14.955
N7860 X0.094 Y14.953
N7865 X1.507 Y14.877
N7870 X1.601 Y14.869
N7875 X1.695 Y14.857
N7880 X3.11 Y14.626
N7885 X3.201 Y14.608
N7890 X3.291 Y14.586
N7895 X4.62 Y14.222
N7900 X4.709 Y14.194
N7905 X4.797 Y14.163
N7910 X6.127 Y13.64
N7915 X6.211 Y13.604
N7920 X6.293 Y13.564
N7925 X7.465 Y12.956
N7930 X7.544 Y12.912
N7935 X7.62 Y12.865
N7940 X8.775 Y12.106
N7945 X8.877 Y12.034
N7950 X9.041 Y11.908
N7955 X9.071 Y11.885
N7960 X9.099 Y11.861
N7965 X10.1 Y11.026
N7970 X10.169 Y10.965
N7975 X10.236 Y10.9
N7980 X11.218 Y9.886
N7985 X11.28 Y9.818
N7990 X11.339 Y9.748
N7995 X12.184 Y8.669
N8000 X12.238 Y8.596
N8005 X12.288 Y8.52
N8010 X13.017 Y7.359
N8015 X13.065 Y7.278
N8020 X13.108 Y7.194
N8025 X13.753 Y5.867
N8030 X13.793 Y5.78
N8035 X13.827 Y5.691
N8040 X14.302 Y4.364
N8045 X14.33 Y4.278
N8050 X14.354 Y4.19
N8055 X14.669 Y2.899
N8060 X14.688 Y2.811
N8065 X14.703 Y2.722
N8070 X14.89 Y1.359
N8075 X14.902 Y1.244
N8080 X14.914 Y1.078
N8085 G02 X14.949 Y-0.331 I-26.188 J-1.366
N8090 G01 Y-0.421
N8095 X14.944 Y-0.511
N8100 X14.839 Y-1.838
N8105 X14.83 Y-1.927
N8110 X14.816 Y-2.016
N8115 G02 X14.556 Y-3.418 I-28.223 J4.497
N8120 G01 X14.518 Y-3.584
N8125 X14.488 Y-3.699
N8130 X14.105 Y-4.963
N8135 X14.077 Y-5.049
N8140 X14.045 Y-5.132
N8145 X13.532 Y-6.356
N8150 X13.479 Y-6.471
N8155 G02 X12.721 Y-7.859 I-19.024 J9.488
N8160 G01 X12.676 Y-7.937
N8165 X12.626 Y-8.012
N8170 X11.859 Y-9.107
N8175 X11.769 Y-9.224
N8180 G03 X11.814 Y-9.652 I0.23 J-0.192
N8185 G01 X18.771 Y-15.133
N8190 G03 X19.19 Y-15.086 I0.186 J0.236
N8195 X21.131 Y-12.349 I-20.403 J16.523
N8200 X24.312 Y2.627 I-19.343 J11.935
N8205 X19.75 Y14.297 I-26.29 J-3.55
N8210 X10.107 Y22.297 I-19.436 J-13.614
N8215 X-23.441 Y7.062 I-10.105 J-22.303
N8220 X-24.425 Y-2.281 I24.198 J-7.274
N8225 X-21.702 Y-11.272 I22.23 J1.826
N8230 X-17.008 Y-17.551 I25.378 J14.073
N8235 X-10.582 Y-22.042 I15.301 J15.056
N8240 X-0.516 Y-24.443 I11.21 J24.689
N8245 X9.641 Y-22.468 I0.941 J22.274
N8250 X19.19 Y-15.086 I-10.854 J23.905
N8255 G02 X21.447 Y-14.305 I1.755 J-1.421
N8260 G03 X23.621 Y-13.319 I0.438 J1.924
N8265 X27.121 Y1.316 I-25.69 J13.88
N8270 X21.695 Y16.509 I-25.86 J-0.669
N8275 X8.518 Y25.816 I-21.86 J-16.969
N8280 X-26.72 Y4.998 I-8.525 J-25.802
N8285 X-26.419 Y-6.057 I25.731 J-4.831
N8290 X-21.848 Y-16.126 I29.018 J7.102
N8295 X-7.913 Y-25.974 I20.744 J14.571
N8300 X9.146 Y-25.569 I7.864 J28.199
N8305 X22.578 Y-15.098 I-7.96 J24.061
N8310 X23.621 Y-13.319 I-24.646 J15.658
N8315 G02 X25.842 Y-12.109 I2.041 J-1.103
N8320 G03 X28.001 Y-10.792 I0.167 J2.155
N8325 G01 X28.272 Y-10.147
N8330 X29.17 Y-7.168
N8335 X29.777 Y-3.955
N8340 X30.027 Y-0.823
N8345 X29.944 Y2.39
N8350 X29.51 Y5.606
N8355 X28.764 Y8.659
N8360 X27.657 Y11.719
N8365 X26.286 Y14.538
N8370 X24.577 Y17.273
N8375 X22.584 Y19.806
N8380 X20.368 Y22.08
N8385 X17.91 Y24.116
N8390 X15.227 Y25.893
N8395 X12.401 Y27.36
N8400 X9.413 Y28.526
N8405 X6.363 Y29.357
N8410 X3.221 Y29.865
N8415 X0. Y30.04
N8420 X-3.221 Y29.865
N8425 X-6.362 Y29.358
N8430 X-9.463 Y28.508
N8435 X-12.451 Y27.336
N8440 X-15.226 Y25.894
N8445 X-17.932 Y24.099
N8450 X-20.367 Y22.08
N8455 X-22.626 Y19.757
N8460 X-24.576 Y17.274
N8465 X-26.286 Y14.539
N8470 X-27.691 Y11.638
N8475 X-28.763 Y8.662
N8480 X-29.525 Y5.525
N8485 X-29.944 Y2.392
N8490 X-30.027 Y-0.823
N8495 X-29.777 Y-3.955
N8500 X-29.17 Y-7.166
N8505 X-28.243 Y-10.228
N8510 X-27.02 Y-13.125
N8515 X-25.45 Y-15.956
N8520 X-23.64 Y-18.533
N8525 X-21.496 Y-20.981
N8530 X-19.167 Y-23.129
N8535 X-16.574 Y-25.052
N8540 X-13.877 Y-26.641
N8545 X-10.917 Y-27.984
N8550 X-7.935 Y-28.971
N8555 X-4.792 Y-29.654
N8560 X-1.571 Y-29.997
N8565 X1.651 Y-29.992
N8570 X4.791 Y-29.655
N8575 X7.935 Y-28.971
N8580 X10.917 Y-27.984
N8585 X13.877 Y-26.641
N8590 X16.574 Y-25.052
N8595 X19.167 Y-23.129
N8600 X21.496 Y-20.981
N8605 X23.64 Y-18.533
N8610 X25.45 Y-15.956
N8615 X27.019 Y-13.126
N8620 X28.001 Y-10.792
N8625 G03 X27.829 Y-10.394 I-0.277 J0.116
N8630 G01 X22.624 Y-8.463
N8635 X22.582 Y-8.44
N8640 X22.545 Y-8.411
N8645 X18.663 Y-4.879
N8650 G03 X18.292 Y-4.854 I-0.202 J-0.222
N8655 X21.516 Y-9.555 Z-5.313 I1.612 J-2.35 F200.
N8660 X18.292 Y-4.854 Z-5.625 I-1.612 J2.35
N8665 X21.516 Y-9.555 Z-5.938 I1.612 J-2.35
N8670 X22.584 Y-8.172 Z-6. I-1.612 J2.35
N8675 X23.797 Y-3.219 I-22.57 J8.152 F240.
N8680 X0. Y24.016 I-23.837 J3.186
N8685 X-6.28 Y-23.178 J-24.015
N8690 X22.584 Y-8.172 I6.294 J23.157
N8695 G02 X24.45 Y-6.752 I2.032 J-0.734
N8700 G03 X26.204 Y-5.196 I-0.149 J1.934
N8705 X23.393 Y12.906 I-26.215 J5.199
N8710 X-25.959 Y-6.328 I-23.378 J-12.946
N8715 X9.713 Y-24.89 I25.972 J6.354
N8720 X26.204 Y-5.196 I-9.725 J24.893
N8725 G02 X27.903 Y-3.423 I2.237 J-0.444
N8730 G03 X29.497 Y-1.555 I-0.493 J2.035
N8735 G01 X29.562 Y-0.742
N8740 X29.475 Y2.389
N8745 X29.051 Y5.521
N8750 X28.3 Y8.576
N8755 X27.249 Y11.492
N8760 X25.89 Y14.289
N8765 X24.172 Y17.034
N8770 X22.233 Y19.498
N8775 X20.049 Y21.739
N8780 X17.66 Y23.72
N8785 X14.994 Y25.489
N8790 X12.245 Y26.918
N8795 X9.26 Y28.085
N8800 X6.28 Y28.898
N8805 X3.138 Y29.406
N8810 X0. Y29.574
N8815 X-3.138 Y29.406
N8820 X-6.28 Y28.898
N8825 X-9.26 Y28.085
N8830 X-12.245 Y26.918
N8835 X-14.994 Y25.489
N8840 X-17.66 Y23.72
N8845 X-20.049 Y21.739
N8850 X-22.233 Y19.498
N8855 X-24.216 Y16.973
N8860 X-25.889 Y14.29
N8865 X-27.249 Y11.493
N8870 X-28.324 Y8.497
N8875 X-29.067 Y5.442
N8880 X-29.475 Y2.391
N8885 X-29.56 Y-0.822
N8890 X-29.306 Y-3.954
N8895 X-28.731 Y-7.006
N8900 X-27.807 Y-10.061
N8905 X-26.581 Y-12.959
N8910 X-25.062 Y-15.699
N8915 X-23.243 Y-18.283
N8920 X-21.185 Y-20.635
N8925 X-18.864 Y-22.775
N8930 X-16.31 Y-24.667
N8935 X-13.621 Y-26.249
N8940 X-10.753 Y-27.548
N8945 X-7.738 Y-28.541
N8950 X-4.709 Y-29.195
N8955 X-1.569 Y-29.531
N8960 X1.569
N8965 X4.709 Y-29.195
N8970 X7.794 Y-28.527
N8975 X10.752 Y-27.549
N8980 X13.621 Y-26.249
N8985 X16.378 Y-24.622
N8990 X18.863 Y-22.775
N8995 X21.185 Y-20.635
N9000 X23.243 Y-18.283
N9005 X25.062 Y-15.699
N9010 X26.581 Y-12.959
N9015 X27.807 Y-10.061
N9020 X28.731 Y-7.006
N9025 X29.306 Y-3.956
N9030 X29.497 Y-1.555
N9035 G03 X29.237 Y-1.233 I-0.299 J0.024
N9040 G01 X21.366 Y-0.21
N9045 G03 X21.027 Y-0.497 I-0.039 J-0.297
N9050 G02 X20.126 Y-5.837 I-20.657 J0.739
N9055 X15.521 Y-13.905 I-20.325 J6.254
N9060 X8.011 Y-19.374 I-17.076 J15.558
N9065 X-5.964 Y-20.098 I-7.907 J17.38
N9070 X-15.332 Y-14.295 I7.535 J22.626
N9075 X-20.466 Y-4.545 I13.285 J13.223
N9080 X-17.378 Y11.727 I22.279 J4.2
N9085 X-8.991 Y18.939 I15.741 J-9.822
N9090 X1.899 Y20.878 I9.56 J-22.144
N9095 X12.244 Y17.019 I-1.024 J-18.541
N9100 X19.191 Y8.438 I-14.74 J-19.036
N9105 X21.009 Y1.389 I-16.764 J-8.081
N9110 X21.027 Y-0.497 I-20.639 J-1.147
N9115 X19.46 Y-2.606 I-2.314 J0.083
N9120 G03 X17.676 Y-4.536 I0.889 J-2.611
N9125 G02 X14.502 Y-11.108 I-17.738 J4.515
N9130 X8.445 Y-16.302 I-14.93 J11.282
N9135 X0.708 Y-18.253 I-7.737 J14.365
N9140 X-7.713 Y-16.542 J21.576
N9145 X-14.438 Y-11.191 I6.263 J14.774
N9150 X-17.028 Y-6.431 I16.999 J12.333
N9155 X-18.221 Y-1.146 I17.271 J6.677
N9160 X-16.94 Y6.665 I16.749 J1.263
N9165 X-12.563 Y13.26 I19.771 J-8.37
N9170 X-4.87 Y17.711 I11.735 J-11.408
N9175 X4.018 Y17.821 I4.671 J-18.331
N9180 X17.676 Y-4.536 I-4.08 J-17.843
N9185 X15.597 Y-6.285 I-2.258 J0.575
N9190 G03 X13.313 Y-7.756 I0.219 J-2.849
N9195 G01 X13.172 Y-8.012
N9200 X13.105 Y-8.124
N9205 G02 X12.111 Y-9.545 I-19.001 J12.226
N9210 G01 X12.032 Y-9.642
N9215 X11.151 Y-10.649
N9220 X11.052 Y-10.753
N9225 G02 X9.892 Y-11.828 I-21.271 J21.786
N9230 G01 X9.824 Y-11.887
N9235 X9.753 Y-11.943
N9240 G02 X8.51 Y-12.86 I-14.471 J18.318
N9245 G01 X8.404 Y-12.927
N9250 X7.206 Y-13.632
N9255 X7.125 Y-13.677
N9260 X7.043 Y-13.717
N9265 X5.713 Y-14.322
N9270 X5.628 Y-14.358
N9275 X5.541 Y-14.389
N9280 X4.211 Y-14.832
N9285 X4.124 Y-14.859
N9290 X4.037 Y-14.881
N9295 G02 X2.498 Y-15.217 I-8.059 J33.18
N9300 G01 X2.345 Y-15.24
N9305 X0.892 Y-15.393
N9310 X0.801 Y-15.401
N9315 X0.708 Y-15.403
N9320 X-0.708
N9325 X-0.801 Y-15.401
N9330 X-0.892 Y-15.393
N9335 X-2.345 Y-15.24
N9340 X-2.436 Y-15.228
N9345 X-2.525 Y-15.211
N9350 X-3.356 Y-15.035
N9355 X-3.38 Y-15.03
N9360 X-4.045 Y-14.879
N9365 X-4.129 Y-14.858
N9370 X-4.211 Y-14.832
N9375 X-5.541 Y-14.389
N9380 X-5.628 Y-14.358
N9385 X-5.713 Y-14.322
N9390 X-7.043 Y-13.717
N9395 X-7.125 Y-13.677
N9400 X-7.206 Y-13.632
N9405 X-8.404 Y-12.927
N9410 X-8.479 Y-12.881
N9415 X-8.552 Y-12.83
N9420 X-9.349 Y-12.245
N9425 X-9.361 Y-12.236
N9430 X-9.756 Y-11.941
N9435 X-9.825 Y-11.886
N9440 X-9.892 Y-11.828
N9445 G02 X-11.056 Y-10.75 I18.523 J21.15
N9450 G01 X-11.151 Y-10.649
N9455 X-12.032 Y-9.642
N9460 X-12.131 Y-9.517
N9465 X-12.39 Y-9.16
N9470 X-12.406 Y-9.138
N9475 X-12.995 Y-8.299
N9480 X-13.078 Y-8.169
N9485 X-13.243 Y-7.883
N9490 X-13.261 Y-7.851
N9495 X-13.837 Y-6.803
N9500 X-13.879 Y-6.723
N9505 X-13.916 Y-6.641
N9510 X-14.455 Y-5.367
N9515 X-14.488 Y-5.283
N9520 X-14.516 Y-5.198
N9525 X-14.923 Y-3.871
N9530 X-14.932 Y-3.837
N9535 X-14.942 Y-3.804
N9540 X-14.985 Y-3.638
N9545 X-15.013 Y-3.517
N9550 X-15.263 Y-2.19
N9555 X-15.277 Y-2.102
N9560 X-15.287 Y-2.015
N9565 X-15.378 Y-0.95
N9570 X-15.379 Y-0.932
N9575 X-15.412 Y-0.504
N9580 X-15.416 Y-0.414
N9585 Y-0.324
N9590 X-15.375 Y1.169
N9595 X-15.37 Y1.262
N9600 X-15.36 Y1.354
N9605 X-15.17 Y2.764
N9610 X-15.155 Y2.855
N9615 X-15.135 Y2.945
N9620 X-14.791 Y4.355
N9625 X-14.767 Y4.444
N9630 X-14.739 Y4.532
N9635 X-14.262 Y5.859
N9640 X-14.229 Y5.944
N9645 X-14.192 Y6.028
N9650 X-13.552 Y7.355
N9655 X-13.508 Y7.439
N9660 X-13.46 Y7.521
N9665 X-12.669 Y8.789
N9670 X-12.618 Y8.867
N9675 X-12.562 Y8.942
N9680 X-11.686 Y10.059
N9685 X-11.627 Y10.131
N9690 X-11.564 Y10.199
N9695 X-10.52 Y11.273
N9700 X-10.452 Y11.339
N9705 X-10.382 Y11.401
N9710 X-9.281 Y12.314
N9715 X-9.209 Y12.37
N9720 X-9.134 Y12.423
N9725 X-7.954 Y13.209
N9730 X-7.875 Y13.259
N9735 X-7.794 Y13.304
N9740 X-6.464 Y13.999
N9745 X-6.379 Y14.04
N9750 X-6.292 Y14.077
N9755 X-4.962 Y14.599
N9760 X-4.876 Y14.63
N9765 X-4.789 Y14.657
N9770 G02 X-3.383 Y15.043 I8.331 J-27.558
N9775 G01 X-3.217 Y15.081
N9780 X-3.104 Y15.103
N9785 X-1.774 Y15.317
N9790 X-1.684 Y15.329
N9795 X-1.593 Y15.336
N9800 X-0.096 Y15.419
N9805 X0. Y15.422
N9810 X0.096 Y15.419
N9815 X1.593 Y15.336
N9820 X1.684 Y15.329
N9825 X1.774 Y15.317
N9830 X3.104 Y15.103
N9835 X3.217 Y15.081
N9840 X3.383 Y15.043
N9845 G02 X4.789 Y14.657 I-6.698 J-27.126
N9850 G01 X4.876 Y14.63
N9855 X4.962 Y14.599
N9860 X6.292 Y14.077
N9865 X6.379 Y14.04
N9870 X6.464 Y13.999
N9875 X7.794 Y13.304
N9880 X7.875 Y13.259
N9885 X7.954 Y13.209
N9890 X9.134 Y12.423
N9895 X9.209 Y12.37
N9900 X9.281 Y12.314
N9905 X10.382 Y11.401
N9910 X10.452 Y11.339
N9915 X10.52 Y11.273
N9920 X11.564 Y10.199
N9925 X11.627 Y10.131
N9930 X11.686 Y10.059
N9935 X12.562 Y8.942
N9940 X12.618 Y8.867
N9945 X12.669 Y8.789
N9950 X13.46 Y7.521
N9955 X13.508 Y7.439
N9960 X13.552 Y7.355
N9965 X14.192 Y6.028
N9970 X14.229 Y5.944
N9975 X14.262 Y5.859
N9980 X14.739 Y4.532
N9985 X14.767 Y4.444
N9990 X14.791 Y4.355
N9995 X15.135 Y2.945
N10000 X15.155 Y2.855
N10005 X15.17 Y2.764
N10010 X15.36 Y1.354
N10015 X15.37 Y1.262
N10020 X15.375 Y1.169
N10025 X15.416 Y-0.324
N10030 Y-0.417
N10035 X15.411 Y-0.509
N10040 G02 X15.282 Y-2.067 I-23.317 J1.156
N10045 G01 X15.263 Y-2.19
N10050 X15.013 Y-3.517
N10055 X14.974 Y-3.678
N10060 X14.83 Y-4.176
N10065 X14.822 Y-4.205
N10070 X14.516 Y-5.2
N10075 X14.487 Y-5.284
N10080 X14.455 Y-5.367
N10085 X13.916 Y-6.641
N10090 X13.879 Y-6.724
N10095 X13.837 Y-6.804
N10100 X13.313 Y-7.756
N10105 G03 X13.424 Y-8.16 I0.263 J-0.145
N10110 G01 X18.3 Y-11.014
N10115 X18.351 Y-11.052
N10120 X18.393 Y-11.1
N10125 X21.523 Y-15.529
N10130 G03 X21.884 Y-15.633 I0.245 J0.173
N10135 X19.667 Y-10.381 Z-6.313 I-1.108 J2.626 F200.
N10140 X21.884 Y-15.633 Z-6.625 I1.108 J-2.626
N10145 X19.667 Y-10.381 Z-6.938 I-1.108 J2.626
N10150 X18.344 Y-11.521 Z-7. I1.108 J-2.626
N10155 G02 X11.432 Y-18.313 I-16.985 J10.373 F240.
N10160 X-0.665 Y-21.6 I-12.097 J20.613
N10165 X-15.227 Y-15.361 J20.114
N10170 X-21.597 Y-0.857 I16.843 J16.049
N10175 X-20.129 Y7.919 I19.288 J1.283
N10180 X-15.215 Y15.337 I22.057 J-9.275
N10185 X-4.146 Y21.187 I14.587 J-14.203
N10190 X8.312 Y19.943 I4.009 J-22.851
N10195 X20.087 Y7.93 I-7.467 J-19.097
N10200 X19.695 Y-8.886 I-21.491 J-7.912
N10205 X18.344 Y-11.521 I-18.336 J7.738
N10210 X16.029 Y-12.513 I-1.856 J1.133
N10215 G03 X13.614 Y-13.228 I-0.554 J-2.565
N10220 G02 X9.141 Y-16.546 I-13.222 J13.152
N10225 X2.226 Y-18.807 I-9.958 J18.744
N10230 X-5.028 Y-18.231 I-2.357 J16.275
N10235 X-16.134 Y-9.762 I6.078 J19.486
N10240 X-18.477 Y4.007 I15.043 J9.644
N10245 X-9.441 Y16.274 I18.946 J-4.495
N10250 X5.693 Y18.035 I9.548 J-16.149
N10255 X18.937 Y1.894 I-5.66 J-18.149
N10260 X13.614 Y-13.228 I-18.545 J-1.969
N10265 X10.881 Y-13.716 I-1.715 J1.706
N10270 G03 X8.107 Y-13.852 I-1.257 J-2.709
N10275 G02 X5.653 Y-15.027 I-7.754 J13.053
N10280 G01 X5.538 Y-15.074
N10285 X4.839 Y-15.305
N10290 X4.809 Y-15.314
N10295 X4.178 Y-15.511
N10300 X4.027 Y-15.55
N10305 X2.697 Y-15.838
N10310 X2.609 Y-15.854
N10315 X2.52 Y-15.866
N10320 X1.024 Y-16.032
N10325 X0.857 Y-16.043
N10330 G02 X-0.909 Y-16.044 I-0.921 J37.84
N10335 G01 X-1.024 Y-16.032
N10340 X-2.52 Y-15.866
N10345 X-2.609 Y-15.854
N10350 X-2.697 Y-15.838
N10355 X-4.027 Y-15.55
N10360 X-4.179 Y-15.51
N10365 X-4.844 Y-15.303
N10370 X-4.873 Y-15.294
N10375 X-5.538 Y-15.074
N10380 X-5.655 Y-15.03
N10385 G02 X-8.537 Y-13.599 I5.955 J15.606
N10390 G01 X-8.634 Y-13.538
N10395 G02 X-10.229 Y-12.388 I11.95 J18.265
N10400 G01 X-10.298 Y-12.334
N10405 X-10.364 Y-12.275
N10410 X-11.084 Y-11.612
N10415 X-11.102 Y-11.595
N10420 X-11.514 Y-11.204
N10425 X-11.626 Y-11.087
N10430 X-12.445 Y-10.151
N10435 X-12.534 Y-10.041
N10440 G02 X-13.519 Y-8.677 I26.774 J20.383
N10445 G01 X-13.607 Y-8.539
N10450 X-13.986 Y-7.875
N10455 X-13.997 Y-7.856
N10460 X-14.364 Y-7.192
N10465 X-14.424 Y-7.074
N10470 G02 X-15.016 Y-5.698 I23.209 J10.807
N10475 G01 X-15.067 Y-5.564
N10480 G02 X-15.937 Y-1.968 I15.955 J5.767
N10485 G01 X-15.954 Y-1.839
N10490 X-16.044 Y-0.723
N10495 X-16.045 Y-0.699
N10500 X-16.059 Y-0.489
N10505 X-16.063 Y-0.328
N10510 X-16.029 Y0.999
N10515 X-16.021 Y1.135
N10520 G02 X-15.348 Y4.725 I16.949 J-1.316
N10525 G01 X-15.305 Y4.871
N10530 X-14.822 Y6.199
N10535 X-14.788 Y6.283
N10540 X-14.751 Y6.366
N10545 X-14.105 Y7.693
N10550 X-14.061 Y7.776
N10555 X-14.014 Y7.856
N10560 X-13.182 Y9.183
N10565 X-13.132 Y9.259
N10570 X-13.077 Y9.333
N10575 G02 X-11.96 Y10.719 I17.218 J-12.735
N10580 G01 X-11.884 Y10.802
N10585 X-11.238 Y11.465
N10590 X-11.213 Y11.49
N10595 X-10.873 Y11.826
N10600 X-10.761 Y11.928
N10605 X-10.096 Y12.479
N10610 X-10.067 Y12.502
N10615 X-9.514 Y12.942
N10620 X-9.393 Y13.03
N10625 X-8.393 Y13.693
N10630 X-8.292 Y13.755
N10635 G02 X-6.291 Y14.775 I8.988 J-15.165
N10640 G01 X-5.221 Y15.192
N10645 X-5.105 Y15.233
N10650 X-4.844 Y15.314
N10655 X-4.811 Y15.324
N10660 X-4.778 Y15.333
N10665 X-3.448 Y15.691
N10670 X-3.361 Y15.713
N10675 X-3.272 Y15.729
N10680 X-1.887 Y15.953
N10685 X-1.8 Y15.965
N10690 X-1.713 Y15.972
N10695 X-0.438 Y16.05
N10700 G02 X0.438 I0.441 J-11.686
N10705 G01 X1.713 Y15.972
N10710 X1.8 Y15.965
N10715 X1.887 Y15.953
N10720 X3.272 Y15.729
N10725 X3.361 Y15.713
N10730 X3.448 Y15.691
N10735 X4.778 Y15.333
N10740 X4.811 Y15.324
N10745 X4.844 Y15.314
N10750 X5.105 Y15.233
N10755 X5.221 Y15.192
N10760 G02 X6.998 Y14.452 I-5.745 J-16.296
N10765 X8.292 Y13.755 I-8.811 J-17.914
N10770 G01 X8.393 Y13.693
N10775 X9.393 Y13.03
N10780 X9.524 Y12.934
N10785 X10.347 Y12.27
N10790 X10.366 Y12.255
N10795 X10.761 Y11.928
N10800 X10.824 Y11.872
N10805 X10.885 Y11.814
N10810 X11.55 Y11.145
N10815 X11.563 Y11.132
N10820 X11.884 Y10.802
N10825 X11.96 Y10.719
N10830 G02 X13.077 Y9.333 I-16.079 J-14.104
N10835 G01 X13.132 Y9.259
N10840 X13.182 Y9.183
N10845 X14.014 Y7.856
N10850 X14.061 Y7.776
N10855 X14.105 Y7.693
N10860 X14.751 Y6.366
N10865 X14.788 Y6.283
N10870 X14.822 Y6.199
N10875 X15.305 Y4.871
N10880 X15.351 Y4.726
N10885 G02 X16.019 Y1.135 I-16.393 J-4.905
N10890 G01 X16.029 Y0.999
N10895 X16.063 Y-0.328
N10900 Y-0.418
N10905 X16.058 Y-0.508
N10910 X15.955 Y-1.835
N10915 X15.939 Y-1.969
N10920 G02 X15.063 Y-5.565 I-16.734 J2.17
N10925 G01 X15.017 Y-5.698
N10930 G02 X14.424 Y-7.074 I-23.854 J9.454
N10935 G01 X14.364 Y-7.192
N10940 G02 X13.598 Y-8.554 I-31.067 J16.58
N10945 G01 X13.519 Y-8.677
N10950 G02 X12.533 Y-10.042 I-26.807 J18.332
N10955 G01 X12.445 Y-10.151
N10960 X11.626 Y-11.087
N10965 X11.568 Y-11.15
N10970 X11.507 Y-11.21
N10975 X10.842 Y-11.835
N10980 X10.83 Y-11.846
N10985 X10.364 Y-12.276
N10990 X10.298 Y-12.334
N10995 X10.229 Y-12.388
N11000 G02 X8.632 Y-13.539 I-13.271 J16.734
N11005 G01 X8.537 Y-13.599
N11010 X8.107 Y-13.852
N11015 G03 X8.034 Y-14.308 I0.152 J-0.258
N11020 G01 X12.485 Y-19.391
N11025 G03 X12.875 Y-19.444 I0.226 J0.198
N11030 X16.637 Y-16.401 I-13.684 J20.762
N11035 X21.054 Y10.096 I-16.039 J16.291
N11040 X-2.372 Y23.243 I-21.392 J-10.673
N11045 X-17.445 Y15.462 I1.892 J-22.154
N11050 X-23.356 Y-0.438 I19.032 J-16.124
N11055 X-19.235 Y-13.254 I21.388 J-0.193
N11060 X-8.725 Y-21.667 I20.787 J15.197
N11065 X4.762 Y-22.916 I8.638 J19.845
N11070 X12.875 Y-19.444 I-5.57 J24.233
N11075 G02 X15.226 Y-19.423 I1.192 J-1.808
N11080 G03 X17.569 Y-19.23 I1.044 J1.646
N11085 X18.532 Y-18.326 I-18.365 J20.535
N11090 X25.652 Y-4.94 I-17.747 J18.026
N11095 X24.023 Y10.134 I-25.878 J4.828
N11100 X-1.938 Y26.039 I-24.088 J-10.178
N11105 X-25.228 Y6.432 I1.855 J-25.84
N11110 X-25.843 Y3.033 I26.168 J-6.485
N11115 X-26.056 Y-0.414 I32.46 J-3.741
N11120 X-21.5 Y-14.724 I24.069 J-0.217
N11125 X-9.803 Y-24.143 I23.042 J16.642
N11130 X5.255 Y-25.571 I9.713 J22.313
N11135 X17.569 Y-19.23 I-6.05 J26.876
N11140 G02 X19.999 Y-18.822 I1.537 J-1.718
N11145 G03 X22.399 Y-18.268 I0.815 J1.941
N11150 G01 X22.747 Y-17.869
N11155 X24.505 Y-15.368
N11160 X26.025 Y-12.625
N11165 X26.998 Y-10.319
N11170 X27.233 Y-9.742
N11175 X27.999 Y-7.202
N11180 X28.145 Y-6.629
N11185 X28.625 Y-4.082
N11190 X28.697 Y-3.511
N11195 X28.902 Y-0.958
N11200 X28.907 Y-0.388
N11205 X28.839 Y2.165
N11210 X28.777 Y2.736
N11215 X28.437 Y5.281
N11220 X28.144 Y6.514
N11225 X27.675 Y8.409
N11230 X26.652 Y11.245
N11235 X25.29 Y14.039
N11240 X23.714 Y16.559
N11245 X23.548 Y16.784
N11250 X21.774 Y19.044
N11255 X19.746 Y21.126
N11260 X19.152 Y21.644
N11265 X17.245 Y23.224
N11270 X14.738 Y24.887
N11275 X12.717 Y25.945
N11280 X12.208 Y26.21
N11285 X11.628 Y26.469
N11290 X9.093 Y27.46
N11295 X6.545 Y28.156
N11300 X5.971 Y28.297
N11305 X3.416 Y28.708
N11310 X2.844 Y28.775
N11315 X0.286 Y28.912
N11320 X-0.286
N11325 X-2.844 Y28.775
N11330 X-3.416 Y28.708
N11335 X-5.971 Y28.297
N11340 X-6.545 Y28.156
N11345 X-9.093 Y27.46
N11350 X-11.628 Y26.469
N11355 X-12.208 Y26.21
N11360 X-14.15 Y25.2
N11365 X-14.733 Y24.89
N11370 X-17.245 Y23.224
N11375 X-19.299 Y21.522
N11380 X-19.742 Y21.131
N11385 X-21.774 Y19.044
N11390 X-23.548 Y16.784
N11395 X-23.714 Y16.559
N11400 X-25.29 Y14.039
N11405 X-26.652 Y11.245
N11410 X-27.675 Y8.409
N11415 X-28.144 Y6.514
N11420 X-28.437 Y5.281
N11425 X-28.777 Y2.736
N11430 X-28.839 Y2.165
N11435 X-28.907 Y-0.388
N11440 X-28.902 Y-0.958
N11445 X-28.697 Y-3.511
N11450 X-28.625 Y-4.082
N11455 X-28.145 Y-6.629
N11460 X-27.999 Y-7.202
N11465 X-27.235 Y-9.736
N11470 X-26.72 Y-10.977
N11475 X-26.025 Y-12.625
N11480 X-24.505 Y-15.368
N11485 X-22.747 Y-17.869
N11490 X-20.988 Y-19.88
N11495 X-20.532 Y-20.358
N11500 X-18.486 Y-22.247
N11505 X-15.955 Y-24.127
N11510 X-13.472 Y-25.59
N11515 X-12.891 Y-25.871
N11520 X-10.94 Y-26.756
N11525 X-10.361 Y-26.998
N11530 X-7.685 Y-27.883
N11535 X-7.261 Y-27.984
N11540 X-4.703 Y-28.538
N11545 X-3.465 Y-28.679
N11550 X-1.569 Y-28.883
N11555 X1.569
N11560 X4.124 Y-28.609
N11565 X4.697 Y-28.539
N11570 X7.261 Y-27.984
N11575 X7.685 Y-27.883
N11580 X10.361 Y-26.998
N11585 X10.94 Y-26.756
N11590 X12.891 Y-25.871
N11595 X13.472 Y-25.59
N11600 X15.99 Y-24.106
N11605 X18.5 Y-22.234
N11610 X20.532 Y-20.358
N11615 X20.988 Y-19.88
N11620 X22.399 Y-18.268
N11625 G03 X22.355 Y-17.831 I-0.226 J0.198
N11630 G01 X18.146 Y-14.625
N11635 X18.109 Y-14.588
N11640 X18.079 Y-14.545
N11645 X15.601 Y-10.263
N11650 G03 X15.263 Y-10.124 I-0.26 J-0.15
N11655 X16.764 Y-15.623 Z-7.313 I0.751 J-2.749 F200.
N11660 X15.263 Y-10.124 Z-7.625 I-0.751 J2.749
N11665 X16.764 Y-15.623 Z-7.938 I0.751 J-2.749
N11670 X18.227 Y-14.668 Z-8. I-0.751 J2.749
N11675 X21.11 Y9.871 I-17.943 J14.547 F240.
N11680 X12.774 Y19.359 I-21.352 J-10.354
N11685 X0.773 Y23.295 I-13.291 J-20.261
N11690 X-16.425 Y16.634 I-1.196 J-22.442
N11695 X-23.322 Y-0.47 I17.058 J-16.822
N11700 X-13.358 Y-19.099 I22.9 J0.269
N11705 X7.564 Y-22.043 I13.429 J19.62
N11710 X18.227 Y-14.668 I-7.28 J21.922
N11715 G02 X19.783 Y-14.168 I1.161 J-0.942
N11720 G03 X21.309 Y-13.585 I0.365 J1.336
N11725 X23.801 Y-8.683 I-21.95 J14.241
N11730 X24.564 Y-6.175 I-17.582 J6.717
N11735 X25.071 Y-3.604 I-41.305 J9.479
N11740 X20.068 Y15.406 I-23.725 J3.919
N11745 X2.995 Y25.148 I-20.952 J-16.887
N11750 X-10.363 Y23.215 I-3.421 J-23.485
N11755 X-20.721 Y14.562 I10.83 J-23.49
N11760 X-24.554 Y-5.83 I20.606 J-14.43
N11765 X-11.961 Y-22.32 I25.12 J6.129
N11770 X9.03 Y-23.657 I11.907 J21.5
N11775 X21.309 Y-13.585 I-9.671 J24.312
N11780 G02 X23.594 Y-12.553 I1.946 J-1.263
N11785 G03 X25.78 Y-11.323 I0.299 J2.026
N11790 G01 X26.465 Y-9.701
N11795 X26.6 Y-9.306
N11800 X27.251 Y-7.146
N11805 X27.405 Y-6.606
N11810 X27.883 Y-4.068
N11815 X27.964 Y-3.497
N11820 X28.168 Y-0.956
N11825 X28.174 Y-0.385
N11830 X28.107 Y2.157
N11835 X28.04 Y2.726
N11840 X27.694 Y5.273
N11845 X27.076 Y7.801
N11850 X26.909 Y8.375
N11855 X25.986 Y10.934
N11860 X24.726 Y13.532
N11865 X24.462 Y13.983
N11870 X23.256 Y15.911
N11875 X22.842 Y16.498
N11880 X21.342 Y18.409
N11885 X21.002 Y18.788
N11890 X19.097 Y20.739
N11895 X17.197 Y22.314
N11900 X16.606 Y22.77
N11905 X14.689 Y24.042
N11910 X14.103 Y24.4
N11915 X12.171 Y25.404
N11920 X11.589 Y25.699
N11925 X9.061 Y26.687
N11930 X8.486 Y26.868
N11935 X5.948 Y27.559
N11940 X3.406 Y27.969
N11945 X2.833 Y28.043
N11950 X0.286 Y28.179
N11955 X-0.286
N11960 X-2.833 Y28.043
N11965 X-3.406 Y27.969
N11970 X-5.948 Y27.559
N11975 X-8.486 Y26.868
N11980 X-9.061 Y26.687
N11985 X-11.584 Y25.7
N11990 X-12.831 Y25.061
N11995 X-14.102 Y24.4
N12000 X-14.706 Y24.03
N12005 X-16.627 Y22.756
N12010 X-17.195 Y22.316
N12015 X-19.097 Y20.739
N12020 X-21.002 Y18.788
N12025 X-21.342 Y18.409
N12030 X-22.87 Y16.463
N12035 X-23.254 Y15.913
N12040 X-24.462 Y13.983
N12045 X-24.726 Y13.532
N12050 X-25.986 Y10.934
N12055 X-26.909 Y8.375
N12060 X-27.076 Y7.801
N12065 X-27.694 Y5.273
N12070 X-28.04 Y2.726
N12075 X-28.107 Y2.157
N12080 X-28.174 Y-0.385
N12085 X-28.168 Y-0.956
N12090 X-27.965 Y-3.493
N12095 X-27.87 Y-4.139
N12100 X-27.405 Y-6.605
N12105 X-27.241 Y-7.179
N12110 X-26.6 Y-9.306
N12115 X-26.465 Y-9.701
N12120 X-25.36 Y-12.319
N12125 X-24.023 Y-14.734
N12130 X-23.645 Y-15.319
N12135 X-22.227 Y-17.338
N12140 X-21.623 Y-18.043
N12145 X-20.313 Y-19.54
N12150 X-20.161 Y-19.705
N12155 X-18.093 Y-21.614
N12160 X-17.876 Y-21.793
N12165 X-15.626 Y-23.464
N12170 X-13.429 Y-24.765
N12175 X-12.847 Y-25.087
N12180 X-10.331 Y-26.229
N12185 X-9.092 Y-26.647
N12190 X-7.359 Y-27.214
N12195 X-4.639 Y-27.803
N12200 X-4.465 Y-27.836
N12205 X-1.567 Y-28.147
N12210 X0.991 Y-28.154
N12215 X1.56 Y-28.148
N12220 X4.449 Y-27.838
N12225 X5.289 Y-27.662
N12230 X7.359 Y-27.214
N12235 X9.092 Y-26.647
N12240 X10.331 Y-26.229
N12245 X12.846 Y-25.088
N12250 X13.484 Y-24.733
N12255 X15.626 Y-23.464
N12260 X17.876 Y-21.793
N12265 X18.093 Y-21.614
N12270 X20.161 Y-19.705
N12275 X20.313 Y-19.54
N12280 X21.828 Y-17.809
N12285 X22.225 Y-17.341
N12290 X23.645 Y-15.319
N12295 X24.023 Y-14.734
N12300 X25.36 Y-12.319
N12305 X25.78 Y-11.323
N12310 G03 X25.59 Y-10.919 I-0.276 J0.117
N12315 G01 X19.985 Y-9.227
N12320 G03 X19.628 Y-9.385 I-0.087 J-0.287
N12325 G02 X7.061 Y-20.45 I-19.281 J9.23
N12330 X-8.614 Y-19.925 I-7.125 J21.539
N12335 X-19.737 Y-8.869 I7.662 J18.832
N12340 X-21.514 Y-0.555 I21.706 J8.984
N12345 X-20.17 Y7.839 I22.813 J0.652
N12350 X-15.86 Y14.714 I17.991 J-6.488
N12355 X-9.33 Y19.531 I18.033 J-17.613
N12360 X2.692 Y21.546 I9.181 J-17.903
N12365 X13.844 Y16.623 I-3.18 J-22.296
N12370 X21.39 Y-3.915 I-13.797 J-16.725
N12375 X19.628 Y-9.385 I-21.043 J3.759
N12380 X17.944 Y-10.386 I-1.593 J0.763
N12385 G03 X16.191 Y-11.26 I-0.103 J-1.991
N12390 G02 X12.403 Y-15.235 I-13.744 J9.302
N12395 X2.821 Y-19.416 I-13.641 J18.191
N12400 X-7.554 Y-18.131 I-3.13 J17.252
N12405 X-18.127 Y-7.518 I8.756 J19.296
N12410 X-18.166 Y7.463 I16.771 J7.534
N12415 X-14.126 Y13.666 I21.204 J-9.393
N12420 X-8.063 Y17.913 I12.438 J-11.302
N12425 X2.652 Y19.353 I8.113 J-19.789
N12430 X12.58 Y15.072 I-2.338 J-19.076
N12435 X18.03 Y8.032 I-13.03 J-15.716
N12440 X19.633 Y-0.726 I-15.8 J-7.418
N12445 X17.584 Y-8.761 I-24.047 J1.852
N12450 X16.191 Y-11.26 I-15.137 J6.803
N12455 X13.547 Y-12.235 I-2.001 J1.354
N12460 G03 X10.801 Y-12.868 I-0.788 J-2.855
N12465 G01 X10.694 Y-12.955
N12470 X9.678 Y-13.716
N12475 X9.662 Y-13.728
N12480 X9.347 Y-13.959
N12485 X9.277 Y-14.008
N12490 X9.203 Y-14.054
N12495 X7.873 Y-14.839
N12500 X7.794 Y-14.883
N12505 X7.713 Y-14.923
N12510 X6.382 Y-15.533
N12515 X6.25 Y-15.587
N12520 G02 X4.128 Y-16.276 I-7.46 J19.355
N12525 G01 X4.019 Y-16.301
N12530 X2.688 Y-16.581
N12535 X2.602 Y-16.597
N12540 X2.514 Y-16.609
N12545 X1.184 Y-16.751
N12550 X1.053 Y-16.76
N12555 G02 X-1.053 I-1.053 J22.825
N12560 G01 X-1.184 Y-16.751
N12565 X-2.514 Y-16.609
N12570 X-2.602 Y-16.597
N12575 X-2.688 Y-16.581
N12580 X-4.019 Y-16.301
N12585 X-4.128 Y-16.274
N12590 G02 X-6.249 Y-15.585 I4.854 J18.55
N12595 G01 X-6.382 Y-15.533
N12600 X-7.713 Y-14.923
N12605 X-7.794 Y-14.883
N12610 X-7.873 Y-14.839
N12615 X-9.203 Y-14.054
N12620 X-9.28 Y-14.005
N12625 X-9.355 Y-13.953
N12630 X-10.563 Y-13.059
N12635 X-10.589 Y-13.039
N12640 X-10.615 Y-13.019
N12645 X-10.737 Y-12.921
N12650 X-10.83 Y-12.841
N12655 G02 X-12.202 Y-11.532 I19.589 J21.909
N12660 G01 X-12.291 Y-11.438
N12665 G02 X-15.196 Y-7.133 I12.394 J11.497
N12670 G01 X-15.255 Y-7.014
N12675 X-15.805 Y-5.686
N12680 X-15.836 Y-5.605
N12685 X-15.863 Y-5.522
N12690 X-16.263 Y-4.195
N12695 X-16.301 Y-4.047
N12700 G02 X-16.714 Y-1.58 I18.309 J4.332
N12705 G01 X-16.791 Y-0.505
N12710 X-16.796 Y-0.416
N12715 Y-0.327
N12720 X-16.761 Y1.
N12725 X-16.754 Y1.119
N12730 G02 X-16.481 Y3.221 I21.656 J-1.742
N12735 G01 X-16.455 Y3.361
N12740 X-16.13 Y4.688
N12745 X-16.083 Y4.847
N12750 X-15.853 Y5.511
N12755 X-15.846 Y5.53
N12760 X-15.607 Y6.193
N12765 X-15.56 Y6.308
N12770 G02 X-14.451 Y8.545 I16.965 J-7.021
N12775 G01 X-13.785 Y9.601
N12780 X-13.735 Y9.676
N12785 X-13.682 Y9.748
N12790 G02 X-11.562 Y12.18 I15.999 J-11.8
N12795 G01 X-11.447 Y12.29
N12800 X-10.733 Y12.901
N12805 X-10.708 Y12.922
N12810 X-10.092 Y13.43
N12815 X-10.021 Y13.486
N12820 X-9.947 Y13.538
N12825 X-8.616 Y14.421
N12830 X-8.539 Y14.47
N12835 X-8.458 Y14.514
N12840 X-7.128 Y15.209
N12845 X-6.982 Y15.276
N12850 X-6.317 Y15.549
N12855 X-6.29 Y15.56
N12860 X-5.534 Y15.855
N12865 X-5.411 Y15.898
N12870 G02 X-3.403 Y16.445 I7.048 J-21.947
N12875 G01 X-3.271 Y16.471
N12880 X-1.941 Y16.686
N12885 X-1.853 Y16.697
N12890 X-1.765 Y16.705
N12895 X-0.435 Y16.783
N12900 G02 X0.435 I0.435 J-13.122
N12905 G01 X1.765 Y16.705
N12910 X1.853 Y16.697
N12915 X1.941 Y16.686
N12920 X3.271 Y16.471
N12925 X3.403 Y16.445
N12930 G02 X5.411 Y15.899 I-5.163 J-22.949
N12935 G01 X5.534 Y15.855
N12940 X6.29 Y15.56
N12945 X6.317 Y15.549
N12950 X6.982 Y15.276
N12955 X7.128 Y15.209
N12960 X8.458 Y14.514
N12965 X8.539 Y14.47
N12970 X8.616 Y14.421
N12975 X9.947 Y13.538
N12980 X10.021 Y13.486
N12985 X10.092 Y13.43
N12990 X10.757 Y12.881
N12995 X10.783 Y12.859
N13000 X11.448 Y12.288
N13005 X11.563 Y12.181
N13010 G02 X13.681 Y9.747 I-14.061 J-14.377
N13015 G01 X13.735 Y9.675
N13020 X13.785 Y9.601
N13025 X14.464 Y8.523
N13030 G02 X15.562 Y6.302 I-15.323 J-8.958
N13035 G01 X15.607 Y6.193
N13040 X15.946 Y5.253
N13045 X15.957 Y5.221
N13050 X16.088 Y4.834
N13055 X16.13 Y4.688
N13060 X16.455 Y3.361
N13065 X16.483 Y3.222
N13070 G02 X16.764 Y1. I-20.592 J-3.733
N13075 G01 X16.796 Y-0.327
N13080 Y-0.417
N13085 X16.791 Y-0.507
N13090 X16.689 Y-1.834
N13095 G02 X16.298 Y-4.047 I-19.137 J2.238
N13100 G01 X16.263 Y-4.195
N13105 X15.863 Y-5.522
N13110 X15.836 Y-5.605
N13115 X15.805 Y-5.686
N13120 X15.255 Y-7.014
N13125 X15.2 Y-7.135
N13130 G02 X12.258 Y-11.479 I-15.575 J7.38
N13135 G01 X12.159 Y-11.58
N13140 G02 X10.801 Y-12.868 I-24.905 J24.915
N13145 G03 X10.839 Y-13.346 I0.198 J-0.225
N13150 G01 X14.614 Y-15.737
N13155 X14.624 Y-15.743
N13160 X14.635 Y-15.749
N13165 X14.647 Y-15.755
N13170 X14.692 Y-15.782
N13175 X14.733 Y-15.816
N13180 X14.766 Y-15.857
N13185 X16.982 Y-19.095
N13190 G03 X17.28 Y-19.221 I0.248 J0.169
N13195 X16.326 Y-13.602 Z-8.313 I-0.477 J2.81 F200.
N13200 X17.28 Y-19.221 Z-8.625 I0.477 J-2.81
N13205 X16.326 Y-13.602 Z-8.938 I-0.477 J2.81
N13210 X14.776 Y-14.408 Z-9. I0.477 J-2.81
N13215 G02 X14.093 Y-15.067 I-14.701 J14.532 F240.
N13220 X-1.309 Y-20.624 I-14.292 J15.487
N13225 X-15.887 Y-13.167 I1.058 J20.046
N13230 X-20.508 Y1.867 I16.53 J13.308
N13235 X-13.245 Y15.818 I20.196 J-1.649
N13240 X-6.787 Y19.528 I13.98 J-16.862
N13245 X0.579 Y20.629 I6.371 J-17.424
N13250 X8.428 Y18.736 I-1.19 J-22.155
N13255 X15.049 Y14.117 I-8.727 J-19.565
N13260 X20.73 Y-0.677 I-14.393 J-14.015
N13265 X14.776 Y-14.408 I-20.656 J0.801
N13270 X12.122 Y-14.904 I-1.685 J1.666
N13275 G03 X9.427 Y-15.078 I-1.183 J-2.639
N13280 G02 X8.099 Y-15.847 I-11.356 J18.087
N13285 G01 X7.982 Y-15.903
N13290 X6.504 Y-16.567
N13295 X6.421 Y-16.602
N13300 X6.337 Y-16.632
N13305 X4.873 Y-17.116
N13310 X4.717 Y-17.16
N13315 G02 X2.636 Y-17.597 I-6.93 J27.807
N13320 G01 X2.514 Y-17.613
N13325 X1.184 Y-17.755
N13330 X1.038 Y-17.765
N13335 G02 X-1.038 I-1.038 J30.808
N13340 G01 X-1.184 Y-17.755
N13345 X-2.514 Y-17.613
N13350 X-2.636 Y-17.596
N13355 G02 X-4.721 Y-17.158 I4.274 J25.519
N13360 G01 X-4.873 Y-17.116
N13365 X-6.337 Y-16.632
N13370 X-6.421 Y-16.602
N13375 X-6.504 Y-16.567
N13380 X-7.982 Y-15.903
N13385 X-8.099 Y-15.846
N13390 G02 X-9.898 Y-14.787 I12.302 J22.962
N13395 G01 X-10.03 Y-14.699
N13400 X-11.36 Y-13.699
N13405 X-11.429 Y-13.645
N13410 X-11.496 Y-13.586
N13415 G02 X-12.858 Y-12.298 I25.264 J28.074
N13420 G01 X-12.956 Y-12.195
N13425 G02 X-14.167 Y-10.759 I17.451 J15.947
N13430 G01 X-14.239 Y-10.662
N13435 X-15.07 Y-9.469
N13440 X-15.12 Y-9.393
N13445 X-15.166 Y-9.314
N13450 X-15.973 Y-7.853
N13455 X-16.014 Y-7.773
N13460 X-16.052 Y-7.69
N13465 X-16.614 Y-6.363
N13470 X-16.657 Y-6.25
N13475 G02 X-17.3 Y-4.163 I22.993 J8.232
N13480 G01 X-17.337 Y-4.014
N13485 X-17.587 Y-2.687
N13490 X-17.606 Y-2.568
N13495 G02 X-17.791 Y-0.504 I25.149 J3.3
N13500 G01 X-17.795 Y-0.415
N13505 Y-0.326
N13510 G02 X-17.755 Y1.096 I24.053 J0.035
N13515 X-17.692 Y1.852 I13.44 J-0.754
N13520 G01 X-17.513 Y3.179
N13525 X-17.498 Y3.268
N13530 X-17.48 Y3.356
N13535 G02 X-17.136 Y4.771 I24.724 J-5.253
N13540 X-16.906 Y5.534 I12.287 J-3.286
N13545 G01 X-16.423 Y6.861
N13550 X-16.39 Y6.945
N13555 X-16.353 Y7.027
N13560 X-15.709 Y8.354
N13565 X-15.639 Y8.484
N13570 G02 X-14.347 Y10.522 I19.494 J-10.925
N13575 X-12.226 Y12.928 I15.862 J-11.846
N13580 G01 X-12.111 Y13.039
N13585 X-11.445 Y13.607
N13590 X-11.421 Y13.628
N13595 X-10.665 Y14.25
N13600 X-10.595 Y14.305
N13605 X-10.522 Y14.356
N13610 X-9.282 Y15.18
N13615 X-9.163 Y15.252
N13620 G02 X-6.949 Y16.376 I10.601 J-18.137
N13625 G01 X-5.618 Y16.888
N13630 X-5.534 Y16.918
N13635 X-5.449 Y16.944
N13640 X-4.119 Y17.307
N13645 G02 X-3.265 Y17.484 I2.815 J-11.432
N13650 G01 X-1.934 Y17.693
N13655 X-1.846 Y17.705
N13660 X-1.757 Y17.712
N13665 G02 X-0.333 Y17.786 I1.978 J-24.277
N13670 X0.426 Y17.783 I0.336 J-13.106
N13675 G01 X1.757 Y17.712
N13680 X1.846 Y17.705
N13685 X1.934 Y17.693
N13690 G02 X4.047 Y17.325 I-2.952 J-23.169
N13695 G01 X4.083 Y17.316
N13700 X4.119 Y17.307
N13705 X5.449 Y16.944
N13710 X5.534 Y16.918
N13715 X5.618 Y16.888
N13720 X6.948 Y16.375
N13725 G02 X9.161 Y15.25 I-7.729 J-17.944
N13730 G01 X9.282 Y15.18
N13735 X10.522 Y14.356
N13740 X10.595 Y14.305
N13745 X10.665 Y14.25
N13750 X11.471 Y13.586
N13755 X11.497 Y13.564
N13760 X12.112 Y13.038
N13765 X12.228 Y12.93
N13770 G02 X14.789 Y9.892 I-13.319 J-13.828
N13775 X15.645 Y8.475 I-29.251 J-18.637
N13780 G01 X15.709 Y8.354
N13785 X16.353 Y7.027
N13790 X16.39 Y6.945
N13795 X16.423 Y6.861
N13800 X16.906 Y5.534
N13805 G02 X17.16 Y4.683 I-11.796 J-3.98
N13810 G01 X17.48 Y3.356
N13815 X17.498 Y3.268
N13820 X17.513 Y3.179
N13825 G02 X17.701 Y1.76 I-24.401 J-3.968
N13830 X17.76 Y1.001 I-13.141 J-1.404
N13835 G01 X17.795 Y-0.326
N13840 Y-0.415
N13845 X17.791 Y-0.504
N13850 G02 X17.606 Y-2.568 I-25.352 J1.238
N13855 G01 X17.587 Y-2.687
N13860 X17.337 Y-4.014
N13865 X17.302 Y-4.164
N13870 G02 X16.659 Y-6.251 I-25.439 J6.701
N13875 G01 X16.614 Y-6.363
N13880 X16.052 Y-7.69
N13885 X16.014 Y-7.773
N13890 X15.973 Y-7.853
N13895 X15.166 Y-9.314
N13900 X15.12 Y-9.393
N13905 X15.07 Y-9.469
N13910 X14.239 Y-10.662
N13915 X14.163 Y-10.763
N13920 G02 X12.956 Y-12.195 I-19.867 J15.533
N13925 G01 X12.856 Y-12.299
N13930 G02 X11.478 Y-13.602 I-28.172 J28.42
N13935 G01 X11.411 Y-13.661
N13940 X11.341 Y-13.717
N13945 X10.028 Y-14.7
N13950 X9.894 Y-14.792
N13955 X9.427 Y-15.078
N13960 G03 X9.344 Y-15.514 I0.157 J-0.256
N13965 G01 X12.851 Y-20.181
N13970 G03 X13.255 Y-20.252 I0.24 J0.18
N13975 X24.329 Y-0.679 I-13.32 J20.456
N13980 X21.934 Y10.463 I-23.398 J0.799
N13985 X14.771 Y19.326 I-23.205 J-11.427
N13990 X-3.679 Y24.097 I-14.625 J-18.499
N13995 X-19.871 Y14.049 I4.04 J-24.583
N14000 X-16.624 Y-17.733 I19.568 J-14.058
N14005 X13.255 Y-20.252 I16.558 J17.936
N14010 G02 X15.824 Y-20.228 I1.304 J-2.002
N14015 G03 X18.383 Y-19.988 I1.122 J1.797
N14020 G01 X19.411 Y-19.038
N14025 X19.65 Y-18.781
N14030 X21.068 Y-17.161
N14035 X21.548 Y-16.568
N14040 X22.88 Y-14.671
N14045 X23.24 Y-14.087
N14050 X24.301 Y-12.173
N14055 X24.582 Y-11.593
N14060 X25.396 Y-9.665
N14065 X25.623 Y-9.088
N14070 X26.38 Y-6.578
N14075 X26.549 Y-5.755
N14080 X26.87 Y-4.05
N14085 X26.964 Y-3.479
N14090 X27.18 Y-0.776
N14095 X27.176 Y-0.406
N14100 X27.108 Y2.143
N14105 X26.772 Y4.671
N14110 X26.674 Y5.242
N14115 X26.058 Y7.761
N14120 X25.861 Y8.337
N14125 X25.163 Y10.271
N14130 X24.92 Y10.849
N14135 X23.986 Y12.771
N14140 X23.679 Y13.352
N14145 X22.477 Y15.272
N14150 X22.188 Y15.714
N14155 X20.587 Y17.753
N14160 X20.329 Y18.047
N14165 X18.432 Y19.993
N14170 X16.539 Y21.563
N14175 X15.948 Y22.008
N14180 X13.929 Y23.347
N14185 X13.469 Y23.604
N14190 X11.536 Y24.608
N14195 X10.958 Y24.873
N14200 X8.489 Y25.832
N14205 X5.92 Y26.533
N14210 X5.347 Y26.644
N14215 X3.391 Y26.959
N14220 X2.818 Y27.044
N14225 X0.286 Y27.179
N14230 X-0.286
N14235 X-2.812 Y27.044
N14240 X-4.05 Y26.853
N14245 X-5.347 Y26.644
N14250 X-5.92 Y26.533
N14255 X-8.489 Y25.832
N14260 X-10.956 Y24.874
N14265 X-11.558 Y24.597
N14270 X-13.469 Y23.604
N14275 X-13.929 Y23.347
N14280 X-15.948 Y22.008
N14285 X-16.539 Y21.563
N14290 X-18.432 Y19.993
N14295 X-20.329 Y18.047
N14300 X-20.587 Y17.753
N14305 X-22.188 Y15.714
N14310 X-22.477 Y15.272
N14315 X-23.677 Y13.355
N14320 X-24.043 Y12.654
N14325 X-24.92 Y10.849
N14330 X-25.163 Y10.271
N14335 X-25.947 Y8.098
N14340 X-26.056 Y7.77
N14345 X-26.674 Y5.242
N14350 X-26.772 Y4.671
N14355 X-27.108 Y2.143
N14360 X-27.181 Y-0.598
N14365 Y-0.766
N14370 X-26.964 Y-3.479
N14375 X-26.87 Y-4.05
N14380 X-26.503 Y-6.001
N14385 X-26.381 Y-6.573
N14390 X-25.624 Y-9.083
N14395 X-25.317 Y-9.852
N14400 X-24.582 Y-11.593
N14405 X-24.301 Y-12.173
N14410 X-23.24 Y-14.087
N14415 X-22.88 Y-14.671
N14420 X-21.546 Y-16.57
N14425 X-21.068 Y-17.161
N14430 X-19.65 Y-18.781
N14435 X-19.411 Y-19.038
N14440 X-17.372 Y-20.921
N14445 X-15.282 Y-22.476
N14450 X-14.832 Y-22.779
N14455 X-12.681 Y-24.047
N14460 X-12.219 Y-24.276
N14465 X-9.976 Y-25.294
N14470 X-9.732 Y-25.383
N14475 X-7.186 Y-26.226
N14480 X-4.657 Y-26.777
N14485 X-4.085 Y-26.873
N14490 X-1.457 Y-27.155
N14495 X1.457
N14500 X4.085 Y-26.873
N14505 X4.657 Y-26.777
N14510 X7.186 Y-26.226
N14515 X9.732 Y-25.383
N14520 X9.976 Y-25.294
N14525 X12.219 Y-24.276
N14530 X12.681 Y-24.047
N14535 X14.832 Y-22.779
N14540 X15.282 Y-22.476
N14545 X17.372 Y-20.921
N14550 X18.383 Y-19.988
N14555 G03 X18.202 Y-19.468 I-0.203 J0.22
N14560 G01 X14.203 Y-19.169
N14565 G03 X13.881 Y-19.468 I-0.022 J-0.299
N14570 X14.202 Y-19.768 I0.3
N14575 X13.791 Y-14.083 Z-9.313 I-0.206 J2.843 F200.
N14580 X14.202 Y-19.768 Z-9.625 I0.206 J-2.843
N14585 X13.791 Y-14.083 Z-9.938 I-0.206 J2.843
N14590 X12.171 Y-14.737 Z-10. I0.206 J-2.843
N14595 X14.715 Y-17.786 I1.272 J-1.525
N14600 X22.837 Y-3.077 I-14.847 J17.795 F240.
N14605 X18.826 Y13.136 I-22.538 J3.027
N14610 X4.988 Y22.485 I-19.411 J-13.814
N14615 X-11.569 Y19.936 I-5.167 J-21.481
N14620 X-22. Y6.828 I12.353 J-20.534
N14625 X-21.304 Y-8.797 I21.132 J-6.887
N14630 X-10.773 Y-20.361 I21.894 J9.361
N14635 X10.572 Y-20.547 I10.846 J19.974
N14640 X14.715 Y-17.786 I-10.704 J20.555
N14645 G02 X17.127 Y-17.476 I1.449 J-1.737
N14650 G03 X19.508 Y-16.978 I0.86 J1.828
N14655 G01 X20.273 Y-16.103
N14660 X20.428 Y-15.91
N14665 X21.767 Y-14.005
N14670 X22.13 Y-13.42
N14675 X23.192 Y-11.503
N14680 X23.349 Y-11.186
N14685 X24.259 Y-9.03
N14690 X24.462 Y-8.455
N14695 X25.042 Y-6.531
N14700 X25.194 Y-5.958
N14705 X25.665 Y-3.457
N14710 X25.868 Y-0.946
N14715 X25.88 Y-0.377
N14720 X25.829 Y1.561
N14725 X25.807 Y2.131
N14730 X25.471 Y4.637
N14735 X25.349 Y5.209
N14740 X24.878 Y7.137
N14745 X24.711 Y7.711
N14750 X23.969 Y9.767
N14755 X23.797 Y10.2
N14760 X22.722 Y12.411
N14765 X22.576 Y12.674
N14770 X21.381 Y14.585
N14775 X20.968 Y15.172
N14780 X19.491 Y17.053
N14785 X17.672 Y18.921
N14790 X16.97 Y19.524
N14795 X15.453 Y20.782
N14800 X13.377 Y22.16
N14805 X12.793 Y22.496
N14810 X10.887 Y23.487
N14815 X10.308 Y23.737
N14820 X8.311 Y24.518
N14825 X7.82 Y24.673
N14830 X5.883 Y25.201
N14835 X5.309 Y25.339
N14840 X2.799 Y25.744
N14845 X2.227 Y25.779
N14850 X0.286 Y25.883
N14855 X-0.286
N14860 X-2.707 Y25.754
N14865 X-3.386 Y25.649
N14870 X-5.309 Y25.339
N14875 X-5.883 Y25.201
N14880 X-7.82 Y24.673
N14885 X-8.311 Y24.518
N14890 X-10.308 Y23.737
N14895 X-10.887 Y23.487
N14900 X-12.793 Y22.496
N14905 X-13.377 Y22.16
N14910 X-15.453 Y20.782
N14915 X-17.157 Y19.369
N14920 X-17.669 Y18.924
N14925 X-19.491 Y17.053
N14930 X-20.968 Y15.172
N14935 X-21.381 Y14.585
N14940 X-22.576 Y12.674
N14945 X-22.722 Y12.411
N14950 X-23.794 Y10.206
N14955 X-24.019 Y9.629
N14960 X-24.711 Y7.711
N14965 X-24.878 Y7.137
N14970 X-25.349 Y5.209
N14975 X-25.471 Y4.637
N14980 X-25.806 Y2.137
N14985 X-25.852 Y0.703
N14990 X-25.88 Y-0.377
N14995 X-25.868 Y-0.947
N15000 X-25.857 Y-1.091
N15005 X-25.665 Y-3.457
N15010 X-25.194 Y-5.958
N15015 X-25.042 Y-6.531
N15020 X-24.462 Y-8.455
N15025 X-24.259 Y-9.03
N15030 X-23.349 Y-11.186
N15035 X-23.192 Y-11.503
N15040 X-22.103 Y-13.469
N15045 X-21.769 Y-14.002
N15050 X-20.428 Y-15.91
N15055 X-20.273 Y-16.103
N15060 X-18.812 Y-17.774
N15065 X-18.39 Y-18.219
N15070 X-16.507 Y-19.954
N15075 X-14.438 Y-21.491
N15080 X-14.05 Y-21.738
N15085 X-12.134 Y-22.867
N15090 X-11.552 Y-23.157
N15095 X-9.639 Y-24.025
N15100 X-9.061 Y-24.242
N15105 X-7.137 Y-24.879
N15110 X-6.561 Y-25.04
N15115 X-4.63 Y-25.459
N15120 X-4.057 Y-25.574
N15125 X-1.543 Y-25.844
N15130 X-0.972 Y-25.861
N15135 X0.972
N15140 X1.543 Y-25.844
N15145 X4.057 Y-25.574
N15150 X4.63 Y-25.459
N15155 X6.561 Y-25.04
N15160 X7.137 Y-24.879
N15165 X9.061 Y-24.242
N15170 X9.639 Y-24.025
N15175 X11.552 Y-23.157
N15180 X12.134 Y-22.867
N15185 X14.05 Y-21.738
N15190 X14.438 Y-21.491
N15195 X16.507 Y-19.954
N15200 X18.39 Y-18.219
N15205 X18.812 Y-17.774
N15210 X19.508 Y-16.978
N15215 G03 X19.409 Y-16.509 I-0.226 J0.198
N15220 G01 X16.247 Y-15.031
N15225 G03 X15.903 Y-15.095 I-0.127 J-0.272
N15230 G02 X6.327 Y-20.89 I-15.557 J14.895
N15235 X-5.297 Y-21.286 I-6.596 J22.816
N15240 X-18.326 Y-12.06 I4.312 J19.902
N15245 X-21.645 Y3.556 I20.24 J12.462
N15250 X-18.759 Y11.325 I18.616 J-2.493
N15255 X-13.234 Y17.501 I22.951 J-14.972
N15260 X-11.051 Y19.01 I10.01 J-12.148
N15265 X-8.659 Y20.156 I8.94 J-15.599
N15270 X8.143 Y20.344 I8.649 J-22.119
N15275 X20.175 Y8.616 I-7.038 J-19.257
N15280 X21.551 Y-3.642 I-21.964 J-8.672
N15285 X16.214 Y-14.763 I-20.964 J3.221
N15290 G01 X15.903 Y-15.095
N15295 G02 X13.274 Y-15.641 I-1.712 J1.639
N15300 G03 X10.6 Y-15.884 I-1.108 J-2.643
N15305 G01 X10.539 Y-15.922
N15310 X9.209 Y-16.714
N15315 G02 X8.369 Y-17.149 I-6.581 J11.664
N15320 G01 X7.039 Y-17.75
N15325 X6.956 Y-17.786
N15330 X6.871 Y-17.816
N15335 G02 X4.809 Y-18.472 I-9.569 J26.532
N15340 G01 X4.693 Y-18.501
N15345 X3.363 Y-18.789
N15350 X3.243 Y-18.81
N15355 G02 X1.184 Y-19.057 I-4.468 J28.578
N15360 G01 X1.096 Y-19.064
N15365 X1.008 Y-19.067
N15370 X-0.322 Y-19.075
N15375 X-0.353
N15380 X-1.018 Y-19.067
N15385 X-1.184 Y-19.057
N15390 G02 X-3.243 Y-18.81 I2.409 J28.833
N15395 G01 X-3.363 Y-18.789
N15400 X-4.693 Y-18.501
N15405 X-4.809 Y-18.472
N15410 G02 X-6.871 Y-17.816 I7.502 J27.169
N15415 G01 X-6.956 Y-17.786
N15420 X-7.039 Y-17.75
N15425 X-8.369 Y-17.149
N15430 G02 X-9.209 Y-16.714 I6.062 J12.728
N15435 G01 X-10.539 Y-15.922
N15440 X-10.614 Y-15.874
N15445 X-10.687 Y-15.823
N15450 X-12.017 Y-14.835
N15455 X-12.142 Y-14.733
N15460 X-12.807 Y-14.137
N15465 X-12.826 Y-14.12
N15470 X-13.491 Y-13.506
N15475 X-13.6 Y-13.397
N15480 X-14.265 Y-12.664
N15485 X-14.288 Y-12.638
N15490 X-14.953 Y-11.876
N15495 X-15.01 Y-11.807
N15500 X-15.064 Y-11.735
N15505 G02 X-16.284 Y-9.959 I26.394 J19.438
N15510 G01 X-16.352 Y-9.846
N15515 G02 X-17.123 Y-8.45 I27.09 J15.88
N15520 G01 X-17.242 Y-8.204
N15525 X-17.907 Y-6.628
N15530 X-17.957 Y-6.496
N15535 G02 X-18.458 Y-4.859 I32.867 J10.969
N15540 G01 X-18.491 Y-4.733
N15545 G02 X-18.904 Y-2.687 I32.263 J7.581
N15550 G01 X-18.919 Y-2.6
N15555 X-18.928 Y-2.511
N15560 X-19.041 Y-1.184
N15565 X-19.044 Y-1.151
N15570 X-19.087 Y-0.487
N15575 X-19.09 Y-0.326
N15580 G02 X-19.009 Y1.731 I28.1 J-0.078
N15585 G01 X-18.997 Y1.851
N15590 X-18.82 Y3.178
N15595 G02 X-18.329 Y5.351 I23.733 J-4.221
N15600 G01 X-18.305 Y5.436
N15605 X-18.278 Y5.52
N15610 G02 X-17.524 Y7.569 I29.918 J-9.845
N15615 G01 X-17.47 Y7.692
N15620 X-16.825 Y9.019
N15625 X-16.756 Y9.147
N15630 G02 X-15.783 Y10.737 I35.043 J-20.351
N15635 G01 X-15.716 Y10.837
N15640 G02 X-14.325 Y12.618 I22.768 J-16.345
N15645 G01 X-14.223 Y12.736
N15650 X-13.522 Y13.456
N15655 X-13.497 Y13.481
N15660 X-12.868 Y14.101
N15665 X-12.752 Y14.206
N15670 X-11.422 Y15.302
N15675 X-11.35 Y15.358
N15680 X-11.277 Y15.409
N15685 X-9.864 Y16.347
N15690 X-9.729 Y16.428
N15695 G02 X-7.745 Y17.448 I16.349 J-29.356
N15700 G01 X-7.621 Y17.502
N15705 X-6.29 Y18.022
N15710 X-6.17 Y18.064
N15715 G02 X-4.115 Y18.647 I9.471 J-29.484
N15720 G01 X-4.027 Y18.668
N15725 X-3.939 Y18.685
N15730 G02 X-1.891 Y18.996 I6.324 J-34.701
N15735 G01 X-1.756 Y19.008
N15740 G02 X-0.333 Y19.082 I1.926 J-23.476
N15745 X0.426 Y19.08 I0.337 J-13.149
N15750 G01 X1.756 Y19.008
N15755 X1.891 Y18.996
N15760 G02 X3.939 Y18.685 I-4.275 J-35.003
N15765 G01 X4.027 Y18.668
N15770 X4.115 Y18.647
N15775 G02 X6.17 Y18.064 I-7.42 J-30.077
N15780 G01 X6.29 Y18.022
N15785 X7.621 Y17.502
N15790 X7.745 Y17.447
N15795 G02 X9.728 Y16.427 I-13.58 J-28.845
N15800 G01 X9.864 Y16.347
N15805 X11.277 Y15.409
N15810 X11.35 Y15.358
N15815 X11.422 Y15.302
N15820 X12.752 Y14.206
N15825 X12.869 Y14.1
N15830 X13.534 Y13.443
N15835 X13.558 Y13.419
N15840 X14.223 Y12.736
N15845 X14.332 Y12.613
N15850 G02 X15.718 Y10.838 I-25.72 J-21.525
N15855 G01 X15.783 Y10.737
N15860 G02 X16.763 Y9.134 I-25.49 J-16.695
N15865 G01 X16.825 Y9.019
N15870 X17.47 Y7.692
N15875 X17.524 Y7.569
N15880 G02 X18.278 Y5.52 I-29.152 J-11.89
N15885 G01 X18.305 Y5.436
N15890 X18.329 Y5.351
N15895 G02 X18.677 Y3.92 I-28.056 J-7.579
N15900 X18.82 Y3.178 I-11.624 J-2.631
N15905 G01 X18.997 Y1.851
N15910 X19.009 Y1.731
N15915 G02 X19.09 Y-0.326 I-28.004 J-2.134
N15920 G01 X19.091 Y-0.413
N15925 X19.086 Y-0.5
N15930 X18.99 Y-1.827
N15935 X18.987 Y-1.857
N15940 X18.927 Y-2.52
N15945 X18.918 Y-2.604
N15950 X18.904 Y-2.687
N15955 G02 X18.489 Y-4.744 I-27.637 J4.515
N15960 G01 X18.458 Y-4.859
N15965 G02 X17.957 Y-6.496 I-33.462 J9.36
N15970 G01 X17.907 Y-6.628
N15975 X17.242 Y-8.204
N15980 X17.087 Y-8.519
N15985 X16.352 Y-9.846
N15990 X16.279 Y-9.966
N15995 G02 X15.063 Y-11.735 I-31.662 J20.452
N16000 G01 X15.01 Y-11.807
N16005 X14.953 Y-11.876
N16010 G02 X13.593 Y-13.403 I-32.011 J27.125
N16015 G01 X13.491 Y-13.506
N16020 X12.668 Y-14.266
N16025 X12.643 Y-14.288
N16030 X12.136 Y-14.739
N16035 X12.017 Y-14.835
N16040 X10.687 Y-15.823
N16045 X10.659 Y-15.844
N16050 X10.629 Y-15.864
N16055 X10.6 Y-15.884
N16060 G03 X10.764 Y-16.377 I0.147 J-0.225
N16065 G01 X11.734 Y-16.313
N16070 X11.769 Y-16.308
N16075 X11.803 Y-16.299
N16080 X14.443 Y-15.399
N16085 X14.464 Y-15.39
N16090 X14.482 Y-15.377
N16095 X14.708 Y-15.191
N16100 X14.736 Y-15.157
N16105 X14.751 Y-15.116
N16110 Y-15.072
N16115 X14.735 Y-15.031
N16120 X14.706 Y-14.997
N16125 X14.668 Y-14.976
N16130 X14.624 Y-14.97
N16135 X14.581 Y-14.979
N16140 X14.544 Y-15.003
N16145 X13.491 Y-15.975 Z-10.05 F200.
N16150 X13.365 Y-16.081 Z-10.056
N16155 X12.7 Y-16.588 Z-10.085
N16160 X12.683 Y-16.601 Z-10.086
N16165 X12.018 Y-17.095 Z-10.115
N16170 X11.997 Y-17.11 Z-10.116
N16175 X11.976 Y-17.125
N16180 X11.955 Y-17.139 Z-10.117
N16185 X11.29 Y-17.589 Z-10.145
N16190 X11.259 Y-17.609 Z-10.147
N16195 X11.228 Y-17.629 Z-10.148
N16200 X11.197 Y-17.648 Z-10.149
N16205 X9.804 Y-18.469 Z-10.206
N16210 X9.662 Y-18.544 Z-10.211
N16215 X9.06 Y-18.828 Z-10.235
N16220 X9.035 Y-18.839 Z-10.236
N16225 X7.705 Y-19.441 Z-10.286
N16230 X7.618 Y-19.477 Z-10.29
N16235 X7.53 Y-19.509 Z-10.293
N16240 X5.535 Y-20.165 Z-10.366
N16245 X5.444 Y-20.192 Z-10.37
N16250 X5.353 Y-20.214 Z-10.373
N16255 X3.358 Y-20.639 Z-10.444
N16260 X3.267 Y-20.656 Z-10.447
N16265 X3.176 Y-20.668 Z-10.451
N16270 X1.181 Y-20.878 Z-10.521
N16275 X1.089 Y-20.885 Z-10.524
N16280 X0.998 Y-20.888 Z-10.527
N16285 X-0.998 Z-10.597
N16290 X-1.089 Y-20.885 Z-10.6
N16295 X-1.181 Y-20.878 Z-10.603
N16300 X-3.176 Y-20.668 Z-10.673
N16305 X-3.267 Y-20.656 Z-10.676
N16310 X-3.358 Y-20.639 Z-10.68
N16315 X-5.353 Y-20.214 Z-10.751
N16320 X-5.444 Y-20.192 Z-10.754
N16325 X-5.535 Y-20.165 Z-10.757
N16330 X-7.53 Y-19.509 Z-10.831
N16335 X-7.618 Y-19.477 Z-10.834
N16340 X-7.705 Y-19.441 Z-10.837
N16345 X-9.035 Y-18.839 Z-10.888
N16350 X-9.06 Y-18.828 Z-10.889
N16355 X-9.662 Y-18.544 Z-10.913
N16360 X-9.804 Y-18.469 Z-10.918
N16365 X-11.197 Y-17.648 Z-10.975
N16370 X-11.296 Y-17.585 Z-10.979
N16375 X-11.798 Y-17.242 Z-11.
N16380 G02 X-13.378 Y-16.068 I14.403 J21.032 F240.
N16385 G01 X-13.491 Y-15.975
N16390 X-14.821 Y-14.747
N16395 X-14.935 Y-14.632
N16400 G02 X-16.639 Y-12.662 I21.223 J20.085
N16405 G01 X-17.568 Y-11.331
N16410 X-17.585 Y-11.306
N16415 X-17.602 Y-11.28
N16420 X-17.761 Y-11.036
N16425 X-17.828 Y-10.925
N16430 X-18.789 Y-9.179
N16435 X-18.831 Y-9.098
N16440 X-18.868 Y-9.016
N16445 G02 X-19.706 Y-6.985 I41.419 J18.275
N16450 G01 X-19.753 Y-6.85
N16455 G02 X-20.346 Y-4.807 I33.753 J10.906
N16460 G01 X-20.375 Y-4.678
N16465 X-20.675 Y-3.089
N16470 G02 X-20.756 Y-2.503 I8.762 J1.512
N16475 X-20.903 Y-0.473 I47.243 J4.442
N16480 G01 X-20.905 Y-0.326
N16485 X-20.87 Y1.001
N16490 X-20.869 Y1.026
N16495 X-20.842 Y1.69
N16500 X-20.827 Y1.856
N16505 X-20.554 Y3.847
N16510 X-20.539 Y3.936
N16515 X-20.52 Y4.024
N16520 X-20.196 Y5.351
N16525 X-20.191 Y5.37
N16530 X-20.021 Y6.034
N16535 X-19.972 Y6.193
N16540 X-19.494 Y7.52
N16545 X-19.486 Y7.541
N16550 X-19.263 Y8.135
N16555 X-19.199 Y8.286
N16560 X-18.519 Y9.683
N16565 G02 X-18.066 Y10.509 I13.433 J-6.834
N16570 X-17.194 Y11.9 I28.908 J-17.165
N16575 G01 X-17.006 Y12.166
N16580 G02 X-15.645 Y13.868 I31.481 J-23.788
N16585 G01 X-15.55 Y13.973
N16590 X-14.22 Y15.332
N16595 X-14.155 Y15.395
N16600 X-14.086 Y15.455
N16605 X-12.756 Y16.559
N16610 G02 X-11.144 Y17.675 I11.408 J-14.757
N16615 G01 X-11.12 Y17.69
N16620 X-10.587 Y18.031
N16625 X-10.451 Y18.11
N16630 X-9.12 Y18.802
N16635 X-9.088 Y18.818
N16640 X-9.054 Y18.834
N16645 X-8.389 Y19.145
N16650 X-8.281 Y19.191
N16655 X-6.612 Y19.839
N16660 X-6.526 Y19.869
N16665 X-6.44 Y19.895
N16670 X-4.784 Y20.347
N16675 G02 X-2.606 Y20.738 I5.219 J-22.797
N16680 X-1.756 Y20.825 I1.633 J-11.82
N16685 X-0.333 Y20.899 I1.983 J-24.523
N16690 X0.426 Y20.896 I0.336 J-13.367
N16695 X2.572 Y20.744 I-0.555 J-23.038
N16700 X4.784 Y20.348 I-3.212 J-24.349
N16705 G01 X6.44 Y19.895
N16710 X6.527 Y19.869
N16715 X6.612 Y19.838
N16720 X8.322 Y19.175
N16725 X8.437 Y19.126
N16730 G02 X10.451 Y18.11 I-12.698 J-27.689
N16735 G01 X10.592 Y18.028
N16740 G02 X12.758 Y16.561 I-14.977 J-24.449
N16745 G01 X14.086 Y15.455
N16750 X14.155 Y15.395
N16755 X14.22 Y15.332
N16760 X15.55 Y13.973
N16765 X15.645 Y13.868
N16770 G02 X17.239 Y11.839 I-22.296 J-19.161
N16775 G01 X18.065 Y10.509
N16780 G02 X18.533 Y9.654 I-12.115 J-7.182
N16785 G01 X19.199 Y8.286
N16790 X19.235 Y8.206
N16795 X19.267 Y8.124
N16800 X19.729 Y6.867
N16805 X19.733 Y6.857
N16810 X19.972 Y6.193
N16815 X20. Y6.109
N16820 X20.024 Y6.024
N16825 X20.356 Y4.697
N16830 X20.358 Y4.687
N16835 X20.52 Y4.024
N16840 X20.539 Y3.936
N16845 X20.554 Y3.847
N16850 X20.827 Y1.856
N16855 X20.837 Y1.767
N16860 X20.842 Y1.677
N16865 X20.887 Y0.35
N16870 Y0.338
N16875 X20.905 Y-0.326
N16880 X20.903 Y-0.473
N16885 G02 X20.679 Y-3.09 I-27.677 J1.05
N16890 G01 X20.375 Y-4.678
N16895 X20.346 Y-4.807
N16900 G02 X19.753 Y-6.85 I-34.334 J8.861
N16905 G01 X19.706 Y-6.985
N16910 G02 X18.868 Y-9.016 I-42.248 J16.241
N16915 G01 X18.831 Y-9.098
N16920 X18.789 Y-9.179
N16925 X17.828 Y-10.925
N16930 X17.761 Y-11.036
N16935 X17.602 Y-11.28
N16940 G02 X16.588 Y-12.723 I-33.584 J22.526
N16945 G01 X16.282 Y-13.115
N16950 G02 X14.926 Y-14.642 I-36.901 J31.398
N16955 G01 X14.821 Y-14.747
N16960 X13.491 Y-15.975
N16965 X13.365 Y-16.081
N16970 G02 X11.198 Y-17.65 I-18.237 J22.9
N16975 G01 X9.804 Y-18.469
N16980 X9.662 Y-18.544
N16985 X9.06 Y-18.828
N16990 X9.035 Y-18.839
N16995 X7.705 Y-19.441
N17000 X7.618 Y-19.477
N17005 X7.53 Y-19.509
N17010 X5.535 Y-20.165
N17015 X5.444 Y-20.192
N17020 X5.353 Y-20.214
N17025 X3.358 Y-20.639
N17030 X3.267 Y-20.656
N17035 X3.176 Y-20.668
N17040 X1.181 Y-20.878
N17045 X1.089 Y-20.885
N17050 X0.998 Y-20.888
N17055 X-0.998
N17060 X-1.089 Y-20.885
N17065 X-1.181 Y-20.878
N17070 X-3.176 Y-20.668
N17075 X-3.267 Y-20.656
N17080 X-3.358 Y-20.639
N17085 X-5.353 Y-20.214
N17090 X-5.444 Y-20.192
N17095 X-5.535 Y-20.165
N17100 X-7.53 Y-19.509
N17105 X-7.618 Y-19.477
N17110 X-7.705 Y-19.441
N17115 X-9.035 Y-18.839
N17120 X-9.06 Y-18.828
N17125 X-9.662 Y-18.544
N17130 X-9.804 Y-18.469
N17135 X-11.197 Y-17.648
N17140 X-11.296 Y-17.585
N17145 X-11.798 Y-17.242
N17150 G03 X-12.23 Y-17.344 I-0.169 J-0.248
N17155 G01 X-13.49 Y-19.611
N17160 G03 X-13.406 Y-19.997 I0.262 J-0.146
N17165 G01 X-13.331 Y-20.054
N17170 X-11.083 Y-21.378
N17175 X-8.975 Y-22.335
N17180 X-8.397 Y-22.551
N17185 X-6.336 Y-23.233
N17190 X-4.016 Y-23.735
N17195 X-3.443 Y-23.815
N17200 X-1.529 Y-24.021
N17205 X-0.958 Y-24.047
N17210 X0.958
N17215 X1.529 Y-24.021
N17220 X3.443 Y-23.815
N17225 X4.016 Y-23.735
N17230 X6.336 Y-23.233
N17235 X8.397 Y-22.551
N17240 X8.975 Y-22.335
N17245 X11.083 Y-21.378
N17250 X13.331 Y-20.054
N17255 X15.204 Y-18.662
N17260 X15.622 Y-18.306
N17265 X17.055 Y-16.983
N17270 X17.657 Y-16.339
N17275 X18.908 Y-14.909
N17280 X20.178 Y-13.11
N17285 X20.442 Y-12.724
N17290 X21.485 Y-10.842
N17295 X21.77 Y-10.262
N17300 X22.629 Y-8.227
N17305 X22.957 Y-7.161
N17310 X23.338 Y-5.899
N17315 X23.467 Y-5.327
N17320 X23.869 Y-3.191
N17325 X24.049 Y-0.94
N17330 X24.066 Y-0.37
N17335 X24.015 Y1.541
N17340 X23.979 Y2.111
N17345 X23.724 Y4.019
N17350 X23.633 Y4.591
N17355 X23.168 Y6.493
N17360 X23.015 Y7.066
N17365 X22.332 Y8.96
N17370 X22.102 Y9.537
N17375 X21.186 Y11.42
N17380 X20.857 Y12.001
N17385 X19.676 Y13.88
N17390 X18.216 Y15.739
N17395 X17.659 Y16.335
N17400 X16.427 Y17.6
N17405 X15.73 Y18.195
N17410 X14.544 Y19.179
N17415 X14.208 Y19.432
N17420 X12.296 Y20.701
N17425 X12.127 Y20.799
N17430 X9.969 Y21.92
N17435 X7.736 Y22.795
N17440 X7.16 Y22.973
N17445 X5.256 Y23.492
N17450 X4.683 Y23.603
N17455 X2.772 Y23.911
N17460 X2.2 Y23.964
N17465 X0.286 Y24.066
N17470 X-0.286
N17475 X-2.2 Y23.964
N17480 X-2.772 Y23.911
N17485 X-4.683 Y23.603
N17490 X-5.256 Y23.492
N17495 X-7.16 Y22.973
N17500 X-7.736 Y22.795
N17505 X-9.969 Y21.92
N17510 X-12.127 Y20.799
N17515 X-12.296 Y20.701
N17520 X-14.208 Y19.432
N17525 X-14.544 Y19.179
N17530 X-15.83 Y18.113
N17535 X-16.432 Y17.595
N17540 X-17.688 Y16.304
N17545 X-18.215 Y15.74
N17550 X-19.676 Y13.88
N17555 X-20.857 Y12.001
N17560 X-21.186 Y11.42
N17565 X-22.102 Y9.537
N17570 X-22.332 Y8.96
N17575 X-23.013 Y7.072
N17580 X-23.244 Y6.184
N17585 X-23.633 Y4.591
N17590 X-23.724 Y4.019
N17595 X-23.979 Y2.111
N17600 X-24.015 Y1.541
N17605 X-24.066 Y-0.37
N17610 X-24.049 Y-0.94
N17615 X-23.869 Y-3.191
N17620 X-23.467 Y-5.327
N17625 X-23.338 Y-5.899
N17630 X-22.759 Y-7.818
N17635 X-22.632 Y-8.221
N17640 X-21.77 Y-10.262
N17645 X-21.485 Y-10.842
N17650 X-20.446 Y-12.717
N17655 X-19.518 Y-14.049
N17660 X-18.909 Y-14.907
N17665 X-17.562 Y-16.447
N17670 X-17.059 Y-16.979
N17675 X-15.622 Y-18.306
N17680 X-15.204 Y-18.662
N17685 X-13.406 Y-19.997
N17690 X-13.351 Y-20.034 Z-10.992
N17695 X-13.291 Y-20.064 Z-10.985
N17700 X-13.232 Y-20.087 Z-10.963
N17705 X-13.171 Y-20.103 Z-10.941
N17710 X-13.115 Y-20.112 Z-10.905
N17715 X-13.058 Y-20.116 Z-10.869
N17720 X-12.963 Y-20.11 Z-10.774
N17725 X-12.893 Y-20.095 Z-10.66
N17730 X-12.851 Y-20.082 Z-10.534
N17735 X-12.837 Y-20.077 Z-10.4
N17740 G00 Z15.

N17745 G28 G91 Z0.
N17750 G90
N17755 G49
N17760 G5.1 Q0
N17765 G28 G91 X0. Y0.
N17770 G90
N17775 M30
%
